; generated by SuperSlicer 2.3.56 on 2021-10-21 at 19:27:24 UTC


;
;

;
;
; 

; external perimeters extrusion width = 0.38mm
; perimeters extrusion width = 0.38mm
; infill extrusion width = 0.45mm
; solid infill extrusion width = 0.45mm
; top infill extrusion width = 0.44mm
; support material extrusion width = 0.40mm
; first layer extrusion width = 0.40mm


;TYPE:Custom
; M190 S0
; M109 S0 ; uncomment to remove set&wait temp gcode added automatically after this start gcode
print_start EXTRUDER=245 BED=110 CHAMBER=50
G21 ; set units to millimeters
G90 ; use absolute coordinates
M83 ; use relative distances for extrusion
M104 S245 ; set temperature
M109 S245 ; set temperature and wait for it to be reached
M190 S110 ; set bed temperature and wait for it to be reached
;LAYER_CHANGE
;Z:0.25
;HEIGHT:0.25

G1 Z0.250000 F18000
G1 E-0.50000 F2100
G1 Z1.150000 F18000
G1 X90.363 Y61.933
G1 Z0.250000
G1 E0.50000 F1800
; External perimeter
;Skirt
SET_VELOCITY_LIMIT ACCEL=7000 ACCEL_TO_DECEL=7000 SQUARE_CORNER_VELOCITY=8

; Support material

;TYPE:Skirt
;WIDTH:0.4
G1 F1500
M204 S2000
G1 X90.834 Y61.300 E0.02555
G1 X91.503 Y60.631 E0.03064
G1 X92.119 Y60.172 E0.02491
G1 X92.774 Y59.806 E0.02431
G1 X93.484 Y59.523 E0.02476
G1 X94.187 Y59.342 E0.02351
G1 X95.103 Y59.239 E0.02986
G1 X154.705 Y59.234 E1.93105
G1 X155.864 Y59.352 E0.03776
G1 X156.825 Y59.634 E0.03245
G1 X157.859 Y60.158 E0.03754
G1 X158.811 Y60.916 E0.03943
G1 X159.566 Y61.827 E0.03833
G1 X160.046 Y62.689 E0.03198
G1 X160.418 Y63.792 E0.03771
G1 X160.563 Y64.941 E0.03754
G1 X160.566 Y184.919 E3.88716
G1 X160.419 Y186.202 E0.04183
G1 X159.997 Y187.421 E0.04178
G1 X159.637 Y188.067 E0.02398
G1 X159.166 Y188.700 E0.02555
G1 X158.494 Y189.372 E0.03080
G1 X157.873 Y189.834 E0.02507
G1 X157.217 Y190.198 E0.02431
G1 X156.498 Y190.483 E0.02507
G1 X155.799 Y190.660 E0.02336
G1 X154.859 Y190.763 E0.03063
G1 X95.266 Y190.766 E1.93074
G1 X93.993 Y190.618 E0.04152
G1 X92.780 Y190.197 E0.04162
G1 X92.129 Y189.835 E0.02413
G1 X91.493 Y189.360 E0.02572
G1 X90.822 Y188.687 E0.03080
G1 X90.353 Y188.052 E0.02555
G1 X89.994 Y187.400 E0.02414
G1 X89.709 Y186.670 E0.02539
G1 X89.497 Y185.743 E0.03081
G1 X89.435 Y184.986 E0.02461
G1 X89.434 Y65.081 E3.88480
G1 X89.581 Y63.798 E0.04183
G1 X90.003 Y62.579 E0.04178
G1 X90.334 Y61.985 E0.02203
M204 S3000
G1 X90.636 Y62.153 F18000
G1 F1500
M204 S2000
G1 X90.655 Y62.119 E0.00127
G1 X91.096 Y61.526 E0.02395
G1 X91.732 Y60.890 E0.02913
G1 X92.314 Y60.458 E0.02349
G1 X92.924 Y60.118 E0.02262
G1 X93.598 Y59.850 E0.02349
G1 X94.255 Y59.682 E0.02200
G1 X95.131 Y59.585 E0.02853
G1 X154.705 Y59.580 E1.93014
G1 X155.798 Y59.692 E0.03562
G1 X156.698 Y59.957 E0.03038
G1 X157.673 Y60.450 E0.03541
G1 X158.574 Y61.169 E0.03736
G1 X159.282 Y62.026 E0.03601
G1 X159.731 Y62.833 E0.02994
G1 X160.082 Y63.874 E0.03557
G1 X160.217 Y64.963 E0.03556
G1 X160.219 Y184.914 E3.88629
G1 X160.082 Y186.125 E0.03951
G1 X159.682 Y187.276 E0.03946
G1 X159.345 Y187.881 E0.02245
G1 X158.904 Y188.474 E0.02395
G1 X158.264 Y189.113 E0.02928
G1 X157.678 Y189.547 E0.02364
G1 X157.068 Y189.886 E0.02261
G1 X156.394 Y190.152 E0.02349
G1 X155.735 Y190.320 E0.02203
G1 X154.837 Y190.417 E0.02924
G1 X95.268 Y190.419 E1.93000
G1 X94.070 Y190.281 E0.03906
G1 X92.924 Y189.882 E0.03930
G1 X92.315 Y189.543 E0.02260
G1 X91.719 Y189.098 E0.02410
G1 X91.081 Y188.457 E0.02928
G1 X90.643 Y187.862 E0.02395
G1 X90.307 Y187.251 E0.02260
G1 X90.040 Y186.567 E0.02379
G1 X89.838 Y185.686 E0.02928
G1 X89.781 Y184.972 E0.02320
G1 X89.781 Y65.086 E3.88419
G1 X89.918 Y63.875 E0.03951
G1 X90.318 Y62.724 E0.03945
G1 X90.607 Y62.206 E0.01923
M204 S3000
G1 X90.908 Y62.374 F18000
G1 F1500
M204 S2000
G1 X90.945 Y62.309 E0.00242
G1 X91.356 Y61.755 E0.02235
G1 X91.962 Y61.150 E0.02773
G1 X92.505 Y60.747 E0.02191
G1 X93.074 Y60.430 E0.02109
G1 X93.702 Y60.181 E0.02192
G1 X94.315 Y60.023 E0.02050
G1 X95.153 Y59.930 E0.02731
G1 X154.704 Y59.927 E1.92941
G1 X155.733 Y60.032 E0.03350
G1 X156.567 Y60.277 E0.02817
G1 X157.484 Y60.740 E0.03327
G1 X158.335 Y61.419 E0.03527
G1 X158.999 Y62.225 E0.03384
G1 X159.417 Y62.978 E0.02789
G1 X159.745 Y63.956 E0.03342
G1 X159.871 Y64.984 E0.03355
G1 X159.873 Y184.913 E3.88559
G1 X159.744 Y186.049 E0.03704
G1 X159.367 Y187.131 E0.03711
G1 X159.055 Y187.691 E0.02078
G1 X158.641 Y188.249 E0.02249
G1 X158.035 Y188.853 E0.02773
G1 X157.487 Y189.258 E0.02206
G1 X156.918 Y189.573 E0.02108
G1 X156.285 Y189.823 E0.02206
G1 X155.451 Y190.016 E0.02774
G1 X154.817 Y190.071 E0.02064
G1 X95.274 Y190.073 E1.92913
G1 X94.147 Y189.943 E0.03676
G1 X93.069 Y189.567 E0.03697
G1 X92.505 Y189.253 E0.02093
G1 X91.948 Y188.838 E0.02250
G1 X91.344 Y188.232 E0.02773
G1 X90.933 Y187.673 E0.02249
G1 X90.621 Y187.107 E0.02093
G1 X90.370 Y186.464 E0.02235
G1 X90.180 Y185.629 E0.02774
G1 X90.127 Y184.959 E0.02178
G1 X90.127 Y65.087 E3.88374
G1 X90.256 Y63.951 E0.03704
G1 X90.633 Y62.869 E0.03711
G1 X90.879 Y62.426 E0.01642
G1 E-0.50000 F2100
M204 S3000
G1 Z1.150000 F18000
G1 X150.624 Y169.216
G1 Z0.250000
G1 E0.50000 F1800
; External perimeter
;Perimeter
SET_VELOCITY_LIMIT ACCEL=2000 ACCEL_TO_DECEL=2000 SQUARE_CORNER_VELOCITY=8

; Overhang perimeter

;TYPE:Internal perimeter
G1 F1500
M204 S2000
G1 X150.325 Y169.434 E0.01197
G1 X150.056 Y169.686 E0.01197
G1 X149.820 Y169.971 E0.01197
G1 X149.622 Y170.283 E0.01197
G1 X149.465 Y170.617 E0.01197
G1 X149.351 Y170.968 E0.01197
G1 X149.282 Y171.331 E0.01197
G1 X149.259 Y171.700 E0.01197
G1 X149.282 Y172.069 E0.01197
G1 X149.351 Y172.432 E0.01197
G1 X149.465 Y172.783 E0.01197
G1 X149.622 Y173.117 E0.01197
G1 X149.820 Y173.429 E0.01197
G1 X150.056 Y173.714 E0.01197
G1 X150.325 Y173.966 E0.01197
G1 X150.624 Y174.184 E0.01197
G1 X150.948 Y174.362 E0.01197
G1 X151.291 Y174.498 E0.01197
G1 X151.649 Y174.589 E0.01197
G1 X152.015 Y174.636 E0.01197
G1 X152.385 Y174.636 E0.01197
G1 X152.751 Y174.589 E0.01197
G1 X153.109 Y174.498 E0.01197
G1 X153.452 Y174.362 E0.01197
G1 X153.776 Y174.184 E0.01197
G1 X154.075 Y173.966 E0.01197
G1 X154.344 Y173.714 E0.01197
G1 X154.580 Y173.429 E0.01197
G1 X154.778 Y173.117 E0.01197
G1 X154.935 Y172.783 E0.01197
G1 X155.049 Y172.432 E0.01197
G1 X155.118 Y172.069 E0.01197
G1 X155.141 Y171.700 E0.01197
G1 X155.118 Y171.331 E0.01197
G1 X155.049 Y170.968 E0.01197
G1 X154.935 Y170.617 E0.01197
G1 X154.778 Y170.283 E0.01197
G1 X154.580 Y169.971 E0.01197
G1 X154.344 Y169.686 E0.01197
G1 X154.075 Y169.434 E0.01197
G1 X153.776 Y169.216 E0.01197
G1 X153.452 Y169.038 E0.01197
G1 X153.109 Y168.902 E0.01197
G1 X152.751 Y168.811 E0.01197
G1 X152.385 Y168.764 E0.01197
G1 X152.015 Y168.764 E0.01197
G1 X151.649 Y168.811 E0.01197
G1 X151.291 Y168.902 E0.01197
G1 X150.948 Y169.038 E0.01197
G1 X150.676 Y169.188 E0.01002
M204 S3000
G1 X150.843 Y169.491 F18000
G1 F1500
M204 S2000
G1 X150.810 Y169.509 E0.00124
G1 X150.546 Y169.701 E0.01056
G1 X150.309 Y169.924 E0.01056
G1 X150.101 Y170.175 E0.01055
G1 X149.926 Y170.450 E0.01056
G1 X149.788 Y170.745 E0.01056
G1 X149.687 Y171.055 E0.01055
G1 X149.626 Y171.375 E0.01056
G1 X149.606 Y171.700 E0.01056
G1 X149.626 Y172.025 E0.01056
G1 X149.687 Y172.345 E0.01056
G1 X149.788 Y172.655 E0.01055
G1 X149.926 Y172.950 E0.01056
G1 X150.101 Y173.225 E0.01056
G1 X150.309 Y173.476 E0.01055
G1 X150.546 Y173.699 E0.01056
G1 X150.810 Y173.891 E0.01056
G1 X151.095 Y174.048 E0.01055
G1 X151.398 Y174.167 E0.01056
G1 X151.714 Y174.249 E0.01056
G1 X152.037 Y174.289 E0.01056
G1 X152.363 Y174.289 E0.01056
G1 X152.686 Y174.249 E0.01056
G1 X153.002 Y174.167 E0.01055
G1 X153.305 Y174.048 E0.01056
G1 X153.590 Y173.891 E0.01056
G1 X153.854 Y173.699 E0.01055
G1 X154.091 Y173.476 E0.01056
G1 X154.299 Y173.225 E0.01056
G1 X154.474 Y172.950 E0.01056
G1 X154.612 Y172.655 E0.01056
G1 X154.713 Y172.345 E0.01055
G1 X154.774 Y172.025 E0.01056
G1 X154.794 Y171.700 E0.01056
G1 X154.774 Y171.375 E0.01056
G1 X154.713 Y171.055 E0.01056
G1 X154.612 Y170.745 E0.01055
G1 X154.474 Y170.450 E0.01056
G1 X154.299 Y170.175 E0.01056
G1 X154.091 Y169.924 E0.01056
G1 X153.854 Y169.701 E0.01056
G1 X153.590 Y169.509 E0.01055
G1 X153.305 Y169.352 E0.01056
G1 X153.002 Y169.233 E0.01056
G1 X152.686 Y169.151 E0.01055
G1 X152.363 Y169.111 E0.01056
G1 X152.037 Y169.111 E0.01056
G1 X151.714 Y169.151 E0.01056
G1 X151.398 Y169.233 E0.01056
G1 X151.095 Y169.352 E0.01056
G1 X150.896 Y169.462 E0.00737
M204 S3000
G1 X151.063 Y169.766 F18000
G1 F1500
M204 S2000
G1 X150.996 Y169.802 E0.00248
G1 X150.767 Y169.968 E0.00914
G1 X150.562 Y170.162 E0.00914
G1 X150.382 Y170.379 E0.00914
G1 X150.231 Y170.617 E0.00914
G1 X150.110 Y170.873 E0.00914
G1 X150.023 Y171.141 E0.00914
G1 X149.970 Y171.418 E0.00914
G1 X149.953 Y171.700 E0.00914
G1 X149.970 Y171.982 E0.00914
G1 X150.023 Y172.259 E0.00914
G1 X150.110 Y172.527 E0.00914
G1 X150.231 Y172.783 E0.00914
G1 X150.382 Y173.021 E0.00914
G1 X150.562 Y173.238 E0.00914
G1 X150.767 Y173.432 E0.00914
G1 X150.996 Y173.598 E0.00914
G1 X151.243 Y173.734 E0.00914
G1 X151.505 Y173.837 E0.00914
G1 X151.779 Y173.908 E0.00914
G1 X152.059 Y173.943 E0.00914
G1 X152.341 Y173.943 E0.00914
G1 X152.621 Y173.908 E0.00914
G1 X152.894 Y173.837 E0.00914
G1 X153.157 Y173.734 E0.00914
G1 X153.404 Y173.598 E0.00914
G1 X153.633 Y173.432 E0.00914
G1 X153.838 Y173.238 E0.00914
G1 X154.018 Y173.021 E0.00914
G1 X154.169 Y172.783 E0.00914
G1 X154.290 Y172.527 E0.00914
G1 X154.377 Y172.259 E0.00914
G1 X154.430 Y171.982 E0.00914
G1 X154.447 Y171.700 E0.00914
G1 X154.430 Y171.418 E0.00914
G1 X154.377 Y171.141 E0.00914
G1 X154.290 Y170.873 E0.00914
G1 X154.169 Y170.617 E0.00914
G1 X154.018 Y170.379 E0.00914
G1 X153.838 Y170.162 E0.00914
G1 X153.633 Y169.968 E0.00914
G1 X153.404 Y169.802 E0.00914
G1 X153.157 Y169.666 E0.00914
G1 X152.894 Y169.563 E0.00914
G1 X152.621 Y169.492 E0.00914
G1 X152.341 Y169.457 E0.00914
G1 X152.059 Y169.457 E0.00914
G1 X151.779 Y169.492 E0.00914
G1 X151.505 Y169.563 E0.00914
G1 X151.243 Y169.666 E0.00914
G1 X151.115 Y169.737 E0.00472
M204 S3000
G1 X151.282 Y170.040 F18000
; External perimeter
;ExternalPerimeter0
SET_VELOCITY_LIMIT ACCEL=1000 ACCEL_TO_DECEL=1000 SQUARE_CORNER_VELOCITY=8

; Perimeter

;TYPE:External perimeter
G1 F1500
M204 S2000
G1 X151.182 Y170.095 E0.00372
G1 X150.989 Y170.236 E0.00773
G1 X150.815 Y170.399 E0.00773
G1 X150.663 Y170.583 E0.00773
G1 X150.535 Y170.784 E0.00773
G1 X150.433 Y171.000 E0.00773
G1 X150.359 Y171.227 E0.00773
G1 X150.315 Y171.462 E0.00773
G1 X150.300 Y171.700 E0.00773
G1 X150.315 Y171.938 E0.00773
G1 X150.359 Y172.173 E0.00773
G1 X150.433 Y172.400 E0.00773
G1 X150.535 Y172.616 E0.00773
G1 X150.663 Y172.817 E0.00773
G1 X150.815 Y173.001 E0.00773
G1 X150.989 Y173.164 E0.00773
G1 X151.182 Y173.305 E0.00773
G1 X151.391 Y173.420 E0.00773
G1 X151.613 Y173.507 E0.00773
G1 X151.844 Y173.567 E0.00773
G1 X152.081 Y173.597 E0.00773
G1 X152.319 Y173.597 E0.00773
G1 X152.556 Y173.567 E0.00773
G1 X152.787 Y173.507 E0.00773
G1 X153.009 Y173.420 E0.00773
G1 X153.218 Y173.305 E0.00773
G1 X153.411 Y173.164 E0.00773
G1 X153.585 Y173.001 E0.00773
G1 X153.737 Y172.817 E0.00773
G1 X153.865 Y172.616 E0.00773
G1 X153.967 Y172.400 E0.00773
G1 X154.041 Y172.173 E0.00773
G1 X154.085 Y171.938 E0.00773
G1 X154.100 Y171.700 E0.00773
G1 X154.085 Y171.462 E0.00773
G1 X154.041 Y171.227 E0.00773
G1 X153.967 Y171.000 E0.00773
G1 X153.865 Y170.784 E0.00773
G1 X153.737 Y170.583 E0.00773
G1 X153.585 Y170.399 E0.00773
G1 X153.411 Y170.236 E0.00773
G1 X153.218 Y170.095 E0.00773
G1 X153.009 Y169.980 E0.00773
G1 X152.787 Y169.893 E0.00773
G1 X152.556 Y169.833 E0.00773
G1 X152.319 Y169.803 E0.00773
G1 X152.081 Y169.803 E0.00773
G1 X151.844 Y169.833 E0.00773
G1 X151.613 Y169.893 E0.00773
G1 X151.391 Y169.980 E0.00773
G1 X151.335 Y170.011 E0.00207
M204 S3000
G1 X151.184 Y169.981 F18000
G1 E-0.50000 F2100
G1 Z0.650000 F18000
G1 X152.015 Y144.636
G1 Z0.250000
G1 E0.50000 F1800
; External perimeter
;Perimeter
SET_VELOCITY_LIMIT ACCEL=2000 ACCEL_TO_DECEL=2000 SQUARE_CORNER_VELOCITY=8

; Overhang perimeter

;TYPE:Internal perimeter
G1 F1500
M204 S2000
G1 X152.385 Y144.636 E0.01197
G1 X152.751 Y144.589 E0.01197
G1 X153.109 Y144.498 E0.01197
G1 X153.452 Y144.362 E0.01197
G1 X153.776 Y144.184 E0.01197
G1 X154.075 Y143.966 E0.01197
G1 X154.344 Y143.714 E0.01197
G1 X154.580 Y143.429 E0.01197
G1 X154.778 Y143.117 E0.01197
G1 X154.935 Y142.783 E0.01197
G1 X155.049 Y142.432 E0.01197
G1 X155.118 Y142.069 E0.01197
G1 X155.141 Y141.700 E0.01197
G1 X155.118 Y141.331 E0.01197
G1 X155.049 Y140.968 E0.01197
G1 X154.935 Y140.617 E0.01197
G1 X154.778 Y140.283 E0.01197
G1 X154.580 Y139.971 E0.01197
G1 X154.344 Y139.686 E0.01197
G1 X154.075 Y139.434 E0.01197
G1 X153.776 Y139.216 E0.01197
G1 X153.452 Y139.038 E0.01197
G1 X153.109 Y138.902 E0.01197
G1 X152.751 Y138.811 E0.01197
G1 X152.385 Y138.764 E0.01197
G1 X152.015 Y138.764 E0.01197
G1 X151.649 Y138.811 E0.01197
G1 X151.291 Y138.902 E0.01197
G1 X150.948 Y139.038 E0.01197
G1 X150.624 Y139.216 E0.01197
G1 X150.325 Y139.434 E0.01197
G1 X150.056 Y139.686 E0.01197
G1 X149.820 Y139.971 E0.01197
G1 X149.622 Y140.283 E0.01197
G1 X149.465 Y140.617 E0.01197
G1 X149.351 Y140.968 E0.01197
G1 X149.282 Y141.331 E0.01197
G1 X149.259 Y141.700 E0.01197
G1 X149.282 Y142.069 E0.01197
G1 X149.351 Y142.432 E0.01197
G1 X149.465 Y142.783 E0.01197
G1 X149.622 Y143.117 E0.01197
G1 X149.820 Y143.429 E0.01197
G1 X150.056 Y143.714 E0.01197
G1 X150.325 Y143.966 E0.01197
G1 X150.624 Y144.184 E0.01197
G1 X150.948 Y144.362 E0.01197
G1 X151.291 Y144.498 E0.01197
G1 X151.649 Y144.589 E0.01197
G1 X151.956 Y144.628 E0.01002
M204 S3000
G1 X151.999 Y144.285 F18000
G1 F1500
M204 S2000
G1 X152.037 Y144.289 E0.00124
G1 X152.363 Y144.289 E0.01056
G1 X152.686 Y144.249 E0.01056
G1 X153.002 Y144.167 E0.01055
G1 X153.305 Y144.048 E0.01056
G1 X153.590 Y143.891 E0.01056
G1 X153.854 Y143.699 E0.01055
G1 X154.091 Y143.476 E0.01056
G1 X154.299 Y143.225 E0.01056
G1 X154.474 Y142.950 E0.01056
G1 X154.612 Y142.655 E0.01056
G1 X154.713 Y142.345 E0.01055
G1 X154.774 Y142.025 E0.01056
G1 X154.794 Y141.700 E0.01056
G1 X154.774 Y141.375 E0.01056
G1 X154.713 Y141.055 E0.01056
G1 X154.612 Y140.745 E0.01055
G1 X154.474 Y140.450 E0.01056
G1 X154.299 Y140.175 E0.01056
G1 X154.091 Y139.924 E0.01056
G1 X153.854 Y139.701 E0.01056
G1 X153.590 Y139.509 E0.01056
G1 X153.305 Y139.352 E0.01056
G1 X153.002 Y139.233 E0.01056
G1 X152.686 Y139.151 E0.01055
G1 X152.363 Y139.111 E0.01056
G1 X152.037 Y139.111 E0.01056
G1 X151.714 Y139.151 E0.01056
G1 X151.398 Y139.233 E0.01056
G1 X151.095 Y139.352 E0.01056
G1 X150.810 Y139.509 E0.01056
G1 X150.546 Y139.701 E0.01056
G1 X150.309 Y139.924 E0.01056
G1 X150.101 Y140.175 E0.01055
G1 X149.926 Y140.450 E0.01056
G1 X149.788 Y140.745 E0.01056
G1 X149.687 Y141.055 E0.01055
G1 X149.626 Y141.375 E0.01056
G1 X149.606 Y141.700 E0.01056
G1 X149.626 Y142.025 E0.01056
G1 X149.687 Y142.345 E0.01056
G1 X149.788 Y142.655 E0.01055
G1 X149.926 Y142.950 E0.01056
G1 X150.101 Y143.225 E0.01056
G1 X150.309 Y143.476 E0.01055
G1 X150.546 Y143.699 E0.01056
G1 X150.810 Y143.891 E0.01056
G1 X151.095 Y144.048 E0.01056
G1 X151.398 Y144.167 E0.01056
G1 X151.714 Y144.249 E0.01056
G1 X151.940 Y144.277 E0.00737
M204 S3000
G1 X151.983 Y143.933 F18000
G1 F1500
M204 S2000
G1 X152.059 Y143.943 E0.00248
G1 X152.341 Y143.943 E0.00914
G1 X152.621 Y143.908 E0.00915
G1 X152.894 Y143.837 E0.00914
G1 X153.157 Y143.734 E0.00914
G1 X153.404 Y143.598 E0.00914
G1 X153.633 Y143.432 E0.00914
G1 X153.838 Y143.238 E0.00914
G1 X154.018 Y143.021 E0.00914
G1 X154.169 Y142.783 E0.00914
G1 X154.290 Y142.527 E0.00914
G1 X154.377 Y142.259 E0.00914
G1 X154.430 Y141.982 E0.00914
G1 X154.447 Y141.700 E0.00914
G1 X154.430 Y141.418 E0.00914
G1 X154.377 Y141.141 E0.00914
G1 X154.290 Y140.873 E0.00914
G1 X154.169 Y140.617 E0.00914
G1 X154.018 Y140.379 E0.00914
G1 X153.838 Y140.162 E0.00914
G1 X153.633 Y139.968 E0.00914
G1 X153.404 Y139.802 E0.00914
G1 X153.157 Y139.666 E0.00914
G1 X152.894 Y139.563 E0.00914
G1 X152.621 Y139.492 E0.00914
G1 X152.341 Y139.457 E0.00914
G1 X152.059 Y139.457 E0.00914
G1 X151.779 Y139.492 E0.00914
G1 X151.505 Y139.563 E0.00914
G1 X151.243 Y139.666 E0.00914
G1 X150.996 Y139.802 E0.00914
