; generated by SuperSlicer 2.3.56 on 2021-10-25 at 02:03:34 UTC


;
;

;
;
; 

; external perimeters extrusion width = 0.38mm
; perimeters extrusion width = 0.38mm
; infill extrusion width = 0.45mm
; solid infill extrusion width = 0.45mm
; top infill extrusion width = 0.44mm
; support material extrusion width = 0.40mm
; first layer extrusion width = 0.40mm


;TYPE:Custom
; M190 S0
; M109 S0 ; uncomment to remove set&wait temp gcode added automatically after this start gcode
print_start EXTRUDER=245 BED=110 CHAMBER=50
G21 ; set units to millimeters
G90 ; use absolute coordinates
M83 ; use relative distances for extrusion
M104 S245 ; set temperature
M109 S245 ; set temperature and wait for it to be reached
M190 S110 ; set bed temperature and wait for it to be reached
;LAYER_CHANGE
;Z:0.25
;HEIGHT:0.25

G1 Z0.250000 F18000
G1 E-0.50000 F2100
G1 Z1.150000 F18000
G1 X93.599 Y105.640
G1 Z0.250000
G1 E0.50000 F1800
; External perimeter
;Skirt
SET_VELOCITY_LIMIT ACCEL=7000 ACCEL_TO_DECEL=7000 SQUARE_CORNER_VELOCITY=8

; Support material

;TYPE:Skirt
;WIDTH:0.4
G1 F1500
M204 S2000
G1 X94.270 Y105.155 E0.02680
G1 X94.890 Y104.804 E0.02311
G1 X95.893 Y104.393 E0.03511
G1 X96.868 Y104.156 E0.03250
G1 X97.923 Y104.063 E0.03432
G1 X152.005 Y104.063 E1.75220
G1 X153.216 Y104.170 E0.03939
G1 X154.448 Y104.511 E0.04143
G1 X155.667 Y105.115 E0.04408
G1 X156.724 Y105.925 E0.04313
G1 X157.561 Y106.860 E0.04067
G1 X158.024 Y107.562 E0.02725
G1 X158.339 Y108.197 E0.02294
G1 X158.579 Y108.801 E0.02106
G1 X158.787 Y109.579 E0.02611
G1 X158.926 Y110.690 E0.03627
G1 X158.930 Y122.956 E0.39739
G1 X157.261 Y139.775 E0.54762
G1 X156.972 Y140.890 E0.03730
G1 X156.460 Y141.900 E0.03669
G1 X155.824 Y142.700 E0.03312
G1 X154.924 Y143.445 E0.03785
G1 X154.323 Y143.789 E0.02246
G1 X153.597 Y144.075 E0.02526
G1 X153.033 Y144.221 E0.01888
G1 X152.325 Y144.311 E0.02314
G1 X122.898 Y145.933 E0.95483
G1 X97.954 Y145.937 E0.80816
G1 X97.001 Y145.864 E0.03098
G1 X96.333 Y145.727 E0.02210
G1 X95.570 Y145.496 E0.02581
G1 X94.643 Y145.070 E0.03308
G1 X93.830 Y144.540 E0.03143
G1 X93.301 Y144.100 E0.02229
G1 X92.643 Y143.405 E0.03102
G1 X92.155 Y142.730 E0.02696
G1 X91.806 Y142.114 E0.02294
G1 X91.399 Y141.127 E0.03462
G1 X91.160 Y140.157 E0.03234
G1 X91.065 Y139.143 E0.03301
G1 X91.070 Y110.762 E0.91951
G1 X91.160 Y109.841 E0.02999
G1 X91.373 Y108.960 E0.02936
G1 X91.957 Y107.594 E0.04812
G1 X92.472 Y106.814 E0.03029
G1 X92.911 Y106.290 E0.02213
G1 X93.556 Y105.681 E0.02875
M204 S3000
G1 X93.793 Y105.933 F18000
G1 F1500
M204 S2000
G1 X93.826 Y105.901 E0.00149
G1 X94.471 Y105.438 E0.02573
G1 X95.041 Y105.116 E0.02122
G1 X95.999 Y104.722 E0.03356
G1 X96.926 Y104.497 E0.03090
G1 X97.931 Y104.410 E0.03268
G1 X152.005 Y104.409 E1.75194
G1 X153.155 Y104.511 E0.03741
G1 X154.321 Y104.833 E0.03920
G1 X155.485 Y105.410 E0.04210
G1 X156.492 Y106.181 E0.04108
G1 X157.282 Y107.065 E0.03841
G1 X157.727 Y107.740 E0.02618
G1 X158.029 Y108.351 E0.02209
G1 X158.452 Y109.669 E0.04483
G1 X158.582 Y110.732 E0.03470
G1 X158.585 Y122.931 E0.39523
G1 X156.950 Y139.458 E0.53809
G1 X156.763 Y140.439 E0.03236
G1 X156.297 Y141.507 E0.03774
G1 X155.637 Y142.394 E0.03582
G1 X154.720 Y143.164 E0.03879
G1 X154.160 Y143.483 E0.02089
G1 X153.476 Y143.751 E0.02380
G1 X152.291 Y143.967 E0.03904
G1 X122.876 Y145.587 E0.95444
G1 X97.961 Y145.591 E0.80723
G1 X97.048 Y145.520 E0.02968
G1 X96.422 Y145.392 E0.02070
G1 X95.701 Y145.176 E0.02437
G1 X94.809 Y144.766 E0.03182
G1 X94.035 Y144.261 E0.02994
G1 X93.536 Y143.845 E0.02103
G1 X92.904 Y143.177 E0.02979
G1 X92.438 Y142.529 E0.02588
G1 X92.118 Y141.963 E0.02106
G1 X91.727 Y141.015 E0.03324
G1 X91.500 Y140.093 E0.03075
G1 X91.411 Y139.122 E0.03158
G1 X91.415 Y110.786 E0.91806
G1 X91.501 Y109.904 E0.02874
G1 X91.706 Y109.056 E0.02825
G1 X92.260 Y107.762 E0.04561
G1 X92.754 Y107.015 E0.02900
G1 X93.168 Y106.522 E0.02087
G1 X93.749 Y105.974 E0.02589
M204 S3000
G1 X93.987 Y106.225 F18000
G1 F1500
M204 S2000
G1 X94.050 Y106.166 E0.00280
G1 X94.671 Y105.721 E0.02478
G1 X95.193 Y105.427 E0.01940
G1 X96.101 Y105.053 E0.03182
G1 X96.980 Y104.839 E0.02931
G1 X97.939 Y104.756 E0.03118
G1 X152.005 Y104.755 E1.75167
G1 X153.090 Y104.852 E0.03530
G1 X154.195 Y105.156 E0.03713
G1 X155.300 Y105.702 E0.03994
G1 X156.255 Y106.435 E0.03902
G1 X157.000 Y107.266 E0.03617
G1 X157.427 Y107.913 E0.02510
G1 X157.716 Y108.501 E0.02122
G1 X158.116 Y109.753 E0.04258
G1 X158.237 Y110.768 E0.03311
G1 X158.239 Y122.912 E0.39344
G1 X156.608 Y139.407 E0.53704
G1 X156.437 Y140.320 E0.03011
G1 X156.004 Y141.322 E0.03536
G1 X155.384 Y142.159 E0.03374
G1 X154.522 Y142.880 E0.03642
G1 X154.007 Y143.172 E0.01919
G1 X153.360 Y143.424 E0.02247
G1 X152.262 Y143.622 E0.03617
G1 X122.860 Y145.241 E0.95404
G1 X97.968 Y145.244 E0.80648
G1 X97.094 Y145.177 E0.02839
G1 X96.506 Y145.056 E0.01944
G1 X95.823 Y144.851 E0.02313
G1 X94.970 Y144.459 E0.03039
G1 X94.236 Y143.979 E0.02844
G1 X93.768 Y143.588 E0.01976
G1 X93.166 Y142.950 E0.02840
G1 X92.721 Y142.329 E0.02478
G1 X92.429 Y141.812 E0.01923
G1 X92.056 Y140.907 E0.03169
G1 X91.842 Y140.033 E0.02916
G1 X91.757 Y139.107 E0.03013
G1 X91.760 Y110.815 E0.91665
G1 X91.843 Y109.961 E0.02779
G1 X92.038 Y109.157 E0.02681
G1 X92.561 Y107.934 E0.04309
G1 X93.032 Y107.221 E0.02769
G1 X93.419 Y106.761 E0.01946
G1 X93.943 Y106.267 E0.02335
M204 S3000
G1 X94.180 Y106.518 F18000
G1 F1500
M204 S2000
G1 X94.276 Y106.428 E0.00427
G1 X94.867 Y106.007 E0.02352
G1 X95.622 Y105.609 E0.02764
G1 X96.204 Y105.384 E0.02021
G1 X97.039 Y105.181 E0.02786
G1 X97.952 Y105.102 E0.02967
G1 X152.004 Y105.102 E1.75124
G1 X153.026 Y105.192 E0.03322
G1 X154.069 Y105.478 E0.03505
G1 X155.118 Y105.997 E0.03791
G1 X156.022 Y106.691 E0.03694
G1 X156.721 Y107.472 E0.03395
G1 X157.129 Y108.091 E0.02401
G1 X157.406 Y108.654 E0.02032
G1 X157.782 Y109.845 E0.04047
G1 X157.893 Y110.816 E0.03165
G1 X157.893 Y122.893 E0.39128
G1 X156.264 Y139.365 E0.53630
G1 X156.101 Y140.233 E0.02861
G1 X155.678 Y141.192 E0.03394
G1 X155.084 Y141.970 E0.03175
G1 X154.201 Y142.673 E0.03655
G1 X153.191 Y143.115 E0.03572
G1 X152.224 Y143.277 E0.03176
G1 X122.839 Y144.896 E0.95350
G1 X97.974 Y144.898 E0.80560
G1 X97.140 Y144.834 E0.02710
G1 X96.595 Y144.721 E0.01801
G1 X95.952 Y144.530 E0.02176
G1 X95.136 Y144.155 E0.02908
G1 X94.003 Y143.333 E0.04535
G1 X93.431 Y142.727 E0.02700
G1 X93.007 Y142.133 E0.02366
G1 X92.741 Y141.660 E0.01756
G1 X92.387 Y140.804 E0.03001
G1 X92.184 Y139.978 E0.02758
G1 X92.103 Y139.092 E0.02882
G1 X92.106 Y110.837 E0.91542
G1 X92.184 Y110.022 E0.02653
G1 X92.371 Y109.252 E0.02567
G1 X92.862 Y108.105 E0.04043
G1 X93.673 Y106.997 E0.04449
G1 X94.137 Y106.560 E0.02065
G1 E-0.50000 F2100
M204 S3000
G1 Z1.150000 F18000
G1 X103.832 Y127.832
G1 Z0.250000
G1 E0.50000 F1800
; External perimeter
;Perimeter
SET_VELOCITY_LIMIT ACCEL=2000 ACCEL_TO_DECEL=2000 SQUARE_CORNER_VELOCITY=8

; Overhang perimeter

;TYPE:Internal perimeter
G1 F1500
M204 S2000
G1 X103.832 Y140.168 E0.39965
G1 X116.168 Y140.168 E0.39965
G1 X116.168 Y127.832 E0.39965
G1 X103.892 Y127.832 E0.39771
M204 S3000
G1 X104.179 Y128.179 F18000
G1 F1500
M204 S2000
G1 X104.179 Y139.821 E0.37721
G1 X115.821 Y139.821 E0.37721
G1 X115.821 Y128.179 E0.37721
G1 X104.239 Y128.179 E0.37527
M204 S3000
G1 X104.525 Y128.525 F18000
; External perimeter
;ExternalPerimeter0
SET_VELOCITY_LIMIT ACCEL=1000 ACCEL_TO_DECEL=1000 SQUARE_CORNER_VELOCITY=8

; Perimeter

;TYPE:External perimeter
G1 F1500
M204 S2000
G1 X104.525 Y139.475 E0.35477
G1 X115.475 Y139.475 E0.35477
G1 X115.475 Y128.525 E0.35477
G1 X104.585 Y128.525 E0.35282
M204 S3000
G1 X104.125 Y128.525 F18000
G1 E-0.50000 F2100
G1 Z0.650000 F18000
G1 X103.257 Y111.267
G1 Z0.250000
G1 E0.50000 F1800
; External perimeter
;Perimeter
SET_VELOCITY_LIMIT ACCEL=2000 ACCEL_TO_DECEL=2000 SQUARE_CORNER_VELOCITY=8

; Overhang perimeter

;TYPE:Internal perimeter
G1 F1500
M204 S2000
G1 X100.644 Y109.758 E0.09776
G1 X100.709 Y109.514 E0.00818
G1 X105.805 Y109.514 E0.16509
G1 X105.870 Y109.758 E0.00818
G1 X103.309 Y111.237 E0.09581
G1 E-0.50000 F2100
M204 S3000
G1 Z0.650000 F18000
G1 X99.388 Y109.758
G1 Z0.250000
G1 E0.50000 F1800
G1 F1500
M204 S2000
G1 X96.514 Y111.417 E0.10752
G1 X96.514 Y111.052 E0.01182
G1 X96.540 Y110.741 E0.01012
G1 X96.549 Y110.705 E0.00120
G1 X96.604 Y110.498 E0.00694
G1 X96.619 Y110.462 E0.00126
G1 X96.710 Y110.268 E0.00694
G1 X96.730 Y110.235 E0.00126
G1 X96.853 Y110.059 E0.00694
G1 X96.878 Y110.030 E0.00126
G1 X97.030 Y109.878 E0.00694
G1 X97.059 Y109.853 E0.00126
G1 X97.235 Y109.730 E0.00694
G1 X97.268 Y109.710 E0.00126
G1 X97.462 Y109.619 E0.00694
G1 X97.498 Y109.604 E0.00126
G1 X97.705 Y109.549 E0.00694
G1 X97.741 Y109.540 E0.00120
G1 X98.052 Y109.514 E0.01012
G1 X99.323 Y109.514 E0.04116
G1 X99.372 Y109.700 E0.00624
G1 E-0.50000 F2100
M204 S3000
G1 Z0.650000 F18000
G1 X103.486 Y127.486
G1 Z0.250000
G1 E0.50000 F1800
G1 F1500
M204 S2000
G1 X103.486 Y140.486 E0.42119
G1 X98.052 Y140.486 E0.17604
G1 X97.741 Y140.460 E0.01012
G1 X97.705 Y140.451 E0.00120
G1 X97.498 Y140.396 E0.00694
G1 X97.462 Y140.381 E0.00126
G1 X97.268 Y140.290 E0.00694
G1 X97.235 Y140.270 E0.00126
G1 X97.059 Y140.147 E0.00694
G1 X97.030 Y140.122 E0.00126
G1 X96.878 Y139.970 E0.00694
G1 X96.853 Y139.941 E0.00126
G1 X96.730 Y139.765 E0.00694
G1 X96.710 Y139.732 E0.00126
G1 X96.612 Y139.522 E0.00751
G1 X96.790 Y139.359 E0.00782
G1 X97.039 Y139.503 E0.00932
G1 X97.607 Y139.769 E0.02033
G1 X98.038 Y139.891 E0.01452
G1 X98.278 Y139.951 E0.00799
G1 X98.719 Y140.000 E0.01438
G1 X98.965 Y140.015 E0.00799
G1 X99.408 Y139.991 E0.01438
G1 X99.653 Y139.960 E0.00799
G1 X100.086 Y139.863 E0.01438
G1 X100.321 Y139.788 E0.00799
G1 X100.732 Y139.621 E0.01438
G1 X100.950 Y139.505 E0.00799
G1 X101.328 Y139.272 E0.01438
G1 X101.520 Y139.118 E0.00799
G1 X101.855 Y138.826 E0.01438
G1 X102.016 Y138.639 E0.00799
G1 X102.298 Y138.296 E0.01439
G1 X102.639 Y137.705 E0.02211
G1 X102.873 Y137.068 E0.02199
G1 X102.960 Y136.624 E0.01466
G1 X102.998 Y136.380 E0.00799
G1 X103.010 Y135.936 E0.01438
G1 X103.002 Y135.690 E0.00799
G1 X102.942 Y135.250 E0.01438
G1 X102.889 Y135.009 E0.00799
G1 X102.756 Y134.585 E0.01438
G1 X102.660 Y134.358 E0.00799
G1 X102.460 Y133.962 E0.01438
G1 X102.323 Y133.757 E0.00799
G1 X102.060 Y133.399 E0.01438
G1 X101.889 Y133.222 E0.00799
G1 X101.567 Y132.909 E0.01452
G1 X101.053 Y132.550 E0.02033
G1 X96.514 Y129.930 E0.16981
G1 X96.514 Y115.498 E0.46757
G1 X100.016 Y117.520 E0.13101
G1 X101.575 Y116.620 E0.05833
G1 X101.575 Y118.918 E0.07445
G1 X107.360 Y122.258 E0.21642
G1 X113.145 Y118.918 E0.21642
G1 X113.145 Y112.238 E0.21642
G1 X108.850 Y109.758 E0.16069
G1 X108.915 Y109.514 E0.00818
G1 X151.951 Y109.514 E1.39433
G1 X152.044 Y109.521 E0.00301
G1 X152.257 Y109.540 E0.00694
G1 X152.295 Y109.549 E0.00126
G1 X152.502 Y109.604 E0.00694
G1 X152.538 Y109.619 E0.00126
G1 X152.732 Y109.710 E0.00694
G1 X152.765 Y109.730 E0.00126
G1 X152.941 Y109.853 E0.00694
G1 X152.970 Y109.878 E0.00126
G1 X153.122 Y110.030 E0.00694
G1 X153.147 Y110.059 E0.00126
G1 X153.270 Y110.235 E0.00694
G1 X153.290 Y110.268 E0.00126
G1 X153.381 Y110.462 E0.00694
G1 X153.396 Y110.498 E0.00126
G1 X153.451 Y110.705 E0.00694
G1 X153.460 Y110.741 E0.00120
G1 X153.486 Y111.052 E0.01012
G1 X153.486 Y122.031 E0.35569
G1 X153.416 Y122.084 E0.00284
G1 X153.272 Y122.186 E0.00571
G1 X152.933 Y122.497 E0.01490
G1 X152.729 Y122.723 E0.00989
G1 X152.634 Y122.840 E0.00486
G1 X152.467 Y123.066 E0.00911
G1 X152.329 Y123.295 E0.00868
G1 X152.260 Y123.413 E0.00441
G1 X152.115 Y123.724 E0.01111
G1 X151.977 Y124.127 E0.01381
G1 X151.893 Y124.543 E0.01375
G1 X151.863 Y124.906 E0.01180
G1 X151.873 Y125.223 E0.01029
G1 X151.873 Y138.873 E0.44224
G1 X125.223 Y138.873 E0.86343
G1 X124.906 Y138.863 E0.01029
G1 X124.554 Y138.892 E0.01142
G1 X124.433 Y138.914 E0.00400
G1 X124.129 Y138.977 E0.01004
G1 X123.830 Y139.076 E0.01021
G1 X123.707 Y139.123 E0.00427
G1 X123.407 Y139.263 E0.01073
G1 X123.043 Y139.480 E0.01371
G1 X122.932 Y139.571 E0.00467
G1 X122.743 Y139.711 E0.00760
G1 X122.497 Y139.933 E0.01076
G1 X122.186 Y140.272 E0.01490
G1 X122.084 Y140.416 E0.00571
G1 X122.031 Y140.486 E0.00284
G1 X116.514 Y140.486 E0.17874
G1 X116.514 Y127.486 E0.42119
G1 X103.546 Y127.486 E0.42015
G1 E-0.50000 F2100
M204 S3000
G1 Z0.650000 F18000
G1 X96.168 Y138.600
G1 Z0.250000
G1 E0.50000 F1800
G1 F1500
M204 S2000
G1 X97.199 Y139.195 E0.03859
G1 X97.728 Y139.443 E0.01893
G1 X98.128 Y139.556 E0.01344
G1 X98.339 Y139.609 E0.00707
G1 X98.749 Y139.655 E0.01334
G1 X98.966 Y139.668 E0.00706
G1 X99.377 Y139.645 E0.01334
G1 X99.594 Y139.619 E0.00706
G1 X99.996 Y139.529 E0.01334
G1 X100.203 Y139.462 E0.00706
G1 X100.585 Y139.307 E0.01334
G1 X100.777 Y139.204 E0.00706
G1 X101.128 Y138.989 E0.01334
G1 X101.298 Y138.852 E0.00706
G1 X101.608 Y138.581 E0.01334
G1 X101.750 Y138.416 E0.00707
G1 X102.012 Y138.098 E0.01335
G1 X102.324 Y137.557 E0.02022
G1 X102.539 Y136.974 E0.02013
G1 X102.619 Y136.564 E0.01354
G1 X102.652 Y136.349 E0.00706
G1 X102.664 Y135.937 E0.01334
G1 X102.657 Y135.719 E0.00706
G1 X102.600 Y135.311 E0.01334
G1 X102.554 Y135.098 E0.00706
G1 X102.431 Y134.705 E0.01334
G1 X102.346 Y134.504 E0.00706
G1 X102.160 Y134.137 E0.01334
G1 X102.039 Y133.955 E0.00706
G1 X101.795 Y133.623 E0.01334
G1 X101.644 Y133.467 E0.00707
G1 X101.346 Y133.177 E0.01344
G1 X100.867 Y132.843 E0.01893
G1 X96.168 Y130.130 E0.17581
G1 X96.168 Y111.038 E0.61856
G1 X96.198 Y110.686 E0.01145
G1 X96.213 Y110.620 E0.00220
G1 X96.276 Y110.386 E0.00782
G1 X96.302 Y110.323 E0.00224
G1 X96.404 Y110.104 E0.00782
G1 X96.440 Y110.045 E0.00224
G1 X96.579 Y109.847 E0.00782
G1 X96.624 Y109.795 E0.00224
G1 X96.795 Y109.624 E0.00782
G1 X96.847 Y109.579 E0.00224
G1 X97.045 Y109.440 E0.00782
G1 X97.104 Y109.404 E0.00224
G1 X97.323 Y109.302 E0.00782
G1 X97.387 Y109.276 E0.00224
G1 X97.620 Y109.213 E0.00782
G1 X97.686 Y109.198 E0.00220
G1 X98.038 Y109.168 E0.01145
G1 X107.097 Y109.168 E0.29352
G1 X107.163 Y109.412 E0.00818
G1 X103.257 Y111.667 E0.14612
G1 X100.016 Y109.795 E0.12125
G1 X96.844 Y111.626 E0.11866
G1 X96.844 Y115.289 E0.11866
G1 X100.016 Y117.120 E0.11866
G1 X101.921 Y116.020 E0.07128
G1 X101.921 Y118.718 E0.08740
G1 X107.360 Y121.858 E0.20346
G1 X112.799 Y118.718 E0.20346
G1 X112.799 Y112.438 E0.20346
G1 X107.557 Y109.412 E0.19609
G1 X107.623 Y109.168 E0.00818
G1 X151.965 Y109.168 E1.43665
G1 X152.073 Y109.176 E0.00350
G1 X152.313 Y109.197 E0.00782
G1 X152.380 Y109.213 E0.00224
G1 X152.613 Y109.276 E0.00782
G1 X152.677 Y109.302 E0.00224
G1 X152.896 Y109.404 E0.00782
G1 X152.955 Y109.440 E0.00224
G1 X153.153 Y109.579 E0.00782
G1 X153.205 Y109.624 E0.00224
G1 X153.376 Y109.795 E0.00782
G1 X153.421 Y109.847 E0.00224
G1 X153.560 Y110.045 E0.00782
G1 X153.596 Y110.104 E0.00224
G1 X153.698 Y110.323 E0.00782
G1 X153.724 Y110.386 E0.00224
G1 X153.787 Y110.620 E0.00782
G1 X153.802 Y110.686 E0.00220
G1 X153.832 Y111.038 E0.01145
G1 X153.832 Y122.203 E0.36173
G1 X153.621 Y122.363 E0.00860
G1 X153.490 Y122.456 E0.00518
G1 X153.180 Y122.741 E0.01366
G1 X152.992 Y122.949 E0.00907
G1 X152.908 Y123.052 E0.00433
G1 X152.755 Y123.259 E0.00832
G1 X152.627 Y123.472 E0.00806
G1 X152.567 Y123.574 E0.00382
G1 X152.437 Y123.853 E0.01000
G1 X152.312 Y124.218 E0.01248
G1 X152.236 Y124.591 E0.01236
G1 X152.209 Y124.914 E0.01050
G1 X152.219 Y125.217 E0.00982
G1 X152.219 Y138.946 E0.44480
G1 X152.205 Y139.060 E0.00373
G1 X152.192 Y139.097 E0.00127
G1 X152.168 Y139.136 E0.00148
G1 X152.136 Y139.168 E0.00148
G1 X152.097 Y139.192 E0.00148
G1 X152.060 Y139.205 E0.00127
G1 X151.946 Y139.219 E0.00373
G1 X125.217 Y139.219 E0.86598
G1 X124.914 Y139.209 E0.00982
G1 X124.600 Y139.236 E0.01023
G1 X124.499 Y139.254 E0.00333
G1 X124.219 Y139.312 E0.00924
G1 X123.946 Y139.403 E0.00933
G1 X123.841 Y139.442 E0.00363
G1 X123.569 Y139.569 E0.00973
G1 X123.243 Y139.764 E0.01233
G1 X123.144 Y139.844 E0.00410
G1 X122.963 Y139.979 E0.00732
G1 X122.741 Y140.180 E0.00970
G1 X122.456 Y140.490 E0.01366
G1 X122.363 Y140.621 E0.00518
G1 X122.203 Y140.832 E0.00860
G1 X98.038 Y140.832 E0.78292
G1 X97.686 Y140.802 E0.01145
G1 X97.620 Y140.787 E0.00220
