; generated by SuperSlicer 2.3.56 on 2021-10-25 at 19:18:28 UTC


;
;

;
;
; 

; external perimeters extrusion width = 0.38mm
; perimeters extrusion width = 0.38mm
; infill extrusion width = 0.45mm
; solid infill extrusion width = 0.45mm
; top infill extrusion width = 0.44mm
; support material extrusion width = 0.40mm
; first layer extrusion width = 0.40mm


;TYPE:Custom
; M190 S0
; M109 S0 ; uncomment to remove set&wait temp gcode added automatically after this start gcode
print_start EXTRUDER=245 BED=110 CHAMBER=50
G21 ; set units to millimeters
G90 ; use absolute coordinates
M83 ; use relative distances for extrusion
M104 S245 ; set temperature
M109 S245 ; set temperature and wait for it to be reached
M190 S110 ; set bed temperature and wait for it to be reached
;LAYER_CHANGE
;Z:0.25
;HEIGHT:0.25

G1 Z0.250000 F18000
G1 E-0.50000 F2100
G1 Z1.150000 F18000
G1 X62.140 Y79.584
G1 Z0.250000
G1 E0.50000 F1800
; External perimeter
;Skirt
SET_VELOCITY_LIMIT ACCEL=7000 ACCEL_TO_DECEL=7000 SQUARE_CORNER_VELOCITY=8

; Support material

;TYPE:Skirt
;WIDTH:0.4
G1 F1500
M204 S2000
G1 X62.795 Y79.093 E0.02653
G1 X63.297 Y78.798 E0.01887
G1 X64.106 Y78.449 E0.02857
G1 X65.013 Y78.218 E0.03030
G1 X65.988 Y78.134 E0.03172
G1 X184.005 Y78.134 E3.82362
G1 X184.997 Y78.220 E0.03225
G1 X186.021 Y78.495 E0.03436
G1 X186.915 Y78.914 E0.03201
G1 X187.951 Y79.668 E0.04149
G1 X188.677 Y80.461 E0.03483
G1 X189.199 Y81.283 E0.03155
G1 X189.582 Y82.199 E0.03217
G1 X189.808 Y83.181 E0.03265
G1 X189.866 Y83.993 E0.02636
G1 X189.866 Y117.039 E1.07066
G1 X189.763 Y118.093 E0.03431
G1 X189.446 Y119.176 E0.03656
G1 X189.057 Y119.973 E0.02874
G1 X188.517 Y120.743 E0.03046
G1 X148.171 Y169.372 E2.04719
G1 X147.522 Y170.058 E0.03059
G1 X146.736 Y170.680 E0.03246
G1 X145.873 Y171.178 E0.03231
G1 X144.974 Y171.538 E0.03136
G1 X143.933 Y171.784 E0.03466
G1 X142.910 Y171.866 E0.03325
G1 X107.049 Y171.865 E1.16188
G1 X106.086 Y171.787 E0.03128
G1 X105.119 Y171.567 E0.03215
G1 X104.184 Y171.206 E0.03246
G1 X103.386 Y170.759 E0.02963
G1 X102.504 Y170.081 E0.03607
G1 X101.814 Y169.354 E0.03246
G1 X61.490 Y120.750 E2.04611
G1 X60.897 Y119.893 E0.03377
G1 X60.449 Y118.894 E0.03548
G1 X60.219 Y117.992 E0.03014
G1 X60.134 Y117.031 E0.03125
G1 X60.134 Y83.995 E1.07034
G1 X60.180 Y83.306 E0.02237
G1 X60.284 Y82.699 E0.01997
G1 X60.562 Y81.806 E0.03029
G1 X60.941 Y81.031 E0.02794
G1 X61.462 Y80.284 E0.02952
G1 X62.098 Y79.627 E0.02961
M204 S3000
G1 X62.321 Y79.895 F18000
G1 F1500
M204 S2000
G1 X62.679 Y79.597 E0.01507
G1 X63.344 Y79.162 E0.02577
G1 X64.221 Y78.776 E0.03102
G1 X65.072 Y78.559 E0.02847
G1 X65.990 Y78.480 E0.02983
G1 X184.005 Y78.480 E3.82357
G1 X184.934 Y78.560 E0.03021
G1 X185.899 Y78.820 E0.03239
G1 X186.738 Y79.212 E0.03000
G1 X187.728 Y79.934 E0.03970
G1 X188.408 Y80.679 E0.03269
G1 X188.900 Y81.459 E0.02986
G1 X189.257 Y82.318 E0.03015
G1 X189.467 Y83.248 E0.03091
G1 X189.520 Y83.992 E0.02416
G1 X189.519 Y117.032 E1.07047
G1 X189.423 Y118.026 E0.03233
G1 X189.121 Y119.055 E0.03474
G1 X188.757 Y119.799 E0.02684
G1 X188.250 Y120.522 E0.02863
G1 X147.906 Y169.150 E2.04711
G1 X147.288 Y169.802 E0.02910
G1 X146.539 Y170.395 E0.03097
G1 X145.719 Y170.868 E0.03067
G1 X144.857 Y171.212 E0.03007
G1 X143.872 Y171.443 E0.03277
G1 X142.905 Y171.519 E0.03142
G1 X107.057 Y171.519 E1.16147
G1 X106.140 Y171.445 E0.02980
G1 X105.217 Y171.235 E0.03067
G1 X104.330 Y170.891 E0.03082
G1 X103.568 Y170.465 E0.02827
G1 X102.734 Y169.822 E0.03411
G1 X102.076 Y169.129 E0.03097
G1 X61.756 Y120.529 E2.04592
G1 X61.198 Y119.721 E0.03184
G1 X60.776 Y118.779 E0.03342
G1 X60.560 Y117.932 E0.02832
G1 X60.481 Y117.029 E0.02938
G1 X60.493 Y83.699 E1.07985
G1 X60.582 Y82.947 E0.02453
G1 X60.826 Y82.079 E0.02923
G1 X61.199 Y81.278 E0.02863
G1 X61.661 Y80.591 E0.02683
G1 X62.255 Y79.950 E0.02831
G1 X62.275 Y79.933 E0.00083
M204 S3000
G1 X62.544 Y80.208 F18000
G1 F1500
M204 S2000
G1 X62.881 Y79.878 E0.01527
G1 X63.506 Y79.468 E0.02423
G1 X64.335 Y79.103 E0.02936
G1 X65.132 Y78.900 E0.02665
G1 X65.992 Y78.827 E0.02794
G1 X184.004 Y78.827 E3.82349
G1 X184.872 Y78.901 E0.02820
G1 X185.774 Y79.143 E0.03027
G1 X186.561 Y79.510 E0.02814
G1 X187.505 Y80.199 E0.03786
G1 X188.139 Y80.897 E0.03055
G1 X188.596 Y81.626 E0.02787
G1 X188.929 Y82.428 E0.02814
G1 X189.126 Y83.310 E0.02929
G1 X189.173 Y83.993 E0.02217
G1 X189.173 Y117.031 E1.07040
G1 X189.082 Y117.964 E0.03037
G1 X188.798 Y118.929 E0.03261
G1 X188.460 Y119.621 E0.02495
G1 X187.982 Y120.302 E0.02694
G1 X147.644 Y168.924 E2.04686
G1 X147.058 Y169.543 E0.02763
G1 X146.345 Y170.108 E0.02947
G1 X145.565 Y170.558 E0.02918
G1 X144.740 Y170.886 E0.02875
G1 X143.816 Y171.102 E0.03075
G1 X142.905 Y171.173 E0.02961
G1 X107.064 Y171.173 E1.16119
G1 X106.192 Y171.103 E0.02834
G1 X105.318 Y170.904 E0.02904
G1 X104.475 Y170.577 E0.02932
G1 X103.751 Y170.170 E0.02690
G1 X102.961 Y169.561 E0.03230
G1 X102.342 Y168.907 E0.02918
G1 X62.023 Y120.308 E2.04587
G1 X61.498 Y119.548 E0.02993
G1 X61.101 Y118.661 E0.03149
G1 X60.901 Y117.872 E0.02637
G1 X60.827 Y117.026 E0.02751
G1 X60.837 Y83.741 E1.07841
G1 X60.920 Y83.024 E0.02339
G1 X61.148 Y82.206 E0.02751
G1 X61.500 Y81.448 E0.02708
G1 X61.933 Y80.805 E0.02509
G1 X62.501 Y80.250 E0.02573
G1 E-0.50000 F2100
M204 S3000
G1 Z1.150000 F18000
G1 X111.279 Y96.009
G1 Z0.250000
G1 E0.50000 F1800
; External perimeter
;Perimeter
SET_VELOCITY_LIMIT ACCEL=2000 ACCEL_TO_DECEL=2000 SQUARE_CORNER_VELOCITY=8

; Overhang perimeter

;TYPE:Internal perimeter
G1 F1500
M204 S2000
G1 X111.148 Y96.497 E0.01636
G1 X111.107 Y96.961 E0.01509
G1 X111.107 Y104.035 E0.22919
G1 X111.140 Y104.453 E0.01358
G1 X111.246 Y104.895 E0.01472
G1 X111.420 Y105.315 E0.01472
G1 X111.658 Y105.702 E0.01472
G1 X111.953 Y106.047 E0.01472
G1 X112.298 Y106.342 E0.01472
G1 X112.685 Y106.580 E0.01472
G1 X113.105 Y106.754 E0.01472
G1 X113.547 Y106.860 E0.01472
G1 X113.965 Y106.893 E0.01358
G1 X136.039 Y106.893 E0.71518
G1 X136.503 Y106.852 E0.01509
G1 X136.991 Y106.721 E0.01636
G1 X137.448 Y106.508 E0.01636
G1 X137.862 Y106.219 E0.01636
G1 X138.219 Y105.862 E0.01636
G1 X138.508 Y105.448 E0.01636
G1 X138.721 Y104.991 E0.01636
G1 X138.852 Y104.503 E0.01636
G1 X138.893 Y104.039 E0.01509
G1 X138.893 Y96.961 E0.22932
G1 X138.852 Y96.497 E0.01509
G1 X138.721 Y96.009 E0.01636
G1 X138.508 Y95.552 E0.01636
G1 X138.219 Y95.138 E0.01636
G1 X137.862 Y94.781 E0.01636
G1 X137.448 Y94.492 E0.01636
G1 X136.991 Y94.279 E0.01636
G1 X136.503 Y94.148 E0.01636
G1 X136.039 Y94.107 E0.01509
G1 X113.961 Y94.107 E0.71530
G1 X113.497 Y94.148 E0.01509
G1 X113.009 Y94.279 E0.01636
G1 X112.552 Y94.492 E0.01636
G1 X112.138 Y94.781 E0.01636
G1 X111.781 Y95.138 E0.01636
G1 X111.492 Y95.552 E0.01636
G1 X111.304 Y95.955 E0.01441
M204 S3000
G1 X111.618 Y96.101 F18000
G1 F1500
M204 S2000
G1 X111.605 Y96.128 E0.00096
G1 X111.490 Y96.557 E0.01439
G1 X111.454 Y96.976 E0.01362
G1 X111.454 Y104.021 E0.22826
G1 X111.483 Y104.399 E0.01226
G1 X111.577 Y104.787 E0.01295
G1 X111.730 Y105.157 E0.01295
G1 X111.939 Y105.498 E0.01295
G1 X112.198 Y105.802 E0.01295
G1 X112.502 Y106.061 E0.01295
G1 X112.843 Y106.270 E0.01295
G1 X113.213 Y106.423 E0.01295
G1 X113.601 Y106.517 E0.01295
G1 X113.979 Y106.546 E0.01226
G1 X136.024 Y106.546 E0.71425
G1 X136.443 Y106.510 E0.01362
G1 X136.872 Y106.395 E0.01439
G1 X137.274 Y106.207 E0.01439
G1 X137.638 Y105.952 E0.01439
G1 X137.952 Y105.638 E0.01439
G1 X138.207 Y105.274 E0.01439
G1 X138.395 Y104.872 E0.01439
G1 X138.510 Y104.443 E0.01439
G1 X138.546 Y104.024 E0.01362
G1 X138.546 Y96.976 E0.22834
G1 X138.510 Y96.557 E0.01362
G1 X138.395 Y96.128 E0.01439
G1 X138.207 Y95.726 E0.01439
G1 X137.952 Y95.362 E0.01439
G1 X137.638 Y95.048 E0.01439
G1 X137.274 Y94.793 E0.01439
G1 X136.872 Y94.605 E0.01439
G1 X136.443 Y94.490 E0.01439
G1 X136.024 Y94.454 E0.01362
G1 X113.976 Y94.454 E0.71432
G1 X113.557 Y94.490 E0.01362
G1 X113.128 Y94.605 E0.01439
G1 X112.726 Y94.793 E0.01439
G1 X112.362 Y95.048 E0.01439
G1 X112.048 Y95.362 E0.01439
G1 X111.793 Y95.726 E0.01439
G1 X111.643 Y96.047 E0.01149
M204 S3000
G1 X111.957 Y96.193 F18000
; External perimeter
;ExternalPerimeter0
SET_VELOCITY_LIMIT ACCEL=1000 ACCEL_TO_DECEL=1000 SQUARE_CORNER_VELOCITY=8

; Perimeter

;TYPE:External perimeter
G1 F1500
M204 S2000
G1 X111.932 Y96.247 E0.00193
G1 X111.833 Y96.618 E0.01243
G1 X111.800 Y96.991 E0.01214
G1 X111.800 Y104.008 E0.22733
G1 X111.826 Y104.344 E0.01093
G1 X111.907 Y104.680 E0.01119
G1 X112.039 Y104.999 E0.01119
G1 X112.220 Y105.293 E0.01119
G1 X112.444 Y105.556 E0.01119
G1 X112.707 Y105.780 E0.01119
G1 X113.001 Y105.961 E0.01119
G1 X113.320 Y106.093 E0.01119
G1 X113.656 Y106.174 E0.01119
G1 X113.992 Y106.200 E0.01093
G1 X136.009 Y106.200 E0.71331
G1 X136.382 Y106.167 E0.01214
G1 X136.753 Y106.068 E0.01243
G1 X137.100 Y105.906 E0.01243
G1 X137.415 Y105.686 E0.01243
G1 X137.686 Y105.415 E0.01243
G1 X137.906 Y105.100 E0.01243
G1 X138.068 Y104.753 E0.01243
G1 X138.167 Y104.382 E0.01243
G1 X138.200 Y104.009 E0.01214
G1 X138.200 Y96.991 E0.22736
G1 X138.167 Y96.618 E0.01214
G1 X138.068 Y96.247 E0.01243
G1 X137.906 Y95.900 E0.01243
G1 X137.686 Y95.585 E0.01243
G1 X137.415 Y95.314 E0.01243
G1 X137.100 Y95.094 E0.01243
G1 X136.753 Y94.932 E0.01243
G1 X136.382 Y94.833 E0.01243
G1 X136.009 Y94.800 E0.01214
G1 X113.991 Y94.800 E0.71334
G1 X113.618 Y94.833 E0.01214
G1 X113.247 Y94.932 E0.01243
G1 X112.900 Y95.094 E0.01243
G1 X112.585 Y95.314 E0.01243
G1 X112.314 Y95.585 E0.01243
G1 X112.094 Y95.900 E0.01243
G1 X111.982 Y96.139 E0.00856
M204 S3000
G1 X111.898 Y96.199 F18000
G1 E-0.50000 F2100
G1 Z0.650000 F18000
G1 X121.746 Y90.385
G1 Z0.250000
G1 E0.50000 F1800
; External perimeter
;Perimeter
SET_VELOCITY_LIMIT ACCEL=2000 ACCEL_TO_DECEL=2000 SQUARE_CORNER_VELOCITY=8

; Overhang perimeter

;TYPE:Internal perimeter
G1 F1500
M204 S2000
G1 X121.805 Y91.063 E0.02205
G1 X121.952 Y91.609 E0.01832
G1 X122.191 Y92.122 E0.01832
G1 X122.515 Y92.585 E0.01832
G1 X122.915 Y92.985 E0.01832
G1 X123.378 Y93.309 E0.01832
G1 X123.794 Y93.503 E0.01487
G1 X123.737 Y93.761 E0.00856
G1 X113.946 Y93.761 E0.31722
G1 X113.437 Y93.806 E0.01656
G1 X112.891 Y93.952 E0.01832
G1 X112.378 Y94.191 E0.01832
G1 X111.915 Y94.515 E0.01832
G1 X111.515 Y94.915 E0.01832
G1 X111.191 Y95.378 E0.01832
G1 X110.952 Y95.891 E0.01832
G1 X110.805 Y96.437 E0.01832
G1 X110.761 Y96.946 E0.01656
G1 X110.761 Y104.049 E0.23012
G1 X110.797 Y104.507 E0.01490
G1 X110.916 Y105.002 E0.01649
G1 X111.111 Y105.472 E0.01649
G1 X111.376 Y105.906 E0.01649
G1 X111.707 Y106.293 E0.01649
G1 X112.094 Y106.624 E0.01649
G1 X112.528 Y106.889 E0.01649
G1 X112.998 Y107.084 E0.01649
G1 X113.493 Y107.203 E0.01649
G1 X113.951 Y107.239 E0.01490
G1 X136.054 Y107.239 E0.71611
G1 X136.563 Y107.194 E0.01656
G1 X137.109 Y107.048 E0.01832
G1 X137.622 Y106.809 E0.01832
G1 X138.085 Y106.485 E0.01832
G1 X138.485 Y106.085 E0.01832
G1 X138.809 Y105.622 E0.01832
G1 X139.048 Y105.109 E0.01832
G1 X139.194 Y104.563 E0.01832
G1 X139.239 Y104.054 E0.01656
G1 X139.239 Y96.946 E0.23030
G1 X139.194 Y96.437 E0.01656
G1 X139.048 Y95.891 E0.01832
G1 X138.809 Y95.378 E0.01832
G1 X138.485 Y94.915 E0.01832
G1 X138.085 Y94.515 E0.01832
G1 X137.622 Y94.191 E0.01832
G1 X137.109 Y93.952 E0.01832
G1 X136.563 Y93.806 E0.01832
G1 X136.054 Y93.761 E0.01656
G1 X126.263 Y93.761 E0.31722
G1 X126.206 Y93.503 E0.00856
G1 X126.622 Y93.309 E0.01487
G1 X127.085 Y92.985 E0.01832
G1 X127.485 Y92.585 E0.01832
G1 X127.809 Y92.122 E0.01832
G1 X128.048 Y91.609 E0.01832
G1 X128.195 Y91.063 E0.01832
G1 X128.254 Y90.385 E0.02205
G1 X128.733 Y90.608 E0.01712
G1 X129.110 Y90.710 E0.01267
G1 X129.500 Y90.744 E0.01267
G1 X129.890 Y90.710 E0.01267
G1 X130.267 Y90.608 E0.01267
G1 X130.622 Y90.443 E0.01267
G1 X130.942 Y90.219 E0.01267
G1 X131.219 Y89.942 E0.01267
G1 X131.443 Y89.622 E0.01267
G1 X131.608 Y89.267 E0.01267
G1 X131.710 Y88.890 E0.01267
G1 X131.739 Y88.554 E0.01091
G1 X131.739 Y86.446 E0.06830
G1 X131.710 Y86.110 E0.01091
G1 X131.608 Y85.733 E0.01267
G1 X131.443 Y85.378 E0.01267
G1 X131.219 Y85.058 E0.01267
G1 X130.942 Y84.781 E0.01267
G1 X130.622 Y84.557 E0.01267
G1 X130.267 Y84.392 E0.01267
G1 X129.890 Y84.290 E0.01267
G1 X129.500 Y84.256 E0.01267
G1 X129.110 Y84.290 E0.01267
G1 X128.733 Y84.392 E0.01267
G1 X128.239 Y84.622 E0.01764
G1 X128.239 Y83.239 E0.04480
G1 X183.951 Y83.239 E1.80502
G1 X184.118 Y83.252 E0.00543
G1 X184.234 Y83.280 E0.00385
G1 X184.344 Y83.325 E0.00385
G1 X184.445 Y83.387 E0.00385
G1 X184.535 Y83.465 E0.00385
G1 X184.613 Y83.555 E0.00385
G1 X184.675 Y83.656 E0.00385
G1 X184.720 Y83.766 E0.00385
G1 X184.748 Y83.882 E0.00385
G1 X184.761 Y84.049 E0.00543
G1 X184.761 Y98.696 E0.47455
G1 X184.745 Y98.881 E0.00603
G1 X184.711 Y99.009 E0.00427
G1 X184.655 Y99.128 E0.00427
G1 X184.579 Y99.236 E0.00427
G1 X184.486 Y99.329 E0.00427
G1 X184.378 Y99.405 E0.00427
G1 X184.259 Y99.461 E0.00427
G1 X184.131 Y99.495 E0.00427
G1 X183.946 Y99.511 E0.00603
G1 X182.946 Y99.511 E0.03240
G1 X182.480 Y99.552 E0.01515
G1 X181.976 Y99.687 E0.01691
G1 X181.503 Y99.907 E0.01691
G1 X181.076 Y100.207 E0.01691
G1 X180.707 Y100.576 E0.01691
G1 X180.407 Y101.003 E0.01691
G1 X180.187 Y101.476 E0.01691
G1 X180.052 Y101.980 E0.01691
G1 X180.006 Y102.500 E0.01691
G1 X180.052 Y103.020 E0.01691
G1 X180.187 Y103.524 E0.01691
G1 X180.407 Y103.997 E0.01691
G1 X180.707 Y104.424 E0.01691
G1 X181.076 Y104.793 E0.01691
G1 X181.503 Y105.093 E0.01691
G1 X181.976 Y105.313 E0.01691
G1 X182.480 Y105.448 E0.01691
G1 X182.946 Y105.489 E0.01515
G1 X183.946 Y105.489 E0.03240
G1 X184.131 Y105.505 E0.00603
G1 X184.259 Y105.539 E0.00427
G1 X184.378 Y105.595 E0.00427
G1 X184.486 Y105.671 E0.00427
G1 X184.579 Y105.764 E0.00427
G1 X184.655 Y105.872 E0.00427
G1 X184.711 Y105.991 E0.00427
G1 X184.745 Y106.119 E0.00427
G1 X184.761 Y106.304 E0.00603
G1 X184.761 Y116.946 E0.34478
G1 X184.745 Y117.131 E0.00603
G1 X184.711 Y117.259 E0.00427
G1 X184.655 Y117.378 E0.00427
G1 X184.579 Y117.486 E0.00427
G1 X184.486 Y117.579 E0.00427
G1 X184.378 Y117.655 E0.00427
G1 X184.259 Y117.711 E0.00427
G1 X184.131 Y117.745 E0.00427
G1 X183.946 Y117.761 E0.00603
G1 X181.054 Y117.761 E0.09369
G1 X180.869 Y117.745 E0.00603
G1 X180.741 Y117.711 E0.00427
G1 X180.622 Y117.655 E0.00427
G1 X180.514 Y117.579 E0.00427
G1 X180.421 Y117.486 E0.00427
G1 X180.345 Y117.378 E0.00427
G1 X180.289 Y117.259 E0.00427
G1 X180.255 Y117.131 E0.00427
G1 X180.239 Y116.946 E0.00603
G1 X180.239 Y115.946 E0.03240
G1 X180.194 Y115.437 E0.01656
G1 X180.048 Y114.891 E0.01832
G1 X179.809 Y114.378 E0.01832
G1 X179.485 Y113.915 E0.01832
G1 X179.085 Y113.515 E0.01832
G1 X178.622 Y113.191 E0.01832
G1 X178.109 Y112.952 E0.01832
G1 X177.563 Y112.805 E0.01832
G1 X177.054 Y112.761 E0.01656
G1 X173.946 Y112.761 E0.10070
G1 X173.437 Y112.805 E0.01656
G1 X172.891 Y112.952 E0.01832
G1 X172.378 Y113.191 E0.01832
G1 X171.915 Y113.515 E0.01832
G1 X171.515 Y113.915 E0.01832
G1 X171.191 Y114.378 E0.01832
G1 X170.952 Y114.891 E0.01832
G1 X170.806 Y115.437 E0.01832
G1 X170.761 Y115.946 E0.01656
G1 X170.761 Y116.946 E0.03240
G1 X170.745 Y117.131 E0.00603
G1 X170.711 Y117.259 E0.00427
G1 X170.655 Y117.378 E0.00427
G1 X170.579 Y117.486 E0.00427
G1 X170.486 Y117.579 E0.00427
G1 X170.378 Y117.655 E0.00427
G1 X170.259 Y117.711 E0.00427
G1 X170.131 Y117.745 E0.00427
G1 X169.946 Y117.761 E0.00603
G1 X129.554 Y117.761 E1.30865
G1 X129.369 Y117.745 E0.00603
G1 X129.241 Y117.711 E0.00427
G1 X129.122 Y117.655 E0.00427
G1 X129.014 Y117.579 E0.00427
G1 X128.921 Y117.486 E0.00427
G1 X128.845 Y117.378 E0.00427
G1 X128.789 Y117.259 E0.00427
G1 X128.755 Y117.131 E0.00427
G1 X128.739 Y116.946 E0.00603
G1 X128.739 Y113.446 E0.11340
G1 X128.695 Y112.937 E0.01656
G1 X128.548 Y112.391 E0.01832
G1 X128.309 Y111.878 E0.01832
G1 X127.985 Y111.415 E0.01832
G1 X127.585 Y111.015 E0.01832
G1 X127.122 Y110.691 E0.01832
G1 X126.609 Y110.452 E0.01832
G1 X126.063 Y110.305 E0.01832
G1 X125.554 Y110.261 E0.01656
G1 X124.446 Y110.261 E0.03590
G1 X123.937 Y110.305 E0.01656
G1 X123.391 Y110.452 E0.01832
G1 X122.878 Y110.691 E0.01832
G1 X122.415 Y111.015 E0.01832
G1 X122.015 Y111.415 E0.01832
G1 X121.691 Y111.878 E0.01832
