; generated by SuperSlicer 2.3.56 on 2021-10-25 at 21:37:51 UTC


;
;

;
;
; 

; external perimeters extrusion width = 0.40mm
; perimeters extrusion width = 0.45mm
; infill extrusion width = 0.72mm
; solid infill extrusion width = 0.56mm
; top infill extrusion width = 0.40mm
; first layer extrusion width = 0.48mm

; object:{"name":"FramePCBCover","id":"FramePCBCover.STL id:0 copy 0","object_center":[124.996194,124.999997,0.000000],"boundingbox_center":[124.996194,124.999997,1.500000],"boundingbox_size":[112.429978,112.429978,3.000000]}
; plater:{"center":[124.996194,124.999997,0.000000],"boundingbox_center":[124.996194,124.999997,1.500000],"boundingbox_size":[112.429978,112.429978,3.000000]}

;TYPE:Custom
; M190 S0
; M109 S0 ; uncomment to remove set&wait temp gcode added automatically after this start gcode
print_start EXTRUDER=245 BED=110 CHAMBER=50
G21 ; set units to millimeters
G90 ; use absolute coordinates
M83 ; use relative distances for extrusion
; Filament gcode
M109 S245 ; set temperature and wait for it to be reached
M190 S110 ; set bed temperature and wait for it to be reached
;LAYER_CHANGE
;Z:0.25
;HEIGHT:0.25

G1 Z0.250000 F27000
G1 E-0.50000 F2100
G1 Z1.150000 F27000
G1 X79.401 Y79.399
G1 Z0.250000
G1 E0.50000 F1800
; External perimeter
;Skirt
SET_VELOCITY_LIMIT ACCEL=7000 ACCEL_TO_DECEL=7000 SQUARE_CORNER_VELOCITY=8

; Support material

;TYPE:Skirt
;WIDTH:0.48
G1 X91.181 Y67.619 E0.68213
G1 X91.920 Y67.034 E0.03859
G1 X92.875 Y66.533 E0.04416
G1 X93.821 Y66.245 E0.04049
G1 X95.110 Y66.132 E0.05300
G1 X96.221 Y66.276 E0.04588
G1 X97.159 Y66.592 E0.04052
G1 X98.052 Y67.089 E0.04186
G1 X98.806 Y67.712 E0.04003
G1 X182.264 Y151.170 E4.83274
G1 X182.811 Y151.808 E0.03443
G1 X183.242 Y152.499 E0.03334
G1 X183.586 Y153.304 E0.03585
G1 X183.789 Y154.102 E0.03373
G1 X183.870 Y154.950 E0.03488
G1 X183.833 Y155.688 E0.03025
G1 X183.650 Y156.592 E0.03776
G1 X183.390 Y157.293 E0.03064
G1 X182.672 Y158.473 E0.05655
G1 X158.918 Y182.280 E1.37705
G1 X158.240 Y182.852 E0.03630
G1 X157.543 Y183.274 E0.03339
G1 X156.624 Y183.643 E0.04052
G1 X155.832 Y183.815 E0.03320
G1 X154.352 Y183.829 E0.06062
G1 X153.548 Y183.666 E0.03359
G1 X152.692 Y183.344 E0.03745
G1 X151.913 Y182.892 E0.03687
G1 X151.234 Y182.334 E0.03598
G1 X67.726 Y98.828 E4.83561
G1 X67.147 Y98.144 E0.03668
G1 X66.722 Y97.442 E0.03360
G1 X66.353 Y96.524 E0.04050
G1 X66.183 Y95.741 E0.03282
G1 X66.164 Y94.275 E0.06005
G1 X66.325 Y93.466 E0.03378
G1 X66.638 Y92.621 E0.03687
G1 X67.083 Y91.844 E0.03667
G1 X67.611 Y91.189 E0.03444
G1 X79.358 Y79.442 E0.68025
G1 X79.659 Y79.743 F27000
G1 F1800
G1 X91.462 Y67.940 E0.68345
G1 X92.142 Y67.398 E0.03561
G1 X93.024 Y66.933 E0.04082
G1 X93.896 Y66.665 E0.03737
G1 X95.110 Y66.558 E0.04989
G1 X96.133 Y66.693 E0.04225
G1 X96.994 Y66.985 E0.03721
G1 X97.814 Y67.443 E0.03847
G1 X98.509 Y68.018 E0.03695
G1 X181.962 Y151.471 E4.83245
G1 X182.466 Y152.058 E0.03169
G1 X182.863 Y152.695 E0.03071
G1 X183.182 Y153.441 E0.03325
G1 X183.369 Y154.177 E0.03108
G1 X183.444 Y154.968 E0.03252
G1 X183.408 Y155.646 E0.02782
G1 X183.237 Y156.485 E0.03505
G1 X182.994 Y157.134 E0.02836
G1 X182.334 Y158.213 E0.05180
G1 X158.617 Y181.978 E1.37474
G1 X157.989 Y182.507 E0.03364
G1 X157.348 Y182.895 E0.03069
G1 X156.492 Y183.238 E0.03776
G1 X155.763 Y183.394 E0.03051
G1 X154.411 Y183.407 E0.05538
G1 X153.671 Y183.258 E0.03089
G1 X152.878 Y182.960 E0.03469
G1 X152.157 Y182.542 E0.03414
G1 X151.525 Y182.022 E0.03351
G1 X68.028 Y98.527 E4.83496
G1 X67.492 Y97.893 E0.03399
G1 X67.101 Y97.247 E0.03089
G1 X66.758 Y96.392 E0.03774
G1 X66.603 Y95.667 E0.03034
G1 X66.587 Y94.328 E0.05484
G1 X66.735 Y93.584 E0.03107
G1 X67.026 Y92.798 E0.03433
G1 X67.439 Y92.078 E0.03396
G1 X67.932 Y91.470 E0.03206
G1 X79.617 Y79.785 E0.67662
; INIT printing object FramePCBCover.STL id:0 copy 0
G1 E-0.50000 F2100
G1 Z1.150000 F27000
; printing object FramePCBCover.STL id:0 copy 0
G1 X130.054 Y138.062
G1 Z0.250000
G1 E0.50000 F1800
; External perimeter
;Perimeter
SET_VELOCITY_LIMIT ACCEL=2000 ACCEL_TO_DECEL=2000 SQUARE_CORNER_VELOCITY=8

; Overhang perimeter

;TYPE:Internal perimeter
G1 X130.545 Y138.062 E0.02012
G1 X131.029 Y137.976 E0.02012
G1 X131.491 Y137.808 E0.02012
G1 X131.917 Y137.563 E0.02012
G1 X132.266 Y137.270 E0.01866
G1 X137.266 Y132.270 E0.28954
G1 X137.559 Y131.920 E0.01866
G1 X137.805 Y131.495 E0.02012
G1 X137.973 Y131.033 E0.02012
G1 X138.058 Y130.549 E0.02012
G1 X138.058 Y130.058 E0.02012
G1 X137.973 Y129.574 E0.02012
G1 X137.805 Y129.112 E0.02012
G1 X137.559 Y128.686 E0.02012
G1 X137.266 Y128.337 E0.01866
G1 X121.659 Y112.730 E0.90373
G1 X121.310 Y112.437 E0.01866
G1 X120.884 Y112.192 E0.02012
G1 X120.423 Y112.024 E0.02012
G1 X119.939 Y111.938 E0.02012
G1 X119.447 Y111.938 E0.02012
G1 X118.963 Y112.024 E0.02012
G1 X118.501 Y112.192 E0.02012
G1 X118.076 Y112.437 E0.02012
G1 X117.727 Y112.730 E0.01866
G1 X112.729 Y117.728 E0.28939
G1 X112.463 Y118.040 E0.01679
G1 X112.232 Y118.417 E0.01811
G1 X112.062 Y118.826 E0.01811
G1 X111.959 Y119.256 E0.01811
G1 X111.924 Y119.697 E0.01811
G1 X111.959 Y120.138 E0.01811
G1 X112.062 Y120.568 E0.01811
G1 X112.232 Y120.976 E0.01811
G1 X112.463 Y121.354 E0.01811
G1 X112.729 Y121.665 E0.01679
G1 X128.333 Y137.270 E0.90359
G1 X128.682 Y137.563 E0.01866
G1 X129.108 Y137.808 E0.02012
G1 X129.570 Y137.976 E0.02012
G1 X129.995 Y138.051 E0.01767
G1 X130.091 Y137.635 F27000
; External perimeter
;ExternalPerimeter0
SET_VELOCITY_LIMIT ACCEL=1000 ACCEL_TO_DECEL=1000 SQUARE_CORNER_VELOCITY=8

; Perimeter

;TYPE:External perimeter
G1 F1800
G1 X130.508 Y137.635 E0.01707
G1 X130.918 Y137.563 E0.01707
G1 X131.310 Y137.420 E0.01707
G1 X131.671 Y137.212 E0.01707
G1 X131.977 Y136.955 E0.01637
G1 X136.951 Y131.981 E0.28802
G1 X137.208 Y131.675 E0.01637
G1 X137.417 Y131.314 E0.01707
G1 X137.559 Y130.922 E0.01707
G1 X137.632 Y130.512 E0.01707
G1 X137.632 Y130.095 E0.01707
G1 X137.559 Y129.684 E0.01707
G1 X137.417 Y129.293 E0.01707
G1 X137.208 Y128.932 E0.01707
G1 X136.951 Y128.625 E0.01637
G1 X121.371 Y113.045 E0.90221
G1 X121.065 Y112.788 E0.01637
G1 X120.704 Y112.580 E0.01707
G1 X120.312 Y112.437 E0.01707
G1 X119.901 Y112.365 E0.01707
G1 X119.484 Y112.365 E0.01707
G1 X119.074 Y112.437 E0.01707
G1 X118.682 Y112.580 E0.01707
G1 X118.321 Y112.788 E0.01707
G1 X118.015 Y113.045 E0.01637
G1 X113.042 Y118.018 E0.28795
G1 X112.809 Y118.291 E0.01473
G1 X112.613 Y118.611 E0.01536
G1 X112.469 Y118.958 E0.01536
G1 X112.381 Y119.323 E0.01536
G1 X112.352 Y119.697 E0.01536
G1 X112.381 Y120.071 E0.01536
G1 X112.469 Y120.436 E0.01536
G1 X112.613 Y120.782 E0.01536
G1 X112.809 Y121.102 E0.01536
G1 X113.042 Y121.376 E0.01473
G1 X128.622 Y136.955 E0.90214
G1 X128.928 Y137.212 E0.01637
G1 X129.289 Y137.420 E0.01707
G1 X129.681 Y137.563 E0.01707
G1 X130.032 Y137.625 E0.01461
G1 X130.271 Y137.993 F27000
G1 E-0.50000 F2100
G1 Z0.650000 F27000
G1 X155.020 Y178.710
G1 Z0.250000
G1 E0.50000 F1800
; External perimeter
;Perimeter
SET_VELOCITY_LIMIT ACCEL=2000 ACCEL_TO_DECEL=2000 SQUARE_CORNER_VELOCITY=8

; Overhang perimeter

;TYPE:Internal perimeter
G1 X154.964 Y178.700 E0.00232
G1 X154.911 Y178.681 E0.00232
G1 X154.862 Y178.652 E0.00232
G1 X154.763 Y178.569 E0.00531
G1 X152.744 Y176.551 E0.11687
G1 X152.661 Y176.451 E0.00531
G1 X152.633 Y176.402 E0.00232
G1 X152.613 Y176.349 E0.00232
G1 X152.604 Y176.294 E0.00232
G1 X152.604 Y176.237 E0.00232
G1 X152.613 Y176.181 E0.00232
G1 X152.633 Y176.128 E0.00231
G1 X152.661 Y176.079 E0.00232
G1 X152.744 Y175.980 E0.00531
G1 X153.452 Y175.273 E0.04095
G1 X153.816 Y174.838 E0.02324
G1 X154.137 Y174.283 E0.02623
G1 X154.356 Y173.681 E0.02624
G1 X154.467 Y173.050 E0.02623
G1 X154.467 Y172.409 E0.02623
G1 X154.356 Y171.778 E0.02623
G1 X154.137 Y171.176 E0.02623
G1 X153.816 Y170.622 E0.02623
G1 X153.452 Y170.187 E0.02324
G1 X151.227 Y167.962 E0.12880
G1 X150.792 Y167.598 E0.02324
G1 X150.238 Y167.277 E0.02623
G1 X149.636 Y167.058 E0.02623
G1 X149.005 Y166.947 E0.02623
G1 X148.364 Y166.947 E0.02623
G1 X147.733 Y167.058 E0.02623
G1 X147.131 Y167.277 E0.02623
G1 X146.576 Y167.598 E0.02623
G1 X146.141 Y167.962 E0.02324
G1 X145.434 Y168.670 E0.04095
G1 X145.335 Y168.753 E0.00531
G1 X145.286 Y168.781 E0.00232
G1 X145.233 Y168.801 E0.00231
G1 X145.177 Y168.810 E0.00232
G1 X145.120 Y168.810 E0.00232
G1 X145.065 Y168.801 E0.00232
G1 X145.012 Y168.781 E0.00232
G1 X144.963 Y168.753 E0.00232
G1 X144.863 Y168.670 E0.00531
G1 X116.328 Y140.135 E1.65235
G1 X116.245 Y140.035 E0.00531
G1 X116.217 Y139.986 E0.00232
G1 X116.197 Y139.933 E0.00232
G1 X116.188 Y139.878 E0.00232
G1 X116.188 Y139.821 E0.00232
G1 X116.197 Y139.765 E0.00232
G1 X116.217 Y139.712 E0.00232
G1 X116.245 Y139.663 E0.00232
G1 X116.328 Y139.564 E0.00531
G1 X118.803 Y137.089 E0.14331
G1 X119.168 Y136.654 E0.02324
G1 X119.488 Y136.099 E0.02623
G1 X119.708 Y135.497 E0.02623
G1 X119.819 Y134.866 E0.02623
G1 X119.819 Y134.226 E0.02623
G1 X119.708 Y133.595 E0.02623
G1 X119.488 Y132.993 E0.02623
G1 X119.168 Y132.438 E0.02623
G1 X118.803 Y132.003 E0.02324
G1 X117.993 Y131.193 E0.04691
G1 X117.558 Y130.828 E0.02324
G1 X117.004 Y130.508 E0.02623
G1 X116.402 Y130.289 E0.02623
G1 X115.771 Y130.177 E0.02623
G1 X115.130 Y130.177 E0.02623
G1 X114.499 Y130.289 E0.02623
G1 X113.897 Y130.508 E0.02623
G1 X113.342 Y130.828 E0.02623
G1 X112.907 Y131.193 E0.02324
G1 X110.432 Y133.668 E0.14331
G1 X110.333 Y133.751 E0.00531
G1 X110.284 Y133.779 E0.00232
G1 X110.231 Y133.799 E0.00232
G1 X110.175 Y133.809 E0.00232
G1 X110.119 Y133.809 E0.00232
G1 X110.063 Y133.799 E0.00232
G1 X110.010 Y133.779 E0.00232
G1 X109.961 Y133.751 E0.00232
G1 X109.861 Y133.668 E0.00531
G1 X71.427 Y95.233 E2.22559
G1 X71.344 Y95.134 E0.00531
G1 X71.315 Y95.085 E0.00232
G1 X71.296 Y95.032 E0.00232
G1 X71.286 Y94.976 E0.00232
G1 X71.286 Y94.920 E0.00232
G1 X71.296 Y94.864 E0.00232
G1 X71.315 Y94.811 E0.00232
G1 X71.344 Y94.762 E0.00232
G1 X71.427 Y94.662 E0.00531
G1 X78.925 Y87.164 E0.43420
G1 X79.025 Y87.081 E0.00531
G1 X79.074 Y87.052 E0.00232
G1 X79.127 Y87.033 E0.00232
G1 X79.183 Y87.023 E0.00232
G1 X79.239 Y87.023 E0.00232
G1 X79.295 Y87.033 E0.00232
G1 X79.348 Y87.052 E0.00232
G1 X79.397 Y87.081 E0.00232
G1 X79.497 Y87.164 E0.00531
G1 X80.204 Y87.871 E0.04095
G1 X80.605 Y88.208 E0.02145
G1 X81.122 Y88.507 E0.02445
G1 X81.683 Y88.711 E0.02445
G1 X82.271 Y88.814 E0.02445
G1 X82.868 Y88.814 E0.02445
G1 X83.456 Y88.711 E0.02445
G1 X84.017 Y88.506 E0.02445
G1 X84.535 Y88.208 E0.02445
G1 X84.992 Y87.824 E0.02445
G1 X85.376 Y87.367 E0.02445
G1 X85.674 Y86.850 E0.02445
G1 X85.878 Y86.289 E0.02445
G1 X85.982 Y85.701 E0.02445
G1 X85.982 Y85.103 E0.02445
G1 X85.879 Y84.515 E0.02445
G1 X85.674 Y83.954 E0.02445
G1 X85.376 Y83.437 E0.02445
G1 X85.039 Y83.036 E0.02145
G1 X84.332 Y82.329 E0.04095
G1 X84.248 Y82.229 E0.00531
G1 X84.220 Y82.180 E0.00232
G1 X84.201 Y82.127 E0.00232
G1 X84.191 Y82.072 E0.00232
G1 X84.191 Y82.015 E0.00232
G1 X84.201 Y81.959 E0.00232
G1 X84.220 Y81.906 E0.00232
G1 X84.248 Y81.857 E0.00232
G1 X84.332 Y81.758 E0.00531
G1 X94.659 Y71.431 E0.59799
G1 X94.758 Y71.348 E0.00531
G1 X94.807 Y71.319 E0.00232
G1 X94.860 Y71.300 E0.00232
G1 X94.916 Y71.290 E0.00232
G1 X94.972 Y71.290 E0.00232
G1 X95.028 Y71.300 E0.00232
G1 X95.081 Y71.319 E0.00232
G1 X95.130 Y71.348 E0.00232
G1 X95.230 Y71.431 E0.00531
G1 X133.018 Y109.219 E2.18818
G1 X132.843 Y109.493 E0.01331
G1 X132.406 Y109.334 E0.01905
G1 X131.947 Y109.253 E0.01910
G1 X131.481 Y109.253 E0.01910
G1 X131.021 Y109.334 E0.01910
G1 X130.583 Y109.494 E0.01910
G1 X130.179 Y109.727 E0.01909
G1 X129.878 Y109.980 E0.01610
G1 X128.361 Y111.497 E0.08786
G1 X128.108 Y111.798 E0.01610
G1 X127.875 Y112.202 E0.01909
G1 X127.715 Y112.640 E0.01910
G1 X127.634 Y113.100 E0.01909
G1 X127.634 Y113.566 E0.01909
G1 X127.715 Y114.025 E0.01910
G1 X127.875 Y114.463 E0.01909
G1 X128.108 Y114.867 E0.01909
G1 X128.408 Y115.225 E0.01910
G1 X128.765 Y115.524 E0.01910
G1 X129.112 Y115.725 E0.01641
G1 X128.736 Y116.376 E0.03078
G1 X128.517 Y116.978 E0.02623
G1 X128.406 Y117.609 E0.02623
G1 X128.406 Y118.271 E0.02713
G1 X122.236 Y112.101 E0.35729
G1 X121.801 Y111.736 E0.02324
G1 X121.246 Y111.416 E0.02623
G1 X120.644 Y111.197 E0.02623
G1 X120.013 Y111.086 E0.02623
G1 X119.373 Y111.086 E0.02623
G1 X118.742 Y111.197 E0.02623
G1 X118.140 Y111.416 E0.02623
G1 X117.585 Y111.736 E0.02623
G1 X117.150 Y112.101 E0.02324
G1 X112.102 Y117.149 E0.29229
G1 X111.771 Y117.537 E0.02091
G1 X111.469 Y118.029 E0.02361
G1 X111.249 Y118.561 E0.02361
G1 X111.114 Y119.122 E0.02361
G1 X111.069 Y119.697 E0.02361
G1 X111.114 Y120.271 E0.02361
G1 X111.249 Y120.832 E0.02361
G1 X111.469 Y121.365 E0.02361
G1 X111.771 Y121.856 E0.02361
G1 X112.102 Y122.245 E0.02091
G1 X127.757 Y137.899 E0.90648
G1 X128.191 Y138.264 E0.02324
G1 X128.746 Y138.584 E0.02623
G1 X129.348 Y138.803 E0.02623
G1 X129.979 Y138.914 E0.02623
G1 X130.620 Y138.914 E0.02623
G1 X131.251 Y138.803 E0.02623
G1 X131.853 Y138.584 E0.02624
G1 X132.408 Y138.264 E0.02623
G1 X132.842 Y137.899 E0.02324
G1 X137.895 Y132.846 E0.29259
G1 X138.260 Y132.411 E0.02324
G1 X138.580 Y131.857 E0.02623
G1 X138.799 Y131.255 E0.02624
G1 X138.911 Y130.624 E0.02623
G1 X138.911 Y129.983 E0.02623
G1 X138.799 Y129.352 E0.02623
G1 X138.580 Y128.750 E0.02623
G1 X138.260 Y128.195 E0.02623
G1 X137.895 Y127.760 E0.02324
G1 X131.725 Y121.590 E0.35729
G1 X132.388 Y121.590 E0.02713
G1 X133.019 Y121.479 E0.02623
G1 X133.621 Y121.260 E0.02623
G1 X134.272 Y120.884 E0.03078
G1 X134.472 Y121.231 E0.01641
G1 X134.772 Y121.589 E0.01910
G1 X135.129 Y121.888 E0.01910
G1 X135.533 Y122.121 E0.01909
G1 X135.971 Y122.281 E0.01909
G1 X136.430 Y122.362 E0.01910
G1 X136.897 Y122.362 E0.01910
G1 X137.356 Y122.281 E0.01909
G1 X137.794 Y122.121 E0.01910
G1 X138.198 Y121.888 E0.01909
G1 X138.499 Y121.636 E0.01610
G1 X140.017 Y120.118 E0.08786
G1 X140.269 Y119.817 E0.01610
G1 X140.502 Y119.413 E0.01909
G1 X140.662 Y118.975 E0.01910
G1 X140.743 Y118.516 E0.01910
G1 X140.743 Y118.049 E0.01910
G1 X140.662 Y117.590 E0.01909
G1 X140.503 Y117.153 E0.01905
G1 X140.777 Y116.978 E0.01331
G1 X178.570 Y154.772 E2.18848
G1 X178.646 Y154.861 E0.00479
G1 X178.673 Y154.904 E0.00209
G1 X178.693 Y154.951 E0.00209
G1 X178.705 Y155.001 E0.00209
G1 X178.709 Y155.052 E0.00209
G1 X178.705 Y155.103 E0.00209
G1 X178.693 Y155.153 E0.00209
G1 X178.673 Y155.200 E0.00209
G1 X178.646 Y155.244 E0.00209
G1 X178.570 Y155.332 E0.00479
G1 X168.238 Y165.664 E0.59829
G1 X168.139 Y165.748 E0.00531
G1 X168.090 Y165.776 E0.00232
G1 X168.037 Y165.795 E0.00232
G1 X167.981 Y165.805 E0.00232
G1 X167.925 Y165.805 E0.00232
G1 X167.869 Y165.795 E0.00232
G1 X167.816 Y165.776 E0.00232
G1 X167.767 Y165.748 E0.00232
G1 X167.667 Y165.664 E0.00531
G1 X166.960 Y164.957 E0.04095
G1 X166.559 Y164.620 E0.02145
G1 X166.042 Y164.322 E0.02445
G1 X165.481 Y164.118 E0.02445
G1 X164.893 Y164.014 E0.02445
G1 X164.296 Y164.014 E0.02445
G1 X163.708 Y164.118 E0.02445
G1 X163.147 Y164.322 E0.02445
G1 X162.629 Y164.620 E0.02445
G1 X162.172 Y165.004 E0.02445
G1 X161.788 Y165.462 E0.02445
G1 X161.490 Y165.979 E0.02445
G1 X161.285 Y166.540 E0.02445
G1 X161.182 Y167.128 E0.02445
G1 X161.182 Y167.725 E0.02445
G1 X161.285 Y168.313 E0.02445
G1 X161.490 Y168.874 E0.02445
G1 X161.788 Y169.391 E0.02445
G1 X162.125 Y169.793 E0.02145
G1 X162.832 Y170.500 E0.04095
G1 X162.916 Y170.599 E0.00531
G1 X162.944 Y170.648 E0.00232
G1 X162.963 Y170.701 E0.00232
G1 X162.973 Y170.757 E0.00232
G1 X162.973 Y170.813 E0.00232
G1 X162.963 Y170.869 E0.00232
G1 X162.944 Y170.922 E0.00231
G1 X162.916 Y170.971 E0.00232
G1 X162.832 Y171.071 E0.00531
G1 X155.334 Y178.569 E0.43420
G1 X155.234 Y178.652 E0.00531
G1 X155.185 Y178.681 E0.00232
G1 X155.132 Y178.700 E0.00231
G1 X155.080 Y178.709 E0.00218
G1 X154.983 Y179.136 F27000
G1 F1800
G1 X154.853 Y179.113 E0.00537
G1 X154.730 Y179.069 E0.00537
G1 X154.617 Y179.003 E0.00537
G1 X154.474 Y178.884 E0.00760
G1 X152.430 Y176.839 E0.11840
G1 X152.310 Y176.697 E0.00760
G1 X152.245 Y176.583 E0.00537
G1 X152.200 Y176.460 E0.00537
G1 X152.177 Y176.331 E0.00537
G1 X152.177 Y176.200 E0.00537
G1 X152.200 Y176.070 E0.00537
G1 X152.245 Y175.947 E0.00537
