; generated by SuperSlicer 2.3.56 on 2021-10-27 at 15:09:08 UTC


;
;

;
;
; 

; external perimeters extrusion width = 0.38mm
; perimeters extrusion width = 0.38mm
; infill extrusion width = 0.45mm
; solid infill extrusion width = 0.45mm
; top infill extrusion width = 0.44mm
; support material extrusion width = 0.40mm
; first layer extrusion width = 0.40mm


;TYPE:Custom
; M190 S0
; M109 S0 ; uncomment to remove set&wait temp gcode added automatically after this start gcode
print_start EXTRUDER=245 BED=110 CHAMBER=50
G21 ; set units to millimeters
G90 ; use absolute coordinates
M83 ; use relative distances for extrusion
; Filament gcode
M104 S245 ; set temperature
M109 S245 ; set temperature and wait for it to be reached
M190 S110 ; set bed temperature and wait for it to be reached
;LAYER_CHANGE
;Z:0.25
;HEIGHT:0.25

G1 Z0.250000 F18000
G1 E-0.50000 F2100
G1 Z1.150000 F18000
G1 X83.426 Y96.851
G1 Z0.250000
G1 E0.50000 F1800
; External perimeter
;Skirt
SET_VELOCITY_LIMIT ACCEL=7000 ACCEL_TO_DECEL=7000 SQUARE_CORNER_VELOCITY=8

; Support material

;TYPE:Skirt
;WIDTH:0.4
G1 F1500
M204 S2000
G1 X84.056 Y96.406 E0.02565
G1 X85.121 Y95.889 E0.03938
G1 X85.772 Y95.713 E0.02243
G1 X86.922 Y95.567 E0.03857
G1 X148.000 Y95.566 E2.03162
G1 X149.356 Y95.738 E0.04548
G1 X150.254 Y96.050 E0.03159
G1 X160.455 Y101.606 E0.38641
G1 X161.004 Y101.973 E0.02195
G1 X161.750 Y102.703 E0.03474
G1 X162.231 Y103.414 E0.02854
G1 X164.415 Y108.246 E0.17638
G1 X164.625 Y108.861 E0.02163
G1 X168.058 Y123.428 E0.49782
G1 X168.246 Y124.612 E0.03986
G1 X168.251 Y125.344 E0.02436
G1 X168.050 Y126.609 E0.04258
G1 X164.562 Y141.363 E0.50431
G1 X162.234 Y146.582 E0.19007
G1 X161.791 Y147.248 E0.02661
G1 X161.122 Y147.928 E0.03172
G1 X160.463 Y148.390 E0.02677
G1 X150.284 Y153.935 E0.38557
G1 X149.442 Y154.242 E0.02982
G1 X148.218 Y154.428 E0.04116
G1 X86.879 Y154.432 E2.04034
G1 X85.606 Y154.253 E0.04276
G1 X84.759 Y153.957 E0.02982
G1 X83.642 Y153.323 E0.04273
G1 X82.650 Y152.374 E0.04566
G1 X82.208 Y151.748 E0.02549
G1 X81.691 Y150.683 E0.03938
G1 X81.515 Y150.038 E0.02227
G1 X81.367 Y148.897 E0.03825
G1 X81.366 Y101.147 E1.58833
G1 X81.539 Y99.839 E0.04388
G1 X81.833 Y98.981 E0.03015
G1 X82.474 Y97.845 E0.04338
G1 X83.385 Y96.894 E0.04381
M204 S3000
G1 X83.634 Y97.133 F18000
G1 F1500
M204 S2000
G1 X83.659 Y97.107 E0.00119
G1 X84.234 Y96.703 E0.02339
G1 X85.246 Y96.212 E0.03742
G1 X85.841 Y96.053 E0.02048
G1 X86.934 Y95.913 E0.03664
G1 X148.000 Y95.912 E2.03124
G1 X149.284 Y96.077 E0.04305
G1 X150.109 Y96.365 E0.02906
G1 X160.285 Y101.907 E0.38543
G1 X160.785 Y102.242 E0.02002
G1 X161.486 Y102.928 E0.03264
G1 X161.929 Y103.583 E0.02631
G1 X164.096 Y108.382 E0.17514
G1 X164.291 Y108.951 E0.02002
G1 X167.720 Y123.501 E0.49721
G1 X167.901 Y124.638 E0.03830
G1 X167.906 Y125.309 E0.02232
G1 X167.712 Y126.533 E0.04124
G1 X164.233 Y141.253 E0.50311
G1 X161.930 Y146.414 E0.18799
G1 X161.521 Y147.031 E0.02462
G1 X160.890 Y147.671 E0.02990
G1 X160.290 Y148.089 E0.02431
G1 X150.132 Y153.624 E0.38480
G1 X149.359 Y153.906 E0.02738
G1 X148.200 Y154.082 E0.03896
G1 X86.898 Y154.086 E2.03910
G1 X85.694 Y153.918 E0.04045
G1 X84.912 Y153.646 E0.02753
G1 X83.848 Y153.046 E0.04062
G1 X82.907 Y152.141 E0.04341
G1 X82.505 Y151.570 E0.02324
G1 X82.014 Y150.558 E0.03742
G1 X81.854 Y149.968 E0.02032
G1 X81.713 Y148.880 E0.03649
G1 X81.713 Y101.154 E1.58752
G1 X81.877 Y99.916 E0.04152
G1 X82.146 Y99.129 E0.02769
G1 X82.752 Y98.052 E0.04109
G1 X83.592 Y97.176 E0.04037
M204 S3000
G1 X83.841 Y97.416 F18000
G1 F1500
M204 S2000
G1 X83.894 Y97.361 E0.00255
G1 X84.413 Y96.999 E0.02104
G1 X85.376 Y96.534 E0.03558
G1 X85.907 Y96.393 E0.01828
G1 X86.946 Y96.259 E0.03484
G1 X148.000 Y96.259 E2.03083
G1 X149.211 Y96.416 E0.04064
G1 X149.961 Y96.678 E0.02643
G1 X160.118 Y102.211 E0.38472
G1 X160.571 Y102.514 E0.01813
G1 X161.223 Y103.153 E0.03036
G1 X161.625 Y103.750 E0.02396
G1 X163.778 Y108.518 E0.17402
G1 X163.955 Y109.038 E0.01828
G1 X167.380 Y123.569 E0.49658
G1 X167.555 Y124.665 E0.03692
G1 X167.562 Y125.271 E0.02017
G1 X167.375 Y126.454 E0.03982
G1 X163.904 Y141.144 E0.50210
G1 X161.626 Y146.248 E0.18590
G1 X161.250 Y146.815 E0.02265
G1 X160.654 Y147.417 E0.02818
G1 X160.120 Y147.788 E0.02163
G1 X149.979 Y153.313 E0.38413
G1 X149.274 Y153.570 E0.02497
G1 X148.181 Y153.736 E0.03675
G1 X86.912 Y153.740 E2.03800
G1 X85.771 Y153.581 E0.03831
G1 X85.058 Y153.332 E0.02512
G1 X84.054 Y152.767 E0.03833
G1 X83.161 Y151.906 E0.04127
G1 X82.799 Y151.387 E0.02104
G1 X82.335 Y150.428 E0.03543
G1 X82.193 Y149.897 E0.01828
G1 X82.059 Y148.867 E0.03455
G1 X82.059 Y101.156 E1.58701
G1 X82.216 Y99.988 E0.03918
G1 X82.463 Y99.270 E0.02526
G1 X83.030 Y98.257 E0.03862
G1 X83.800 Y97.460 E0.03686
G1 E-0.50000 F2100
M204 S3000
G1 Z1.150000 F18000
G1 X105.529 Y102.729
G1 Z0.250000
G1 E0.50000 F1800
; External perimeter
;Perimeter
SET_VELOCITY_LIMIT ACCEL=2000 ACCEL_TO_DECEL=2000 SQUARE_CORNER_VELOCITY=8

; Overhang perimeter

;TYPE:Internal perimeter
G1 F1500
M204 S2000
G1 X90.403 Y102.727 E0.50315
G1 X89.731 Y102.834 E0.02261
G1 X89.037 Y103.187 E0.02589
G1 X88.487 Y103.737 E0.02590
G1 X88.134 Y104.431 E0.02590
G1 X88.027 Y105.103 E0.02261
G1 X88.029 Y147.271 E1.40264
G1 X105.529 Y147.271 E0.58210
G1 X105.529 Y148.702 E0.04762
G1 X105.488 Y148.959 E0.00863
G1 X105.416 Y149.102 E0.00535
G1 X105.302 Y149.216 E0.00535
G1 X105.159 Y149.289 E0.00535
G1 X104.902 Y149.329 E0.00863
G1 X87.098 Y149.329 E0.59224
G1 X86.841 Y149.289 E0.00863
G1 X86.698 Y149.216 E0.00535
G1 X86.584 Y149.102 E0.00535
G1 X86.511 Y148.959 E0.00535
G1 X86.471 Y148.702 E0.00863
G1 X86.471 Y101.298 E1.57683
G1 X86.511 Y101.041 E0.00863
G1 X86.584 Y100.898 E0.00535
G1 X86.698 Y100.784 E0.00535
G1 X86.841 Y100.711 E0.00535
G1 X87.098 Y100.671 E0.00863
G1 X104.902 Y100.671 E0.59224
G1 X105.159 Y100.711 E0.00863
G1 X105.302 Y100.784 E0.00535
G1 X105.416 Y100.898 E0.00535
G1 X105.488 Y101.041 E0.00535
G1 X105.529 Y101.298 E0.00863
G1 X105.529 Y102.669 E0.04562
M204 S3000
G1 X105.875 Y103.075 F18000
G1 F1500
M204 S2000
G1 X90.430 Y103.074 E0.51377
G1 X89.839 Y103.167 E0.01988
G1 X89.244 Y103.471 E0.02225
G1 X88.771 Y103.944 E0.02225
G1 X88.467 Y104.539 E0.02225
G1 X88.374 Y105.130 E0.01988
G1 X88.376 Y146.925 E1.39022
G1 X105.875 Y146.925 E0.58210
G1 X105.875 Y148.730 E0.06005
G1 X105.822 Y149.067 E0.01136
G1 X105.699 Y149.308 E0.00900
G1 X105.508 Y149.499 E0.00900
G1 X105.267 Y149.622 E0.00900
G1 X104.930 Y149.675 E0.01136
G1 X87.070 Y149.675 E0.59406
G1 X86.733 Y149.622 E0.01136
G1 X86.492 Y149.499 E0.00900
G1 X86.301 Y149.308 E0.00900
G1 X86.178 Y149.067 E0.00900
G1 X86.125 Y148.730 E0.01136
G1 X86.125 Y101.270 E1.57864
G1 X86.178 Y100.933 E0.01136
G1 X86.301 Y100.692 E0.00900
G1 X86.492 Y100.501 E0.00900
G1 X86.733 Y100.378 E0.00900
G1 X87.070 Y100.325 E0.01136
G1 X104.930 Y100.325 E0.59406
G1 X105.267 Y100.378 E0.01136
G1 X105.508 Y100.501 E0.00900
G1 X105.699 Y100.692 E0.00900
G1 X105.822 Y100.933 E0.00900
G1 X105.875 Y101.270 E0.01136
G1 X105.875 Y103.015 E0.05805
M204 S3000
G1 X106.126 Y103.374 F18000
G1 F1500
M204 S2000
G1 X106.066 Y103.404 E0.00224
G1 X105.957 Y103.422 E0.00368
G1 X90.457 Y103.420 E0.51557
G1 X89.948 Y103.501 E0.01715
G1 X89.450 Y103.754 E0.01860
G1 X89.054 Y104.150 E0.01860
G1 X88.801 Y104.648 E0.01860
G1 X88.720 Y105.157 E0.01715
G1 X88.722 Y146.578 E1.37779
G1 X105.957 Y146.578 E0.57329
G1 X106.066 Y146.596 E0.00369
G1 X106.126 Y146.626 E0.00224
G1 X106.174 Y146.674 E0.00224
G1 X106.204 Y146.734 E0.00224
G1 X106.222 Y146.843 E0.00369
G1 X106.222 Y148.757 E0.06367
G1 X106.155 Y149.175 E0.01409
G1 X105.983 Y149.514 E0.01264
G1 X105.714 Y149.783 E0.01264
G1 X105.375 Y149.956 E0.01264
G1 X104.957 Y150.022 E0.01409
G1 X87.043 Y150.022 E0.59587
G1 X86.625 Y149.956 E0.01409
G1 X86.286 Y149.783 E0.01264
G1 X86.017 Y149.514 E0.01264
G1 X85.844 Y149.175 E0.01264
G1 X85.778 Y148.757 E0.01409
G1 X85.778 Y101.243 E1.58046
G1 X85.844 Y100.825 E0.01409
G1 X86.017 Y100.486 E0.01264
G1 X86.286 Y100.217 E0.01264
G1 X86.625 Y100.044 E0.01264
G1 X87.043 Y99.978 E0.01409
G1 X104.957 Y99.978 E0.59587
G1 X105.375 Y100.044 E0.01409
G1 X105.714 Y100.217 E0.01264
G1 X105.983 Y100.486 E0.01264
G1 X106.155 Y100.825 E0.01264
G1 X106.222 Y101.243 E0.01409
G1 X106.222 Y103.157 E0.06367
G1 X106.204 Y103.266 E0.00368
G1 X106.174 Y103.326 E0.00224
G1 X106.169 Y103.332 E0.00024
G1 E-0.50000 F2100
M204 S3000
G1 Z0.650000 F18000
G1 X89.068 Y146.232
G1 Z0.250000
G1 E0.50000 F1800
; External perimeter
;ExternalPerimeter0
SET_VELOCITY_LIMIT ACCEL=1000 ACCEL_TO_DECEL=1000 SQUARE_CORNER_VELOCITY=8

; Perimeter

;TYPE:External perimeter
G1 F1500
M204 S2000
G1 X105.984 Y146.232 E0.56268
G1 X106.175 Y146.262 E0.00642
G1 X106.332 Y146.342 E0.00589
G1 X106.458 Y146.468 E0.00589
G1 X106.538 Y146.625 E0.00589
G1 X106.568 Y146.816 E0.00642
G1 X106.568 Y148.784 E0.06548
G1 X106.489 Y149.284 E0.01682
G1 X106.267 Y149.720 E0.01629
G1 X105.920 Y150.067 E0.01629
G1 X105.484 Y150.289 E0.01629
G1 X104.984 Y150.368 E0.01682
G1 X87.016 Y150.368 E0.59768
G1 X86.516 Y150.289 E0.01682
G1 X86.080 Y150.067 E0.01629
G1 X85.733 Y149.720 E0.01629
G1 X85.511 Y149.284 E0.01629
G1 X85.432 Y148.784 E0.01682
G1 X85.432 Y101.216 E1.58227
G1 X85.511 Y100.716 E0.01682
G1 X85.733 Y100.280 E0.01629
G1 X86.080 Y99.933 E0.01629
G1 X86.516 Y99.711 E0.01629
G1 X87.016 Y99.632 E0.01682
G1 X104.984 Y99.632 E0.59768
G1 X105.484 Y99.711 E0.01682
G1 X105.920 Y99.933 E0.01629
G1 X106.267 Y100.280 E0.01629
G1 X106.489 Y100.716 E0.01629
G1 X106.568 Y101.216 E0.01682
G1 X106.568 Y103.184 E0.06548
G1 X106.538 Y103.375 E0.00642
G1 X106.458 Y103.532 E0.00589
G1 X106.332 Y103.658 E0.00589
G1 X106.175 Y103.738 E0.00589
G1 X105.984 Y103.768 E0.00642
G1 X90.484 Y103.766 E0.51557
G1 X90.056 Y103.834 E0.01442
G1 X89.656 Y104.038 E0.01495
G1 X89.338 Y104.356 E0.01495
G1 X89.134 Y104.756 E0.01495
G1 X89.066 Y105.184 E0.01442
G1 X89.068 Y146.172 E1.36337
M204 S3000
G1 X89.068 Y146.632 F18000
G1 E-0.50000 F2100
G1 Z0.650000 F18000
G1 X105.468 Y101.245
G1 Z0.250000
G1 E0.50000 F1800
; External perimeter
;SolidInfill
SET_VELOCITY_LIMIT ACCEL=4000 ACCEL_TO_DECEL=4000 SQUARE_CORNER_VELOCITY=8

; Bridge infill

;TYPE:Solid infill
;WIDTH:0.38562
M204 S2000
G1 X105.178 Y100.955 E0.01315
G1 X105.094 Y100.912 E0.00304
G1 X104.886 Y100.879 E0.00674
G1 X104.612 Y100.879 E0.00878
G1 X105.321 Y101.588 E0.03215
G1 X105.321 Y102.077 E0.01571
G1 X104.123 Y100.879 E0.05436
G1 X103.633 Y100.879 E0.01571
G1 X105.275 Y102.521 E0.07449
G1 X104.785 Y102.521 E0.01571
G1 X103.143 Y100.879 E0.07449
G1 X102.653 Y100.879 E0.01571
G1 X104.296 Y102.521 E0.07449
G1 X103.806 Y102.521 E0.01571
G1 X102.163 Y100.879 E0.07448
G1 X101.673 Y100.879 E0.01571
G1 X103.316 Y102.521 E0.07448
G1 X102.826 Y102.521 E0.01571
G1 X101.184 Y100.879 E0.07448
G1 X100.694 Y100.879 E0.01571
G1 X102.336 Y102.521 E0.07447
G1 X101.846 Y102.521 E0.01571
G1 X100.204 Y100.879 E0.07447
G1 X99.714 Y100.879 E0.01571
G1 X101.356 Y102.521 E0.07447
G1 X100.866 Y102.521 E0.01571
G1 X99.224 Y100.879 E0.07447
G1 X98.735 Y100.879 E0.01571
G1 X100.377 Y102.521 E0.07446
G1 X99.887 Y102.521 E0.01571
G1 X98.245 Y100.879 E0.07446
G1 X97.755 Y100.879 E0.01571
G1 X99.397 Y102.521 E0.07446
G1 X98.907 Y102.520 E0.01571
G1 X97.265 Y100.879 E0.07445
G1 X96.775 Y100.879 E0.01571
G1 X98.417 Y102.520 E0.07445
G1 X97.927 Y102.520 E0.01571
G1 X96.286 Y100.879 E0.07445
G1 X95.796 Y100.879 E0.01571
G1 X97.437 Y102.520 E0.07445
G1 X96.947 Y102.520 E0.01571
G1 X95.306 Y100.879 E0.07444
G1 X94.816 Y100.879 E0.01571
G1 X96.458 Y102.520 E0.07444
G1 X95.968 Y102.520 E0.01571
G1 X94.326 Y100.879 E0.07444
G1 X93.837 Y100.879 E0.01571
G1 X95.478 Y102.520 E0.07444
G1 X94.988 Y102.520 E0.01571
G1 X93.347 Y100.879 E0.07443
G1 X92.857 Y100.879 E0.01571
G1 X94.498 Y102.520 E0.07443
G1 X94.008 Y102.520 E0.01571
G1 X92.367 Y100.879 E0.07443
G1 X91.877 Y100.879 E0.01571
G1 X93.518 Y102.520 E0.07442
G1 X93.029 Y102.520 E0.01571
G1 X91.387 Y100.879 E0.07442
G1 X90.898 Y100.879 E0.01571
G1 X92.539 Y102.520 E0.07442
G1 X92.049 Y102.520 E0.01571
G1 X90.408 Y100.879 E0.07442
G1 X89.918 Y100.879 E0.01571
G1 X91.559 Y102.520 E0.07441
G1 X91.069 Y102.519 E0.01571
G1 X89.428 Y100.879 E0.07441
G1 X88.938 Y100.879 E0.01571
G1 X90.579 Y102.519 E0.07441
G1 X90.386 Y102.519 E0.00619
G1 X90.130 Y102.560 E0.00832
G1 X88.449 Y100.879 E0.07625
G1 X87.959 Y100.879 E0.01571
G1 X89.707 Y102.627 E0.07928
G1 X89.666 Y102.633 E0.00133
G1 X89.373 Y102.783 E0.01055
G1 X87.469 Y100.879 E0.08635
G1 X87.114 Y100.879 E0.01139
G1 X86.998 Y100.897 E0.00378
G1 X89.049 Y102.948 E0.09301
G1 X88.914 Y103.017 E0.00485
G1 X88.771 Y103.160 E0.00649
G1 X86.713 Y101.103 E0.09330
G1 X86.712 Y101.106 E0.00013
G1 X86.679 Y101.314 E0.00674
G1 X86.679 Y101.558 E0.00782
G1 X88.526 Y103.405 E0.08376
G1 X88.317 Y103.614 E0.00948
G1 X88.292 Y103.661 E0.00171
G1 X86.679 Y102.048 E0.07319
G1 X86.679 Y102.537 E0.01571
G1 X88.127 Y103.986 E0.06569
G1 X87.962 Y104.310 E0.01168
G1 X86.679 Y103.027 E0.05819
G1 X86.679 Y103.517 E0.01571
G1 X87.878 Y104.716 E0.05439
G1 X87.819 Y105.086 E0.01201
G1 X87.819 Y105.148 E0.00197
G1 X86.679 Y104.007 E0.05173
G1 X86.679 Y104.497 E0.01571
G1 X87.819 Y105.637 E0.05173
G1 X87.819 Y106.127 E0.01571
G1 X86.679 Y104.986 E0.05173
G1 X86.679 Y105.476 E0.01571
G1 X87.819 Y106.617 E0.05174
G1 X87.819 Y107.107 E0.01571
G1 X86.679 Y105.966 E0.05174
G1 X86.679 Y106.456 E0.01571
G1 X87.820 Y107.597 E0.05174
G1 X87.820 Y108.087 E0.01571
G1 X86.679 Y106.946 E0.05174
G1 X86.679 Y107.436 E0.01571
G1 X87.820 Y108.576 E0.05174
G1 X87.820 Y109.066 E0.01571
G1 X86.679 Y107.925 E0.05174
G1 X86.679 Y108.415 E0.01571
G1 X87.820 Y109.556 E0.05174
G1 X87.820 Y110.046 E0.01571
G1 X86.679 Y108.905 E0.05174
G1 X86.679 Y109.395 E0.01571
G1 X87.820 Y110.536 E0.05174
G1 X87.820 Y111.026 E0.01571
G1 X86.679 Y109.885 E0.05175
G1 X86.679 Y110.374 E0.01571
G1 X87.820 Y111.515 E0.05175
G1 X87.820 Y112.005 E0.01571
G1 X86.679 Y110.864 E0.05175
G1 X86.679 Y111.354 E0.01571
G1 X87.820 Y112.495 E0.05175
G1 X87.820 Y112.985 E0.01571
G1 X86.679 Y111.844 E0.05175
G1 X86.679 Y112.334 E0.01571
G1 X87.820 Y113.475 E0.05175
G1 X87.820 Y113.965 E0.01571
G1 X86.679 Y112.823 E0.05175
G1 X86.679 Y113.313 E0.01571
G1 X87.820 Y114.454 E0.05175
G1 X87.820 Y114.944 E0.01571
G1 X86.679 Y113.803 E0.05175
G1 X86.679 Y114.293 E0.01571
G1 X87.820 Y115.434 E0.05175
G1 X87.820 Y115.924 E0.01571
G1 X86.679 Y114.783 E0.05176
G1 X86.679 Y115.273 E0.01571
G1 X87.820 Y116.414 E0.05176
G1 X87.820 Y116.904 E0.01571
G1 X86.679 Y115.762 E0.05176
G1 X86.679 Y116.252 E0.01571
G1 X87.820 Y117.393 E0.05176
G1 X87.820 Y117.883 E0.01571
G1 X86.679 Y116.742 E0.05176
G1 X86.679 Y117.232 E0.01571
G1 X87.820 Y118.373 E0.05176
G1 X87.820 Y118.863 E0.01571
G1 X86.679 Y117.722 E0.05176
G1 X86.679 Y118.211 E0.01571
G1 X87.820 Y119.353 E0.05176
G1 X87.820 Y119.843 E0.01571
G1 X86.679 Y118.701 E0.05176
G1 X86.679 Y119.191 E0.01571
G1 X87.820 Y120.332 E0.05176
G1 X87.820 Y120.822 E0.01571
G1 X86.679 Y119.681 E0.05177
G1 X86.679 Y120.171 E0.01571
G1 X87.820 Y121.312 E0.05177
G1 X87.820 Y121.802 E0.01571
G1 X86.679 Y120.660 E0.05177
G1 X86.679 Y121.150 E0.01571
G1 X87.820 Y122.292 E0.05177
G1 X87.820 Y122.782 E0.01571
G1 X86.679 Y121.640 E0.05177
G1 X86.679 Y122.130 E0.01571
G1 X87.820 Y123.271 E0.05177
G1 X87.820 Y123.761 E0.01571
G1 X86.679 Y122.620 E0.05177
G1 X86.679 Y123.110 E0.01571
G1 X87.820 Y124.251 E0.05177
G1 X87.820 Y124.741 E0.01571
G1 X86.679 Y123.599 E0.05177
G1 X86.679 Y124.089 E0.01571
G1 X87.820 Y125.231 E0.05178
G1 X87.820 Y125.721 E0.01571
G1 X86.679 Y124.579 E0.05178
G1 X86.679 Y125.069 E0.01571
G1 X87.820 Y126.210 E0.05178
G1 X87.820 Y126.700 E0.01571
G1 X86.679 Y125.559 E0.05178
G1 X86.679 Y126.048 E0.01571
G1 X87.820 Y127.190 E0.05178
G1 X87.820 Y127.680 E0.01571
G1 X86.679 Y126.538 E0.05178
G1 X86.679 Y127.028 E0.01571
G1 X87.820 Y128.170 E0.05178
G1 X87.821 Y128.660 E0.01571
G1 X86.679 Y127.518 E0.05178
G1 X86.679 Y128.008 E0.01571
G1 X87.821 Y129.149 E0.05178
G1 X87.821 Y129.639 E0.01571
G1 X86.679 Y128.497 E0.05178
G1 X86.679 Y128.987 E0.01571
