; generated by SuperSlicer 2.3.56 on 2021-10-28 at 13:17:13 UTC


;
;

;
;
; 

; external perimeters extrusion width = 0.40mm
; perimeters extrusion width = 0.45mm
; infill extrusion width = 0.72mm
; solid infill extrusion width = 0.56mm
; top infill extrusion width = 0.40mm
; support material extrusion width = 0.42mm
; first layer extrusion width = 0.48mm

; object:{"name":"PitDroidToesLeft","id":"PitDroidToesLeft.stl id:0 copy 0","object_center":[125.000000,125.000000,0.000000],"boundingbox_center":[125.000000,125.000000,20.001312],"boundingbox_size":[59.888058,92.999428,40.002625]}
; plater:{"center":[125.000000,125.000000,0.000000],"boundingbox_center":[125.000000,125.000000,20.001312],"boundingbox_size":[59.888058,92.999428,40.002625]}

;TYPE:Custom
; M190 S0
; M109 S0 ; uncomment to remove set&wait temp gcode added automatically after this start gcode
print_start EXTRUDER=245 BED=110 CHAMBER=50
G21 ; set units to millimeters
G90 ; use absolute coordinates
M83 ; use relative distances for extrusion
; Filament gcode
M104 S245 ; set temperature
M109 S245 ; set temperature and wait for it to be reached
M190 S110 ; set bed temperature and wait for it to be reached
;LAYER_CHANGE
;Z:0.25
;HEIGHT:0.25

G1 Z0.250000 F27000
G1 E-0.50000 F2100
G1 Z1.150000 F27000
G1 X88.962 Y72.840
G1 Z0.250000
G1 E0.50000 F1800
; External perimeter
;Skirt
SET_VELOCITY_LIMIT ACCEL=7000 ACCEL_TO_DECEL=7000 SQUARE_CORNER_VELOCITY=8

; Support material

;TYPE:Skirt
;WIDTH:0.48
G1 X89.714 Y72.173 E0.04117
G1 X90.621 Y71.737 E0.04117
G1 X91.616 Y71.566 E0.04136
G1 X158.276 Y71.564 E2.72945
G1 X158.881 Y71.616 E0.02487
G1 X159.473 Y71.769 E0.02506
G1 X160.028 Y72.017 E0.02487
G1 X160.533 Y72.353 E0.02487
G1 X160.976 Y72.769 E0.02487
G1 X161.343 Y73.253 E0.02487
G1 X161.625 Y73.791 E0.02487
G1 X161.813 Y74.368 E0.02487
G1 X161.910 Y75.176 E0.03332
G1 X161.904 Y86.889 E0.47961
G1 X157.376 Y141.767 E2.25467
G1 X152.219 Y172.656 E1.28227
G1 X151.940 Y173.558 E0.03868
G1 X151.305 Y174.511 E0.04689
G1 X148.243 Y177.561 E0.17696
G1 X147.319 Y178.138 E0.04460
G1 X146.265 Y178.415 E0.04460
G1 X110.980 Y178.435 E1.44480
G1 X110.218 Y178.349 E0.03140
G1 X109.491 Y178.104 E0.03140
G1 X108.931 Y177.785 E0.02640
G1 X108.439 Y177.374 E0.02621
G1 X104.225 Y173.157 E0.24414
G1 X103.579 Y172.205 E0.04708
G1 X92.672 Y142.070 E1.31224
G1 X88.096 Y86.887 E2.26730
G1 X88.091 Y75.114 E0.48203
G1 X88.182 Y74.386 E0.03005
G1 X88.421 Y73.687 E0.03025
G1 X88.930 Y72.890 E0.03871
G1 X89.286 Y73.119 F27000
G1 F1800
G1 X89.292 Y73.110 E0.00044
G1 X89.961 Y72.521 E0.03651
G1 X90.767 Y72.138 E0.03651
G1 X91.642 Y71.992 E0.03633
G1 X158.275 Y71.991 E2.72839
G1 X159.348 Y72.177 E0.04457
G1 X160.294 Y72.707 E0.04439
G1 X161.009 Y73.522 E0.04439
G1 X161.412 Y74.528 E0.04439
G1 X161.484 Y75.188 E0.02715
G1 X161.477 Y86.875 E0.47857
G1 X156.952 Y141.716 E2.25314
G1 X151.799 Y172.580 E1.28125
G1 X151.550 Y173.386 E0.03453
G1 X150.986 Y174.229 E0.04153
G1 X147.977 Y177.228 E0.17393
G1 X147.152 Y177.746 E0.03992
G1 X146.208 Y177.992 E0.03992
G1 X110.981 Y178.009 E1.44239
G1 X110.310 Y177.932 E0.02769
G1 X109.665 Y177.715 E0.02787
G1 X109.173 Y177.434 E0.02318
G1 X108.736 Y177.068 E0.02334
G1 X104.540 Y172.870 E0.24303
G1 X103.961 Y172.016 E0.04225
G1 X93.089 Y141.982 E1.30787
G1 X88.522 Y86.865 E2.26454
G1 X88.517 Y75.133 E0.48038
G1 X88.598 Y74.484 E0.02679
G1 X88.810 Y73.860 E0.02697
G1 X89.254 Y73.170 E0.03362
; INIT printing object PitDroidToesLeft.stl id:0 copy 0
G1 E-0.50000 F2100
G1 Z1.150000 F27000
; printing object PitDroidToesLeft.stl id:0 copy 0
G1 X121.090 Y174.796
G1 Z0.250000
G1 E0.50000 F1800
; External perimeter
;SupportMaterial
SET_VELOCITY_LIMIT ACCEL=7000 ACCEL_TO_DECEL=7000 SQUARE_CORNER_VELOCITY=8

; Support material interface

;TYPE:Support material
G1 X111.008 Y174.796 E0.41281
G1 X111.008 Y173.419 E0.05639
G1 X109.631 Y173.419 E0.05639
G1 X109.631 Y172.042 E0.05639
G1 X108.254 Y172.042 E0.05639
G1 X108.254 Y170.665 E0.05639
G1 X106.877 Y170.665 E0.05639
G1 X106.877 Y147.254 E0.95856
G1 X105.500 Y147.254 E0.05639
G1 X105.500 Y142.163 E0.20845
G1 X124.280 Y142.164 E0.76898
G1 X124.758 Y141.678 E0.02790
G1 X124.719 Y139.314 E0.09681
G1 X125.280 Y139.314 E0.02298
G1 X125.241 Y141.678 E0.09681
G1 X125.719 Y142.164 E0.02790
G1 X126.598 Y142.164 E0.03599
G1 X126.598 Y147.254 E0.20845
G1 X125.221 Y147.254 E0.05639
G1 X125.221 Y170.665 E0.95856
G1 X123.844 Y170.665 E0.05639
G1 X123.844 Y172.042 E0.05639
G1 X122.467 Y172.042 E0.05639
G1 X122.467 Y173.419 E0.05639
G1 X121.090 Y173.419 E0.05639
G1 X121.090 Y174.736 E0.05393
G1 X125.652 Y142.126 F27000
G1 F1800
G1 X124.616 Y142.126 E0.04243
G1 X124.369 Y142.377 E0.01441
G1 X105.713 Y142.377 E0.76391
G1 X105.713 Y142.552 E0.00719
G1 X126.385 Y142.552 E0.84644
G1 X126.385 Y142.979 E0.01746
G1 X105.713 Y142.979 E0.84644
G1 X105.713 Y143.405 E0.01746
G1 X126.385 Y143.405 E0.84644
G1 X126.385 Y143.831 E0.01746
G1 X105.713 Y143.831 E0.84644
G1 X105.713 Y144.258 E0.01746
G1 X126.385 Y144.258 E0.84644
G1 X126.385 Y144.684 E0.01746
G1 X105.713 Y144.684 E0.84644
G1 X105.713 Y145.110 E0.01746
G1 X126.385 Y145.110 E0.84644
G1 X126.385 Y145.537 E0.01746
G1 X105.713 Y145.537 E0.84644
G1 X105.713 Y145.963 E0.01746
G1 X126.385 Y145.963 E0.84644
G1 X126.385 Y146.389 E0.01746
G1 X105.713 Y146.389 E0.84644
G1 X105.713 Y146.816 E0.01746
G1 X126.385 Y146.816 E0.84644
G1 X126.385 Y147.041 E0.00923
G1 X125.008 Y147.041 E0.05639
G1 X125.008 Y147.242 E0.00823
G1 X107.090 Y147.242 E0.73367
G1 X107.090 Y147.669 E0.01746
G1 X125.008 Y147.669 E0.73367
G1 X125.008 Y148.095 E0.01746
G1 X107.090 Y148.095 E0.73367
G1 X107.090 Y148.521 E0.01746
G1 X125.008 Y148.521 E0.73367
G1 X125.008 Y148.948 E0.01746
G1 X107.090 Y148.948 E0.73367
G1 X107.090 Y149.374 E0.01746
G1 X125.008 Y149.374 E0.73367
G1 X125.008 Y149.800 E0.01746
G1 X107.090 Y149.800 E0.73367
G1 X107.090 Y150.227 E0.01746
G1 X125.008 Y150.227 E0.73367
G1 X125.008 Y150.653 E0.01746
G1 X107.090 Y150.653 E0.73367
G1 X107.090 Y151.079 E0.01746
G1 X125.008 Y151.079 E0.73367
G1 X125.008 Y151.506 E0.01746
G1 X107.090 Y151.506 E0.73367
G1 X107.090 Y151.932 E0.01746
G1 X125.008 Y151.932 E0.73367
G1 X125.008 Y152.358 E0.01746
G1 X107.090 Y152.358 E0.73367
G1 X107.090 Y152.785 E0.01746
G1 X125.008 Y152.785 E0.73367
G1 X125.008 Y153.211 E0.01746
G1 X107.090 Y153.211 E0.73367
G1 X107.090 Y153.637 E0.01746
G1 X125.008 Y153.637 E0.73367
G1 X125.008 Y154.064 E0.01746
G1 X107.090 Y154.064 E0.73367
G1 X107.090 Y154.490 E0.01746
G1 X125.008 Y154.490 E0.73367
G1 X125.008 Y154.916 E0.01746
G1 X107.090 Y154.916 E0.73367
G1 X107.090 Y155.343 E0.01746
G1 X125.008 Y155.343 E0.73367
G1 X125.008 Y155.769 E0.01746
G1 X107.090 Y155.769 E0.73367
G1 X107.090 Y156.195 E0.01746
G1 X125.008 Y156.196 E0.73367
G1 X125.008 Y156.622 E0.01746
G1 X107.090 Y156.622 E0.73367
G1 X107.090 Y157.048 E0.01746
G1 X125.008 Y157.048 E0.73367
G1 X125.008 Y157.475 E0.01746
G1 X107.090 Y157.475 E0.73367
G1 X107.090 Y157.901 E0.01746
G1 X125.008 Y157.901 E0.73367
G1 X125.008 Y158.327 E0.01746
G1 X107.090 Y158.327 E0.73367
G1 X107.090 Y158.754 E0.01746
G1 X125.008 Y158.754 E0.73367
G1 X125.008 Y159.180 E0.01746
G1 X107.090 Y159.180 E0.73367
G1 X107.090 Y159.606 E0.01746
G1 X125.008 Y159.606 E0.73367
G1 X125.008 Y160.033 E0.01746
G1 X107.090 Y160.033 E0.73367
G1 X107.090 Y160.459 E0.01746
G1 X125.008 Y160.459 E0.73367
G1 X125.008 Y160.885 E0.01746
G1 X107.090 Y160.885 E0.73367
G1 X107.090 Y161.312 E0.01746
G1 X125.008 Y161.312 E0.73367
G1 X125.008 Y161.738 E0.01746
G1 X107.090 Y161.738 E0.73367
G1 X107.090 Y162.164 E0.01746
G1 X125.008 Y162.164 E0.73367
G1 X125.008 Y162.591 E0.01746
G1 X107.090 Y162.591 E0.73367
G1 X107.090 Y163.017 E0.01746
G1 X125.008 Y163.017 E0.73367
G1 X125.008 Y163.443 E0.01746
G1 X107.090 Y163.443 E0.73367
G1 X107.090 Y163.870 E0.01746
G1 X125.008 Y163.870 E0.73367
G1 X125.008 Y164.296 E0.01746
G1 X107.090 Y164.296 E0.73367
G1 X107.090 Y164.722 E0.01746
G1 X125.008 Y164.722 E0.73367
G1 X125.008 Y165.149 E0.01746
G1 X107.090 Y165.149 E0.73367
G1 X107.090 Y165.575 E0.01746
G1 X125.008 Y165.575 E0.73367
G1 X125.008 Y166.002 E0.01746
G1 X107.090 Y166.002 E0.73367
G1 X107.090 Y166.428 E0.01746
G1 X125.008 Y166.428 E0.73367
G1 X125.008 Y166.854 E0.01746
G1 X107.090 Y166.854 E0.73367
G1 X107.090 Y167.281 E0.01746
G1 X125.008 Y167.281 E0.73367
G1 X125.008 Y167.707 E0.01746
G1 X107.090 Y167.707 E0.73367
G1 X107.090 Y168.133 E0.01746
G1 X125.008 Y168.133 E0.73367
G1 X125.008 Y168.560 E0.01746
G1 X107.090 Y168.560 E0.73367
G1 X107.090 Y168.986 E0.01746
G1 X125.008 Y168.986 E0.73367
G1 X125.008 Y169.412 E0.01746
G1 X107.090 Y169.412 E0.73367
G1 X107.090 Y169.839 E0.01746
G1 X125.008 Y169.839 E0.73367
G1 X125.008 Y170.265 E0.01746
G1 X107.090 Y170.265 E0.73367
G1 X107.090 Y170.452 E0.00764
G1 X108.467 Y170.452 E0.05639
G1 X108.467 Y170.691 E0.00982
G1 X123.631 Y170.691 E0.62090
G1 X123.631 Y171.118 E0.01746
G1 X108.467 Y171.118 E0.62090
G1 X108.467 Y171.544 E0.01746
G1 X123.631 Y171.544 E0.62090
G1 X123.631 Y171.829 E0.01165
G1 X122.254 Y171.829 E0.05639
G1 X122.254 Y171.970 E0.00581
G1 X109.844 Y171.970 E0.50812
G1 X109.844 Y172.397 E0.01746
G1 X122.254 Y172.397 E0.50812
G1 X122.254 Y172.823 E0.01746
G1 X109.844 Y172.823 E0.50812
G1 X109.844 Y173.206 E0.01567
G1 X111.221 Y173.206 E0.05639
G1 X111.221 Y173.249 E0.00179
G1 X120.877 Y173.249 E0.39535
G1 X120.877 Y173.676 E0.01746
G1 X111.221 Y173.676 E0.39535
G1 X111.221 Y174.102 E0.01746
G1 X120.877 Y174.102 E0.39535
G1 X120.877 Y174.529 E0.01746
G1 X111.029 Y174.529 E0.40321
G1 E-0.50000 F2100
G1 Z0.650000 F27000
G1 X134.418 Y174.796
G1 Z0.250000
G1 E0.50000 F1800
G1 X134.418 Y173.419 E0.05639
G1 X133.041 Y173.419 E0.05639
G1 X133.041 Y172.042 E0.05639
G1 X131.664 Y172.042 E0.05639
G1 X131.664 Y147.254 E1.01495
G1 X130.287 Y147.254 E0.05639
G1 X130.287 Y142.164 E0.20845
G1 X150.009 Y142.164 E0.80751
G1 X150.009 Y147.254 E0.20844
G1 X148.631 Y147.254 E0.05639
G1 X148.631 Y172.042 E1.01495
G1 X147.254 Y172.042 E0.05639
G1 X147.254 Y173.419 E0.05639
G1 X145.877 Y173.419 E0.05639
G1 X145.877 Y174.796 E0.05639
G1 X134.478 Y174.796 E0.46674
G1 X149.987 Y142.492 F27000
G1 F1800
G1 X130.500 Y142.492 E0.79791
G1 X130.500 Y142.918 E0.01746
G1 X149.795 Y142.918 E0.79005
G1 X149.795 Y143.344 E0.01746
G1 X130.500 Y143.344 E0.79005
G1 X130.500 Y143.771 E0.01746
G1 X149.795 Y143.771 E0.79005
G1 X149.795 Y144.197 E0.01746
G1 X130.500 Y144.197 E0.79005
G1 X130.500 Y144.624 E0.01746
G1 X149.795 Y144.624 E0.79005
G1 X149.795 Y145.050 E0.01746
G1 X130.500 Y145.050 E0.79005
G1 X130.500 Y145.476 E0.01746
G1 X149.795 Y145.476 E0.79005
G1 X149.795 Y145.903 E0.01746
G1 X130.500 Y145.903 E0.79005
G1 X130.500 Y146.329 E0.01746
G1 X149.795 Y146.329 E0.79005
G1 X149.795 Y146.755 E0.01746
G1 X130.500 Y146.755 E0.79005
G1 X130.500 Y147.041 E0.01171
G1 X131.877 Y147.041 E0.05639
G1 X131.877 Y147.182 E0.00575
G1 X148.418 Y147.182 E0.67728
G1 X148.418 Y147.608 E0.01746
G1 X131.877 Y147.608 E0.67728
G1 X131.877 Y148.034 E0.01746
G1 X148.418 Y148.034 E0.67728
G1 X148.418 Y148.461 E0.01746
G1 X131.877 Y148.461 E0.67728
G1 X131.877 Y148.887 E0.01746
G1 X148.418 Y148.887 E0.67728
G1 X148.418 Y149.313 E0.01746
G1 X131.877 Y149.313 E0.67728
G1 X131.877 Y149.740 E0.01746
G1 X148.418 Y149.740 E0.67728
G1 X148.418 Y150.166 E0.01746
G1 X131.877 Y150.166 E0.67728
G1 X131.877 Y150.592 E0.01746
G1 X148.418 Y150.592 E0.67728
G1 X148.418 Y151.019 E0.01746
G1 X131.877 Y151.019 E0.67728
G1 X131.877 Y151.445 E0.01746
G1 X148.418 Y151.445 E0.67728
G1 X148.418 Y151.871 E0.01746
G1 X131.877 Y151.871 E0.67728
G1 X131.877 Y152.298 E0.01746
G1 X148.418 Y152.298 E0.67728
G1 X148.418 Y152.724 E0.01746
G1 X131.877 Y152.724 E0.67728
G1 X131.877 Y153.150 E0.01746
G1 X148.418 Y153.150 E0.67728
G1 X148.418 Y153.577 E0.01746
G1 X131.877 Y153.577 E0.67728
G1 X131.877 Y154.003 E0.01746
G1 X148.418 Y154.003 E0.67728
G1 X148.418 Y154.430 E0.01746
G1 X131.877 Y154.430 E0.67728
G1 X131.877 Y154.856 E0.01746
G1 X148.418 Y154.856 E0.67728
G1 X148.418 Y155.282 E0.01746
G1 X131.877 Y155.282 E0.67728
G1 X131.877 Y155.709 E0.01746
G1 X148.418 Y155.709 E0.67728
G1 X148.418 Y156.135 E0.01746
G1 X131.877 Y156.135 E0.67728
G1 X131.877 Y156.561 E0.01746
G1 X148.418 Y156.561 E0.67728
G1 X148.418 Y156.988 E0.01746
G1 X131.877 Y156.988 E0.67728
G1 X131.877 Y157.414 E0.01746
G1 X148.418 Y157.414 E0.67728
G1 X148.418 Y157.840 E0.01746
G1 X131.877 Y157.840 E0.67728
G1 X131.877 Y158.267 E0.01746
G1 X148.418 Y158.267 E0.67728
G1 X148.418 Y158.693 E0.01746
G1 X131.877 Y158.693 E0.67728
G1 X131.877 Y159.119 E0.01746
G1 X148.418 Y159.119 E0.67728
G1 X148.418 Y159.546 E0.01746
G1 X131.877 Y159.546 E0.67728
G1 X131.877 Y159.972 E0.01746
G1 X148.418 Y159.972 E0.67728
G1 X148.418 Y160.398 E0.01746
G1 X131.877 Y160.398 E0.67728
G1 X131.877 Y160.825 E0.01746
G1 X148.418 Y160.825 E0.67728
G1 X148.418 Y161.251 E0.01746
G1 X131.877 Y161.251 E0.67728
G1 X131.877 Y161.677 E0.01746
G1 X148.418 Y161.677 E0.67728
G1 X148.418 Y162.104 E0.01746
G1 X131.877 Y162.104 E0.67728
G1 X131.877 Y162.530 E0.01746
G1 X148.418 Y162.530 E0.67728
G1 X148.418 Y162.957 E0.01746
G1 X131.877 Y162.957 E0.67728
G1 X131.877 Y163.383 E0.01746
G1 X148.418 Y163.383 E0.67728
G1 X148.418 Y163.809 E0.01746
G1 X131.877 Y163.809 E0.67728
G1 X131.877 Y164.236 E0.01746
G1 X148.418 Y164.236 E0.67728
G1 X148.418 Y164.662 E0.01746
G1 X131.877 Y164.662 E0.67728
G1 X131.877 Y165.088 E0.01746
G1 X148.418 Y165.088 E0.67728
G1 X148.418 Y165.515 E0.01746
G1 X131.877 Y165.515 E0.67728
G1 X131.877 Y165.941 E0.01746
G1 X148.418 Y165.941 E0.67728
G1 X148.418 Y166.367 E0.01746
G1 X131.877 Y166.367 E0.67728
G1 X131.877 Y166.794 E0.01746
G1 X148.418 Y166.794 E0.67728
G1 X148.418 Y167.220 E0.01746
G1 X131.877 Y167.220 E0.67728
G1 X131.877 Y167.646 E0.01746
G1 X148.418 Y167.646 E0.67728
G1 X148.418 Y168.073 E0.01746
G1 X131.877 Y168.073 E0.67728
G1 X131.877 Y168.499 E0.01746
G1 X148.418 Y168.499 E0.67728
G1 X148.418 Y168.925 E0.01746
G1 X131.877 Y168.925 E0.67728
G1 X131.877 Y169.352 E0.01746
G1 X148.418 Y169.352 E0.67728
G1 X148.418 Y169.778 E0.01746
G1 X131.877 Y169.778 E0.67728
G1 X131.877 Y170.204 E0.01746
G1 X148.418 Y170.204 E0.67728
G1 X148.418 Y170.631 E0.01746
G1 X131.877 Y170.631 E0.67728
G1 X131.877 Y171.057 E0.01746
G1 X148.418 Y171.057 E0.67728
G1 X148.418 Y171.483 E0.01746
G1 X131.877 Y171.483 E0.67728
G1 X131.877 Y171.829 E0.01413
G1 X133.255 Y171.829 E0.05639
G1 X133.255 Y171.910 E0.00333
G1 X147.041 Y171.910 E0.56451
G1 X147.041 Y172.336 E0.01746
G1 X133.255 Y172.336 E0.56451
G1 X133.255 Y172.763 E0.01746
G1 X147.041 Y172.763 E0.56451
G1 X147.041 Y173.189 E0.01746
G1 X133.255 Y173.189 E0.56451
G1 X133.255 Y173.206 E0.00069
G1 X134.632 Y173.206 E0.05639
G1 X134.632 Y173.615 E0.01677
G1 X145.664 Y173.615 E0.45174
G1 X145.664 Y174.042 E0.01746
G1 X134.632 Y174.042 E0.45174
G1 X134.632 Y174.468 E0.01746
G1 X145.856 Y174.468 E0.45959
G1 E-0.50000 F2100
G1 Z0.650000 F27000
G1 X94.527 Y86.663
G1 Z0.250000
G1 E0.50000 F1800
G1 X91.729 Y86.663 E0.11457
G1 X91.729 Y75.204 E0.46920
G1 X99.057 Y75.204 E0.30004
G1 X99.057 Y82.759 E0.30936
G1 X95.628 Y82.759 E0.14038
G1 X94.949 Y82.759 E0.02782
G1 X94.471 Y83.245 E0.02791
G1 X94.526 Y86.603 E0.13751
G1 E-0.50000 F2100
G1 Z0.650000 F27000
G1 X99.035 Y75.604
G1 Z0.250000
G1 E0.50000 F1800
G1 X91.942 Y75.604 E0.29044
G1 X91.942 Y76.030 E0.01746
G1 X98.843 Y76.030 E0.28258
G1 X98.843 Y76.457 E0.01746
G1 X91.942 Y76.457 E0.28258
G1 X91.942 Y76.883 E0.01746
G1 X98.843 Y76.883 E0.28258
G1 X98.843 Y77.310 E0.01746
G1 X91.942 Y77.310 E0.28258
G1 X91.942 Y77.736 E0.01746
G1 X98.843 Y77.736 E0.28258
G1 X98.843 Y78.162 E0.01746
G1 X91.942 Y78.162 E0.28258
G1 X91.942 Y78.589 E0.01746
G1 X98.843 Y78.589 E0.28258
G1 X98.843 Y79.015 E0.01746
G1 X91.942 Y79.015 E0.28258
G1 X91.942 Y79.441 E0.01746
G1 X98.843 Y79.441 E0.28258
G1 X98.843 Y79.868 E0.01746
G1 X91.942 Y79.868 E0.28258
G1 X91.942 Y80.294 E0.01746
G1 X98.843 Y80.294 E0.28258
G1 X98.843 Y80.720 E0.01746
G1 X91.942 Y80.720 E0.28258
G1 X91.942 Y81.147 E0.01746
G1 X98.843 Y81.147 E0.28258
G1 X98.843 Y81.573 E0.01746
