; generated by SuperSlicer 2.3.56 on 2021-10-23 at 11:56:12 UTC


;
;

;
;
; 

; external perimeters extrusion width = 0.38mm
; perimeters extrusion width = 0.38mm
; infill extrusion width = 0.45mm
; solid infill extrusion width = 0.45mm
; top infill extrusion width = 0.44mm
; support material extrusion width = 0.40mm
; first layer extrusion width = 0.40mm


;TYPE:Custom
; M190 S0
; M109 S0 ; uncomment to remove set&wait temp gcode added automatically after this start gcode
print_start EXTRUDER=245 BED=110 CHAMBER=50
G21 ; set units to millimeters
G90 ; use absolute coordinates
M83 ; use relative distances for extrusion
M104 S245 ; set temperature
M109 S245 ; set temperature and wait for it to be reached
M190 S110 ; set bed temperature and wait for it to be reached
;LAYER_CHANGE
;Z:0.25
;HEIGHT:0.25

G1 Z0.250000 F18000
G1 E-0.50000 F2100
G1 Z1.150000 F18000
G1 X100.577 Y82.274
G1 Z0.250000
G1 E0.50000 F1800
; External perimeter
;Skirt
SET_VELOCITY_LIMIT ACCEL=7000 ACCEL_TO_DECEL=7000 SQUARE_CORNER_VELOCITY=8

; Support material

;TYPE:Skirt
;WIDTH:0.4
G1 F1500
M204 S2000
G1 X107.993 Y73.209 E0.37943
G1 X108.445 Y72.735 E0.02125
G1 X109.071 Y72.251 E0.02562
G1 X109.823 Y71.850 E0.02762
G1 X110.553 Y71.604 E0.02495
G1 X111.307 Y71.479 E0.02477
G1 X124.731 Y71.460 E0.43492
G1 X125.825 Y71.585 E0.03567
G1 X126.831 Y71.939 E0.03456
G1 X127.669 Y72.451 E0.03181
G1 X128.460 Y73.204 E0.03538
G1 X163.256 Y118.237 E1.84383
G1 X163.955 Y119.311 E0.04153
G1 X164.465 Y120.573 E0.04408
G1 X164.713 Y121.884 E0.04322
G1 X164.693 Y123.307 E0.04611
G1 X164.487 Y124.345 E0.03428
G1 X164.223 Y125.117 E0.02644
G1 X163.861 Y125.861 E0.02682
G1 X163.288 Y126.721 E0.03349
G1 X128.608 Y171.609 E1.83780
G1 X128.034 Y172.244 E0.02773
G1 X127.398 Y172.742 E0.02616
G1 X126.643 Y173.146 E0.02778
G1 X125.907 Y173.395 E0.02516
G1 X125.134 Y173.522 E0.02537
G1 X111.720 Y173.540 E0.43461
G1 X111.096 Y173.499 E0.02026
G1 X110.193 Y173.290 E0.03003
G1 X109.429 Y172.962 E0.02693
G1 X108.644 Y172.437 E0.03060
G1 X108.042 Y171.850 E0.02725
G1 X72.219 Y128.059 E1.83301
G1 X71.292 Y126.654 E0.05455
G1 X70.928 Y125.877 E0.02778
G1 X70.627 Y125.027 E0.02921
G1 X70.425 Y124.209 E0.02731
G1 X70.298 Y123.326 E0.02889
G1 X70.259 Y122.461 E0.02806
G1 X70.317 Y121.497 E0.03129
G1 X70.598 Y120.078 E0.04685
G1 X70.938 Y119.099 E0.03360
G1 X71.390 Y118.171 E0.03345
G1 X72.216 Y116.945 E0.04788
G1 X100.539 Y82.321 E1.44932
M204 S3000
G1 X100.807 Y82.540 F18000
G1 F1500
M204 S2000
G1 X108.260 Y73.429 E0.38137
G1 X108.682 Y72.988 E0.01975
G1 X109.260 Y72.541 E0.02368
G1 X109.968 Y72.165 E0.02597
G1 X110.642 Y71.939 E0.02303
G1 X111.347 Y71.823 E0.02316
G1 X124.731 Y71.807 E0.43363
G1 X125.755 Y71.925 E0.03339
G1 X126.687 Y72.254 E0.03200
G1 X127.461 Y72.728 E0.02942
G1 X128.197 Y73.430 E0.03295
G1 X162.982 Y118.449 E1.84325
G1 X163.646 Y119.468 E0.03941
G1 X164.131 Y120.665 E0.04185
G1 X164.368 Y121.910 E0.04106
G1 X164.349 Y123.261 E0.04379
G1 X164.153 Y124.255 E0.03281
G1 X163.901 Y124.988 E0.02512
G1 X163.561 Y125.687 E0.02518
G1 X163.010 Y126.514 E0.03221
G1 X128.334 Y171.397 E1.83760
G1 X127.800 Y171.989 E0.02582
G1 X127.209 Y172.452 E0.02432
G1 X126.498 Y172.832 E0.02613
G1 X125.813 Y173.061 E0.02338
G1 X125.095 Y173.178 E0.02359
G1 X111.143 Y173.155 E0.45201
G1 X110.297 Y172.960 E0.02815
G1 X109.591 Y172.656 E0.02492
G1 X108.863 Y172.168 E0.02838
G1 X108.302 Y171.622 E0.02537
G1 X72.490 Y127.843 E1.83252
G1 X71.601 Y126.496 E0.05227
G1 X71.249 Y125.747 E0.02683
G1 X70.961 Y124.934 E0.02793
G1 X70.766 Y124.148 E0.02624
G1 X70.643 Y123.300 E0.02776
G1 X70.606 Y122.464 E0.02711
G1 X70.661 Y121.543 E0.02990
G1 X70.932 Y120.168 E0.04538
G1 X71.257 Y119.233 E0.03209
G1 X71.689 Y118.345 E0.03197
G1 X72.489 Y117.159 E0.04636
G1 X100.769 Y82.586 E1.44714
M204 S3000
G1 X101.038 Y82.806 F18000
G1 F1500
M204 S2000
G1 X108.526 Y73.652 E0.38316
G1 X108.915 Y73.244 E0.01826
G1 X109.449 Y72.831 E0.02190
G1 X110.112 Y72.480 E0.02429
G1 X110.735 Y72.273 E0.02127
G1 X111.391 Y72.167 E0.02153
G1 X124.731 Y72.153 E0.43221
G1 X125.676 Y72.262 E0.03082
G1 X126.542 Y72.568 E0.02974
G1 X127.250 Y73.002 E0.02690
G1 X127.934 Y73.655 E0.03065
G1 X162.710 Y118.664 E1.84281
G1 X163.338 Y119.625 E0.03717
G1 X163.798 Y120.762 E0.03976
G1 X164.023 Y121.937 E0.03875
G1 X164.006 Y123.217 E0.04146
G1 X163.817 Y124.170 E0.03148
G1 X163.580 Y124.860 E0.02364
G1 X163.259 Y125.517 E0.02371
G1 X162.730 Y126.311 E0.03090
G1 X128.060 Y171.185 E1.83726
G1 X127.562 Y171.737 E0.02407
G1 X127.015 Y172.164 E0.02249
G1 X126.353 Y172.517 E0.02432
G1 X125.725 Y172.726 E0.02145
G1 X125.056 Y172.833 E0.02196
G1 X111.186 Y172.812 E0.44937
G1 X110.401 Y172.630 E0.02609
G1 X109.756 Y172.352 E0.02277
G1 X109.078 Y171.897 E0.02645
G1 X108.563 Y171.393 E0.02334
G1 X72.763 Y127.630 E1.83188
G1 X71.907 Y126.334 E0.05030
G1 X71.293 Y124.836 E0.05247
G1 X70.988 Y123.272 E0.05160
G1 X70.952 Y122.470 E0.02601
G1 X71.004 Y121.588 E0.02866
G1 X71.267 Y120.258 E0.04391
G1 X71.577 Y119.366 E0.03059
G1 X71.986 Y118.523 E0.03036
G1 X72.764 Y117.369 E0.04511
G1 X101.000 Y82.852 E1.44481
G1 E-0.50000 F2100
M204 S3000
G1 Z1.150000 F18000
G1 X111.968 Y76.565
G1 Z0.250000
G1 E0.50000 F1800
; External perimeter
;Perimeter
SET_VELOCITY_LIMIT ACCEL=2000 ACCEL_TO_DECEL=2000 SQUARE_CORNER_VELOCITY=8

; Overhang perimeter

;TYPE:Internal perimeter
G1 F1500
M204 S2000
G1 X124.489 Y76.565 E0.40569
G1 X124.489 Y111.087 E1.11847
G1 X111.967 Y111.087 E0.40569
G1 X111.968 Y76.625 E1.11652
M204 S3000
G1 X111.621 Y76.219 F18000
G1 F1500
M204 S2000
G1 X124.836 Y76.219 E0.42813
G1 X124.835 Y111.433 E1.14091
G1 X111.621 Y111.433 E0.42813
G1 X111.621 Y76.279 E1.13897
M204 S3000
G1 X111.305 Y76.165 F18000
G1 F1500
M204 S2000
G1 X111.328 Y76.115 E0.00178
G1 X111.356 Y76.068 E0.00178
G1 X111.391 Y76.024 E0.00180
G1 X111.427 Y75.988 E0.00164
G1 X111.470 Y75.954 E0.00180
G1 X111.516 Y75.926 E0.00174
G1 X111.571 Y75.902 E0.00195
G1 X111.619 Y75.887 E0.00163
G1 X111.674 Y75.877 E0.00179
G1 X111.745 Y75.872 E0.00231
G1 X124.715 Y75.872 E0.42021
G1 X124.783 Y75.877 E0.00222
G1 X124.837 Y75.887 E0.00178
G1 X124.889 Y75.903 E0.00178
G1 X124.939 Y75.926 E0.00178
G1 X124.986 Y75.954 E0.00178
G1 X125.030 Y75.988 E0.00180
G1 X125.065 Y76.024 E0.00161
G1 X125.103 Y76.072 E0.00197
G1 X125.129 Y76.114 E0.00162
G1 X125.151 Y76.165 E0.00180
G1 X125.168 Y76.217 E0.00178
G1 X125.178 Y76.271 E0.00178
G1 X125.182 Y76.343 E0.00231
G1 X125.182 Y111.312 E1.13299
G1 X125.178 Y111.381 E0.00222
G1 X125.168 Y111.435 E0.00178
G1 X125.151 Y111.487 E0.00178
G1 X125.129 Y111.537 E0.00178
G1 X125.100 Y111.584 E0.00178
G1 X125.066 Y111.628 E0.00180
G1 X125.030 Y111.663 E0.00164
G1 X124.986 Y111.698 E0.00180
G1 X124.940 Y111.726 E0.00174
G1 X124.885 Y111.750 E0.00195
G1 X124.837 Y111.765 E0.00163
G1 X124.783 Y111.775 E0.00179
G1 X124.712 Y111.780 E0.00231
G1 X111.742 Y111.779 E0.42021
G1 X111.674 Y111.775 E0.00222
G1 X111.620 Y111.765 E0.00178
G1 X111.567 Y111.749 E0.00178
G1 X111.517 Y111.726 E0.00178
G1 X111.470 Y111.698 E0.00178
G1 X111.427 Y111.663 E0.00180
G1 X111.391 Y111.628 E0.00164
G1 X111.356 Y111.584 E0.00180
G1 X111.329 Y111.538 E0.00174
G1 X111.304 Y111.483 E0.00195
G1 X111.289 Y111.435 E0.00163
G1 X111.279 Y111.381 E0.00179
G1 X111.275 Y111.309 E0.00231
G1 X111.275 Y76.340 E1.13299
G1 X111.279 Y76.271 E0.00222
G1 X111.288 Y76.222 E0.00161
M204 S3000
G1 X110.952 Y76.134 F18000
; External perimeter
;ExternalPerimeter0
SET_VELOCITY_LIMIT ACCEL=1000 ACCEL_TO_DECEL=1000 SQUARE_CORNER_VELOCITY=8

; Perimeter

;TYPE:External perimeter
G1 F1500
M204 S2000
G1 X110.981 Y76.041 E0.00314
G1 X111.021 Y75.953 E0.00314
G1 X111.071 Y75.870 E0.00314
G1 X111.131 Y75.794 E0.00315
G1 X111.196 Y75.729 E0.00297
G1 X111.273 Y75.669 E0.00315
G1 X111.355 Y75.619 E0.00313
G1 X111.449 Y75.577 E0.00332
G1 X111.536 Y75.550 E0.00297
G1 X111.632 Y75.532 E0.00314
G1 X111.734 Y75.526 E0.00334
G1 X124.725 Y75.526 E0.42089
G1 X124.825 Y75.532 E0.00324
G1 X124.920 Y75.550 E0.00314
G1 X125.013 Y75.579 E0.00314
G1 X125.101 Y75.619 E0.00314
G1 X125.184 Y75.669 E0.00314
G1 X125.260 Y75.729 E0.00315
G1 X125.325 Y75.794 E0.00296
G1 X125.388 Y75.875 E0.00333
G1 X125.436 Y75.953 E0.00296
G1 X125.476 Y76.041 E0.00315
G1 X125.505 Y76.134 E0.00314
G1 X125.522 Y76.229 E0.00314
G1 X125.528 Y76.332 E0.00334
G1 X125.528 Y111.323 E1.13367
G1 X125.522 Y111.423 E0.00324
G1 X125.505 Y111.518 E0.00314
G1 X125.476 Y111.610 E0.00314
G1 X125.436 Y111.699 E0.00314
G1 X125.385 Y111.782 E0.00314
G1 X125.325 Y111.858 E0.00315
G1 X125.260 Y111.923 E0.00297
G1 X125.184 Y111.983 E0.00315
G1 X125.102 Y112.033 E0.00313
G1 X125.008 Y112.075 E0.00332
G1 X124.921 Y112.102 E0.00297
G1 X124.825 Y112.120 E0.00314
G1 X124.722 Y112.126 E0.00334
G1 X111.731 Y112.126 E0.42089
G1 X111.632 Y112.120 E0.00324
G1 X111.536 Y112.102 E0.00314
G1 X111.444 Y112.073 E0.00314
G1 X111.356 Y112.033 E0.00314
G1 X111.273 Y111.983 E0.00314
G1 X111.196 Y111.923 E0.00315
G1 X111.131 Y111.858 E0.00297
G1 X111.071 Y111.782 E0.00315
G1 X111.021 Y111.699 E0.00313
G1 X110.979 Y111.605 E0.00332
G1 X110.952 Y111.518 E0.00297
G1 X110.935 Y111.423 E0.00314
G1 X110.928 Y111.320 E0.00334
G1 X110.929 Y76.329 E1.13367
G1 X110.935 Y76.229 E0.00324
G1 X110.941 Y76.193 E0.00120
M204 S3000
G1 X111.046 Y76.109 F18000
G1 E-0.50000 F2100
G1 Z0.650000 F18000
G1 X124.437 Y77.317
G1 Z0.250000
G1 E0.50000 F1800
; External perimeter
;SolidInfill
SET_VELOCITY_LIMIT ACCEL=4000 ACCEL_TO_DECEL=4000 SQUARE_CORNER_VELOCITY=8

; Bridge infill

;TYPE:Solid infill
;WIDTH:0.397386
M204 S2000
G1 X123.893 Y76.773 E0.02478
G1 X123.403 Y76.773 E0.01577
G1 X124.281 Y77.651 E0.03998
G1 X124.281 Y78.141 E0.01577
G1 X122.913 Y76.773 E0.06227
G1 X122.424 Y76.773 E0.01577
G1 X124.281 Y78.631 E0.08457
G1 X124.281 Y79.121 E0.01577
G1 X121.934 Y76.773 E0.10687
G1 X121.444 Y76.773 E0.01577
G1 X124.281 Y79.610 E0.12916
G1 X124.281 Y80.100 E0.01577
G1 X120.954 Y76.773 E0.15146
G1 X120.464 Y76.773 E0.01577
G1 X124.281 Y80.590 E0.17376
G1 X124.281 Y81.080 E0.01577
G1 X119.975 Y76.773 E0.19605
G1 X119.485 Y76.773 E0.01577
G1 X124.281 Y81.570 E0.21835
G1 X124.281 Y82.059 E0.01577
G1 X118.995 Y76.773 E0.24064
G1 X118.505 Y76.773 E0.01577
G1 X124.281 Y82.549 E0.26294
G1 X124.281 Y83.039 E0.01577
G1 X118.015 Y76.773 E0.28524
G1 X117.525 Y76.773 E0.01577
G1 X124.281 Y83.529 E0.30753
G1 X124.281 Y84.019 E0.01577
G1 X117.036 Y76.773 E0.32983
G1 X116.546 Y76.773 E0.01577
G1 X124.281 Y84.509 E0.35213
G1 X124.281 Y84.998 E0.01577
G1 X116.056 Y76.773 E0.37442
G1 X115.566 Y76.773 E0.01577
G1 X124.281 Y85.488 E0.39672
G1 X124.281 Y85.978 E0.01577
G1 X115.076 Y76.773 E0.41901
G1 X114.587 Y76.773 E0.01577
G1 X124.281 Y86.468 E0.44131
G1 X124.281 Y86.958 E0.01577
G1 X114.097 Y76.773 E0.46361
G1 X113.607 Y76.773 E0.01577
G1 X124.281 Y87.447 E0.48590
G1 X124.281 Y87.937 E0.01577
G1 X113.117 Y76.773 E0.50820
G1 X112.627 Y76.773 E0.01577
G1 X124.281 Y88.427 E0.53049
G1 X124.281 Y88.917 E0.01577
G1 X112.175 Y76.811 E0.55106
G1 X112.175 Y77.301 E0.01577
G1 X124.281 Y89.407 E0.55106
G1 X124.281 Y89.896 E0.01577
G1 X112.175 Y77.790 E0.55106
G1 X112.175 Y78.280 E0.01577
G1 X124.281 Y90.386 E0.55106
G1 X124.281 Y90.876 E0.01577
G1 X112.175 Y78.770 E0.55106
G1 X112.175 Y79.260 E0.01577
G1 X124.281 Y91.366 E0.55106
G1 X124.281 Y91.856 E0.01577
G1 X112.175 Y79.750 E0.55106
G1 X112.175 Y80.239 E0.01577
G1 X124.281 Y92.345 E0.55106
G1 X124.281 Y92.835 E0.01577
G1 X112.175 Y80.729 E0.55106
G1 X112.175 Y81.219 E0.01577
G1 X124.281 Y93.325 E0.55106
G1 X124.281 Y93.815 E0.01577
G1 X112.175 Y81.709 E0.55106
G1 X112.175 Y82.199 E0.01577
G1 X124.281 Y94.305 E0.55106
G1 X124.281 Y94.795 E0.01577
G1 X112.175 Y82.688 E0.55106
G1 X112.175 Y83.178 E0.01577
G1 X124.281 Y95.284 E0.55106
G1 X124.281 Y95.774 E0.01577
G1 X112.175 Y83.668 E0.55106
G1 X112.175 Y84.158 E0.01577
G1 X124.281 Y96.264 E0.55106
G1 X124.281 Y96.754 E0.01577
G1 X112.175 Y84.648 E0.55106
G1 X112.175 Y85.138 E0.01577
G1 X124.281 Y97.244 E0.55106
G1 X124.281 Y97.733 E0.01577
G1 X112.175 Y85.627 E0.55106
G1 X112.175 Y86.117 E0.01577
G1 X124.281 Y98.223 E0.55106
G1 X124.281 Y98.713 E0.01577
G1 X112.175 Y86.607 E0.55106
G1 X112.175 Y87.097 E0.01577
G1 X124.281 Y99.203 E0.55106
G1 X124.281 Y99.693 E0.01577
G1 X112.175 Y87.587 E0.55106
G1 X112.175 Y88.076 E0.01577
G1 X124.281 Y100.182 E0.55106
G1 X124.281 Y100.672 E0.01577
G1 X112.175 Y88.566 E0.55106
G1 X112.175 Y89.056 E0.01577
G1 X124.281 Y101.162 E0.55106
G1 X124.281 Y101.652 E0.01577
G1 X112.175 Y89.546 E0.55106
G1 X112.175 Y90.036 E0.01577
G1 X124.281 Y102.142 E0.55106
G1 X124.281 Y102.631 E0.01577
G1 X112.175 Y90.525 E0.55106
G1 X112.175 Y91.015 E0.01577
G1 X124.281 Y103.121 E0.55106
G1 X124.281 Y103.611 E0.01577
G1 X112.175 Y91.505 E0.55106
G1 X112.175 Y91.995 E0.01577
G1 X124.281 Y104.101 E0.55106
G1 X124.281 Y104.591 E0.01577
G1 X112.175 Y92.485 E0.55106
G1 X112.175 Y92.974 E0.01577
G1 X124.281 Y105.081 E0.55106
G1 X124.281 Y105.570 E0.01577
G1 X112.175 Y93.464 E0.55106
G1 X112.175 Y93.954 E0.01577
G1 X124.281 Y106.060 E0.55106
G1 X124.281 Y106.550 E0.01577
G1 X112.175 Y94.444 E0.55106
G1 X112.175 Y94.934 E0.01577
G1 X124.281 Y107.040 E0.55106
G1 X124.281 Y107.530 E0.01577
G1 X112.175 Y95.423 E0.55106
G1 X112.175 Y95.913 E0.01577
G1 X124.281 Y108.019 E0.55106
G1 X124.281 Y108.509 E0.01577
G1 X112.175 Y96.403 E0.55106
G1 X112.175 Y96.893 E0.01577
G1 X124.281 Y108.999 E0.55106
G1 X124.281 Y109.489 E0.01577
G1 X112.175 Y97.383 E0.55106
G1 X112.175 Y97.873 E0.01577
G1 X124.281 Y109.979 E0.55106
G1 X124.281 Y110.468 E0.01577
G1 X112.175 Y98.362 E0.55106
G1 X112.175 Y98.852 E0.01577
G1 X124.202 Y110.879 E0.54746
G1 X123.712 Y110.879 E0.01577
G1 X112.175 Y99.342 E0.52516
G1 X112.175 Y99.832 E0.01577
G1 X123.223 Y110.879 E0.50287
G1 X122.733 Y110.879 E0.01577
G1 X112.175 Y100.322 E0.48057
G1 X112.175 Y100.811 E0.01577
G1 X122.243 Y110.879 E0.45828
G1 X121.753 Y110.879 E0.01577
G1 X112.175 Y101.301 E0.43598
G1 X112.175 Y101.791 E0.01577
G1 X121.263 Y110.879 E0.41368
G1 X120.773 Y110.879 E0.01577
G1 X112.175 Y102.281 E0.39139
G1 X112.175 Y102.771 E0.01577
G1 X120.284 Y110.879 E0.36909
G1 X119.794 Y110.879 E0.01577
G1 X112.175 Y103.260 E0.34679
G1 X112.175 Y103.750 E0.01577
G1 X119.304 Y110.879 E0.32450
G1 X118.814 Y110.879 E0.01577
G1 X112.175 Y104.240 E0.30220
G1 X112.175 Y104.730 E0.01577
G1 X118.324 Y110.879 E0.27991
G1 X117.835 Y110.879 E0.01577
G1 X112.175 Y105.220 E0.25761
G1 X112.175 Y105.709 E0.01577
G1 X117.345 Y110.879 E0.23531
G1 X116.855 Y110.879 E0.01577
G1 X112.175 Y106.199 E0.21302
G1 X112.175 Y106.689 E0.01577
G1 X116.365 Y110.879 E0.19072
G1 X115.875 Y110.879 E0.01577
G1 X112.175 Y107.179 E0.16842
G1 X112.175 Y107.669 E0.01577
G1 X115.385 Y110.879 E0.14613
G1 X114.896 Y110.879 E0.01577
G1 X112.175 Y108.159 E0.12383
G1 X112.175 Y108.648 E0.01577
G1 X114.406 Y110.879 E0.10154
G1 X113.916 Y110.879 E0.01577
G1 X112.175 Y109.138 E0.07924
G1 X112.175 Y109.628 E0.01577
G1 X113.426 Y110.879 E0.05694
G1 X112.936 Y110.879 E0.01577
G1 X112.175 Y110.118 E0.03465
G1 X112.175 Y110.608 E0.01577
G1 X112.602 Y111.035 E0.01945
G1 E-0.50000 F2100
M204 S3000
G1 Z1.150000 F18000
G1 X82.617 Y121.440
G1 Z0.250000
G1 E0.50000 F1800
; External perimeter
;Perimeter
SET_VELOCITY_LIMIT ACCEL=2000 ACCEL_TO_DECEL=2000 SQUARE_CORNER_VELOCITY=8

; Overhang perimeter

;TYPE:Internal perimeter
;WIDTH:0.4
G1 F1500
M204 S2000
G1 X82.496 Y121.104 E0.01158
G1 X82.344 Y120.780 E0.01159
G1 X82.160 Y120.472 E0.01163
G1 X81.946 Y120.185 E0.01159
G1 X81.706 Y119.919 E0.01160
G1 X81.440 Y119.679 E0.01160
G1 X81.153 Y119.465 E0.01159
G1 X80.845 Y119.281 E0.01163
G1 X80.521 Y119.129 E0.01159
G1 X80.185 Y119.008 E0.01158
G1 X79.837 Y118.921 E0.01163
G1 X79.483 Y118.868 E0.01159
G1 X79.125 Y118.850 E0.01161
G1 X78.767 Y118.868 E0.01161
G1 X78.413 Y118.921 E0.01159
G1 X78.065 Y119.008 E0.01163
G1 X77.729 Y119.129 E0.01158
G1 X77.405 Y119.281 E0.01159
G1 X77.097 Y119.465 E0.01163
G1 X76.810 Y119.679 E0.01159
G1 X76.544 Y119.919 E0.01160
G1 X76.304 Y120.185 E0.01160
G1 X76.090 Y120.472 E0.01159
G1 X75.906 Y120.780 E0.01163
G1 X75.754 Y121.104 E0.01159
