; generated by SuperSlicer 2.3.56 on 2021-10-27 at 19:23:57 UTC


;
;

;
;
; 

; external perimeters extrusion width = 0.38mm
; perimeters extrusion width = 0.38mm
; infill extrusion width = 0.45mm
; solid infill extrusion width = 0.45mm
; top infill extrusion width = 0.44mm
; support material extrusion width = 0.40mm
; first layer extrusion width = 0.40mm


;TYPE:Custom
; M190 S0
; M109 S0 ; uncomment to remove set&wait temp gcode added automatically after this start gcode
print_start EXTRUDER=245 BED=110 CHAMBER=50
G21 ; set units to millimeters
G90 ; use absolute coordinates
M83 ; use relative distances for extrusion
; Filament gcode
M104 S245 ; set temperature
M109 S245 ; set temperature and wait for it to be reached
M190 S110 ; set bed temperature and wait for it to be reached
;LAYER_CHANGE
;Z:0.25
;HEIGHT:0.25

G1 Z0.250000 F18000
G1 E-0.50000 F2100
G1 Z1.150000 F18000
G1 X103.565 Y104.451
G1 Z0.250000
G1 E0.50000 F1800
; External perimeter
;Skirt
SET_VELOCITY_LIMIT ACCEL=7000 ACCEL_TO_DECEL=7000 SQUARE_CORNER_VELOCITY=8

; Support material

;TYPE:Skirt
;WIDTH:0.4
G1 F1500
M204 S2000
G1 X104.308 Y103.889 E0.03099
G1 X105.111 Y103.482 E0.02996
G1 X106.027 Y103.211 E0.03176
G1 X106.901 Y103.115 E0.02926
G1 X150.249 Y103.113 E1.44187
G1 X151.181 Y103.199 E0.03116
G1 X152.121 Y103.469 E0.03252
G1 X152.959 Y103.889 E0.03118
G1 X153.724 Y104.473 E0.03203
G1 X154.331 Y105.140 E0.02999
G1 X154.862 Y106.004 E0.03372
G1 X155.193 Y106.880 E0.03117
G1 X155.368 Y107.917 E0.03496
G1 X155.377 Y143.232 E1.17470
G1 X155.257 Y144.163 E0.03120
G1 X154.923 Y145.165 E0.03515
G1 X154.356 Y146.125 E0.03708
G1 X153.701 Y146.849 E0.03249
G1 X152.957 Y147.411 E0.03100
G1 X152.153 Y147.818 E0.02998
G1 X151.238 Y148.089 E0.03175
G1 X150.364 Y148.185 E0.02925
G1 X106.991 Y148.187 E1.44271
G1 X105.993 Y148.082 E0.03338
G1 X104.962 Y147.755 E0.03599
G1 X103.967 Y147.177 E0.03825
G1 X103.222 Y146.507 E0.03334
G1 X95.991 Y136.311 E0.41578
G1 X95.259 Y135.014 E0.04954
G1 X94.855 Y133.846 E0.04111
G1 X94.643 Y132.574 E0.04288
G1 X94.619 Y126.542 E0.20064
G1 X94.754 Y125.164 E0.04606
G1 X94.910 Y124.511 E0.02233
G1 X95.223 Y123.628 E0.03116
G1 X102.301 Y106.226 E0.62490
G1 X102.799 Y105.328 E0.03414
G1 X103.525 Y104.496 E0.03674
M204 S3000
G1 X103.785 Y104.724 F18000
G1 F1500
M204 S2000
G1 X103.812 Y104.694 E0.00132
G1 X104.505 Y104.174 E0.02882
G1 X105.253 Y103.798 E0.02787
G1 X106.103 Y103.549 E0.02946
G1 X106.920 Y103.460 E0.02733
G1 X150.248 Y103.459 E1.44123
G1 X151.119 Y103.540 E0.02908
G1 X152.002 Y103.794 E0.03056
G1 X152.779 Y104.186 E0.02895
G1 X153.497 Y104.734 E0.03004
G1 X154.056 Y105.351 E0.02769
G1 X154.555 Y106.166 E0.03178
G1 X154.861 Y106.980 E0.02894
G1 X155.024 Y107.964 E0.03317
G1 X155.031 Y143.205 E1.17223
G1 X154.922 Y144.075 E0.02915
G1 X154.607 Y145.023 E0.03321
G1 X154.072 Y145.926 E0.03492
G1 X153.453 Y146.606 E0.03058
G1 X152.765 Y147.123 E0.02866
G1 X152.016 Y147.500 E0.02788
G1 X151.162 Y147.751 E0.02961
G1 X150.345 Y147.840 E0.02733
G1 X106.992 Y147.841 E1.44204
G1 X106.068 Y147.744 E0.03093
G1 X105.097 Y147.436 E0.03386
G1 X104.161 Y146.890 E0.03605
G1 X103.466 Y146.260 E0.03123
G1 X96.278 Y136.117 E0.41351
G1 X95.577 Y134.876 E0.04741
G1 X95.191 Y133.762 E0.03920
G1 X94.988 Y132.540 E0.04120
G1 X94.966 Y126.544 E0.19947
G1 X95.094 Y125.231 E0.04388
G1 X95.544 Y123.758 E0.05123
G1 X102.616 Y106.369 E0.62441
G1 X103.084 Y105.525 E0.03211
G1 X103.746 Y104.769 E0.03341
M204 S3000
G1 X104.006 Y104.998 F18000
G1 F1500
M204 S2000
G1 X104.058 Y104.938 E0.00263
G1 X104.697 Y104.462 E0.02650
G1 X105.390 Y104.116 E0.02577
G1 X106.179 Y103.887 E0.02732
G1 X106.934 Y103.807 E0.02525
G1 X150.248 Y103.805 E1.44076
G1 X151.052 Y103.880 E0.02687
G1 X151.874 Y104.116 E0.02842
G1 X152.596 Y104.479 E0.02689
G1 X153.262 Y104.989 E0.02789
G1 X153.778 Y105.559 E0.02558
G1 X154.246 Y106.323 E0.02980
G1 X154.529 Y107.080 E0.02688
G1 X154.679 Y108.005 E0.03117
G1 X154.685 Y143.184 E1.17018
G1 X154.585 Y143.994 E0.02712
G1 X154.294 Y144.876 E0.03091
G1 X153.789 Y145.727 E0.03290
G1 X153.207 Y146.362 E0.02864
G1 X152.568 Y146.838 E0.02651
G1 X151.875 Y147.184 E0.02578
G1 X151.086 Y147.413 E0.02731
G1 X150.331 Y147.493 E0.02525
G1 X106.998 Y147.494 E1.44138
G1 X106.137 Y147.405 E0.02881
G1 X105.233 Y147.118 E0.03153
G1 X104.356 Y146.604 E0.03382
G1 X103.710 Y146.014 E0.02911
G1 X96.562 Y135.918 E0.41145
G1 X95.896 Y134.741 E0.04497
G1 X95.526 Y133.673 E0.03760
G1 X95.333 Y132.507 E0.03933
G1 X95.312 Y126.550 E0.19816
G1 X95.434 Y125.297 E0.04185
G1 X95.865 Y123.887 E0.04905
G1 X102.934 Y106.508 E0.62409
G1 X103.370 Y105.721 E0.02992
G1 X103.966 Y105.043 E0.03004
M204 S3000
G1 X104.220 Y105.274 F18000
G1 F1500
M204 S2000
G1 X104.300 Y105.186 E0.00396
G1 X104.885 Y104.753 E0.02421
G1 X105.527 Y104.435 E0.02383
G1 X106.254 Y104.225 E0.02518
G1 X106.952 Y104.153 E0.02334
G1 X150.248 Y104.152 E1.44015
G1 X150.987 Y104.220 E0.02469
G1 X151.750 Y104.439 E0.02640
G1 X152.413 Y104.773 E0.02470
G1 X153.031 Y105.247 E0.02590
G1 X153.504 Y105.771 E0.02348
G1 X153.937 Y106.478 E0.02758
G1 X154.196 Y107.175 E0.02472
G1 X154.335 Y108.044 E0.02928
G1 X154.340 Y143.164 E1.16821
G1 X154.248 Y143.914 E0.02511
G1 X153.977 Y144.735 E0.02877
G1 X153.506 Y145.527 E0.03066
G1 X152.965 Y146.114 E0.02653
G1 X152.380 Y146.547 E0.02421
G1 X151.742 Y146.864 E0.02369
G1 X151.011 Y147.075 E0.02532
G1 X150.318 Y147.147 E0.02319
G1 X106.999 Y147.148 E1.44089
G1 X106.209 Y147.066 E0.02642
G1 X105.369 Y146.799 E0.02932
G1 X104.555 Y146.320 E0.03142
G1 X103.958 Y145.772 E0.02697
G1 X96.846 Y135.720 E0.40958
G1 X96.214 Y134.603 E0.04270
G1 X95.862 Y133.589 E0.03569
G1 X95.678 Y132.474 E0.03759
G1 X95.658 Y126.551 E0.19701
G1 X95.773 Y125.368 E0.03954
G1 X96.186 Y124.017 E0.04700
G1 X103.250 Y106.650 E0.62364
G1 X103.738 Y105.801 E0.03257
G1 X104.179 Y105.319 E0.02175
G1 E-0.50000 F2100
M204 S3000
G1 Z1.150000 F18000
G1 X128.107 Y124.780
G1 Z0.250000
G1 E0.50000 F1800
; External perimeter
;Perimeter
SET_VELOCITY_LIMIT ACCEL=2000 ACCEL_TO_DECEL=2000 SQUARE_CORNER_VELOCITY=8

; Overhang perimeter

;TYPE:Internal perimeter
G1 F1500
M204 S2000
G1 X128.574 Y124.804 E0.01558
G1 X128.687 Y124.804 E0.00373
G1 X129.159 Y124.780 E0.01572
G1 X128.903 Y125.173 E0.01559
G1 X128.847 Y125.270 E0.00373
G1 X128.633 Y125.691 E0.01573
G1 X128.418 Y125.270 E0.01573
G1 X128.362 Y125.173 E0.00373
G1 X128.139 Y124.830 E0.01359
M204 S3000
G1 X129.161 Y125.420 F18000
G1 F1500
M204 S2000
G1 X129.152 Y125.435 E0.00059
G1 X129.062 Y125.612 E0.00659
G1 X128.959 Y125.871 E0.00927
G1 X128.883 Y126.143 E0.00941
G1 X128.838 Y126.422 E0.00941
G1 X128.823 Y126.690 E0.00892
G1 X128.823 Y131.864 E0.17209
G1 X128.838 Y132.131 E0.00892
G1 X128.883 Y132.410 E0.00941
G1 X128.959 Y132.683 E0.00941
G1 X129.062 Y132.942 E0.00927
G1 X129.152 Y133.118 E0.00659
G1 X129.199 Y133.200 E0.00313
G1 X129.307 Y133.366 E0.00659
G1 X129.479 Y133.584 E0.00927
G1 X129.678 Y133.786 E0.00941
G1 X129.896 Y133.965 E0.00941
G1 X130.121 Y134.112 E0.00892
G1 X134.602 Y136.699 E0.17209
G1 X134.841 Y136.820 E0.00892
G1 X135.103 Y136.919 E0.00933
G1 X135.290 Y136.969 E0.00644
G1 X135.385 Y136.992 E0.00324
G1 X135.655 Y137.031 E0.00908
G1 X135.852 Y137.041 E0.00659
G1 X135.947 Y137.041 E0.00313
G1 X136.144 Y137.031 E0.00659
G1 X136.420 Y136.991 E0.00927
G1 X136.694 Y136.920 E0.00941
G1 X136.958 Y136.820 E0.00941
G1 X137.197 Y136.699 E0.00892
G1 X141.678 Y134.112 E0.17209
G1 X141.903 Y133.965 E0.00892
G1 X142.121 Y133.786 E0.00941
G1 X142.320 Y133.584 E0.00941
G1 X142.492 Y133.366 E0.00927
G1 X142.600 Y133.200 E0.00659
G1 X142.647 Y133.118 E0.00313
G1 X142.737 Y132.942 E0.00659
G1 X142.840 Y132.683 E0.00927
G1 X142.916 Y132.410 E0.00941
G1 X142.961 Y132.131 E0.00941
G1 X142.976 Y131.864 E0.00892
G1 X142.976 Y126.690 E0.17209
G1 X142.961 Y126.422 E0.00892
G1 X142.916 Y126.143 E0.00941
G1 X142.840 Y125.871 E0.00941
G1 X142.737 Y125.612 E0.00927
G1 X142.647 Y125.435 E0.00659
G1 X142.600 Y125.354 E0.00313
G1 X142.492 Y125.188 E0.00659
G1 X142.320 Y124.969 E0.00927
G1 X142.121 Y124.767 E0.00941
G1 X141.903 Y124.588 E0.00941
G1 X141.678 Y124.442 E0.00892
G1 X137.197 Y121.855 E0.17209
G1 X136.958 Y121.734 E0.00892
G1 X136.696 Y121.635 E0.00933
G1 X136.509 Y121.584 E0.00644
G1 X136.414 Y121.562 E0.00324
G1 X136.144 Y121.523 E0.00908
G1 X135.947 Y121.512 E0.00659
G1 X135.852 Y121.512 E0.00313
G1 X135.655 Y121.523 E0.00659
G1 X135.379 Y121.563 E0.00927
G1 X135.105 Y121.634 E0.00941
G1 X134.841 Y121.734 E0.00941
G1 X134.602 Y121.855 E0.00892
G1 X130.121 Y124.442 E0.17209
G1 X129.896 Y124.588 E0.00892
G1 X129.678 Y124.767 E0.00941
G1 X129.479 Y124.969 E0.00941
G1 X129.307 Y125.188 E0.00927
G1 X129.199 Y125.354 E0.00659
G1 X129.191 Y125.368 E0.00054
M204 S3000
G1 X129.494 Y125.535 F18000
; External perimeter
;ExternalPerimeter0
SET_VELOCITY_LIMIT ACCEL=1000 ACCEL_TO_DECEL=1000 SQUARE_CORNER_VELOCITY=8

; Perimeter

;TYPE:External perimeter
G1 F1500
M204 S2000
G1 X129.456 Y125.601 E0.00252
G1 X129.378 Y125.755 E0.00575
G1 X129.288 Y125.981 E0.00811
G1 X129.222 Y126.218 E0.00816
G1 X129.182 Y126.460 E0.00816
G1 X129.170 Y126.699 E0.00798
G1 X129.170 Y131.854 E0.17147
G1 X129.182 Y132.094 E0.00798
G1 X129.222 Y132.336 E0.00816
G1 X129.288 Y132.572 E0.00816
G1 X129.378 Y132.799 E0.00811
G1 X129.456 Y132.953 E0.00575
G1 X129.494 Y133.019 E0.00252
G1 X129.588 Y133.164 E0.00575
G1 X129.739 Y133.355 E0.00811
G1 X129.911 Y133.530 E0.00816
G1 X130.101 Y133.685 E0.00816
G1 X130.302 Y133.816 E0.00798
G1 X134.767 Y136.394 E0.17147
G1 X134.981 Y136.502 E0.00798
G1 X135.209 Y136.589 E0.00813
G1 X135.375 Y136.633 E0.00569
G1 X135.450 Y136.651 E0.00256
G1 X135.689 Y136.686 E0.00804
G1 X135.862 Y136.695 E0.00575
G1 X135.937 Y136.695 E0.00252
G1 X136.110 Y136.686 E0.00575
G1 X136.351 Y136.651 E0.00811
G1 X136.589 Y136.589 E0.00816
G1 X136.818 Y136.502 E0.00816
G1 X137.032 Y136.394 E0.00798
G1 X141.497 Y133.816 E0.17147
G1 X141.698 Y133.685 E0.00798
G1 X141.888 Y133.530 E0.00816
G1 X142.060 Y133.355 E0.00816
G1 X142.211 Y133.164 E0.00811
G1 X142.305 Y133.019 E0.00575
G1 X142.343 Y132.953 E0.00252
G1 X142.421 Y132.799 E0.00575
G1 X142.511 Y132.572 E0.00811
G1 X142.577 Y132.336 E0.00816
G1 X142.617 Y132.094 E0.00816
G1 X142.630 Y131.854 E0.00798
G1 X142.630 Y126.699 E0.17147
G1 X142.617 Y126.460 E0.00798
G1 X142.577 Y126.218 E0.00816
G1 X142.511 Y125.981 E0.00816
G1 X142.421 Y125.755 E0.00811
G1 X142.343 Y125.601 E0.00575
G1 X142.305 Y125.535 E0.00252
G1 X142.211 Y125.390 E0.00575
G1 X142.060 Y125.199 E0.00811
G1 X141.888 Y125.024 E0.00816
G1 X141.698 Y124.868 E0.00816
G1 X141.497 Y124.737 E0.00798
G1 X137.032 Y122.160 E0.17147
G1 X136.818 Y122.051 E0.00798
G1 X136.590 Y121.965 E0.00813
G1 X136.424 Y121.920 E0.00569
G1 X136.349 Y121.903 E0.00256
G1 X136.110 Y121.868 E0.00804
G1 X135.937 Y121.859 E0.00575
G1 X135.862 Y121.859 E0.00252
G1 X135.689 Y121.868 E0.00575
G1 X135.448 Y121.903 E0.00811
G1 X135.210 Y121.964 E0.00816
G1 X134.981 Y122.051 E0.00816
G1 X134.767 Y122.160 E0.00798
G1 X130.302 Y124.737 E0.17147
G1 X130.101 Y124.868 E0.00798
G1 X129.911 Y125.024 E0.00816
G1 X129.739 Y125.199 E0.00816
G1 X129.588 Y125.390 E0.00811
G1 X129.527 Y125.484 E0.00375
M204 S3000
G1 X129.418 Y125.533 F18000
G1 E-0.50000 F2100
G1 Z0.650000 F18000
G1 X135.371 Y121.191
G1 Z0.250000
G1 E0.50000 F1800
; External perimeter
;Perimeter
SET_VELOCITY_LIMIT ACCEL=2000 ACCEL_TO_DECEL=2000 SQUARE_CORNER_VELOCITY=8

; Overhang perimeter

;TYPE:Internal perimeter
G1 F1500
M204 S2000
G1 X135.627 Y120.797 E0.01559
G1 X135.683 Y120.700 E0.00373
G1 X135.898 Y120.279 E0.01573
G1 X136.112 Y120.700 E0.01573
G1 X136.168 Y120.797 E0.00373
G1 X136.423 Y121.190 E0.01558
G1 X135.956 Y121.166 E0.01558
G1 X135.843 Y121.166 E0.00373
G1 X135.431 Y121.187 E0.01373
G1 E-0.50000 F2100
M204 S3000
G1 Z0.650000 F18000
G1 X142.641 Y124.780
G1 Z0.250000
G1 E0.50000 F1800
G1 F1500
M204 S2000
G1 X143.108 Y124.804 E0.01558
G1 X143.221 Y124.804 E0.00373
G1 X143.693 Y124.780 E0.01572
G1 X143.437 Y125.173 E0.01559
G1 X143.381 Y125.270 E0.00373
G1 X143.167 Y125.691 E0.01573
G1 X142.952 Y125.270 E0.01573
G1 X142.896 Y125.173 E0.00373
G1 X142.673 Y124.830 E0.01359
M204 S3000
G1 X143.695 Y125.420 F18000
G1 F1500
M204 S2000
G1 X143.686 Y125.435 E0.00059
G1 X143.596 Y125.612 E0.00659
G1 X143.493 Y125.871 E0.00927
G1 X143.417 Y126.143 E0.00941
G1 X143.372 Y126.422 E0.00941
G1 X143.357 Y126.690 E0.00892
G1 X143.357 Y131.864 E0.17209
G1 X143.372 Y132.131 E0.00892
G1 X143.417 Y132.410 E0.00941
G1 X143.493 Y132.683 E0.00941
G1 X143.596 Y132.942 E0.00927
G1 X143.686 Y133.118 E0.00659
G1 X143.733 Y133.200 E0.00313
G1 X143.841 Y133.366 E0.00659
G1 X144.013 Y133.584 E0.00927
G1 X144.212 Y133.786 E0.00941
G1 X144.430 Y133.965 E0.00941
G1 X144.655 Y134.112 E0.00892
G1 X147.227 Y135.597 E0.09880
G1 X147.447 Y135.705 E0.00816
G1 X147.691 Y135.788 E0.00857
G1 X147.871 Y135.827 E0.00612
G1 X147.960 Y135.841 E0.00298
G1 X148.135 Y135.857 E0.00586
G1 X148.225 Y135.857 E0.00298
G1 X148.402 Y135.852 E0.00589
G1 X148.660 Y135.812 E0.00867
G1 X148.912 Y135.738 E0.00875
G1 X149.148 Y135.635 E0.00855
G1 X149.317 Y135.537 E0.00649
G1 X149.524 Y135.385 E0.00855
G1 X149.714 Y135.204 E0.00874
G1 X149.822 Y135.070 E0.00572
G1 X149.879 Y134.998 E0.00307
G1 X150.013 Y134.777 E0.00857
G1 X150.089 Y134.612 E0.00606
G1 X150.122 Y134.528 E0.00298
G1 X150.177 Y134.353 E0.00612
G1 X150.228 Y134.100 E0.00857
G1 X150.244 Y133.855 E0.00816
G1 X150.245 Y124.698 E0.30460
G1 X150.229 Y124.453 E0.00816
G1 X150.179 Y124.200 E0.00858
G1 X150.123 Y124.025 E0.00612
G1 X150.090 Y123.942 E0.00298
G1 X150.014 Y123.776 E0.00606
G1 X149.880 Y123.556 E0.00857
G1 X149.823 Y123.484 E0.00307
G1 X149.715 Y123.349 E0.00573
G1 X149.525 Y123.168 E0.00874
G1 X149.318 Y123.016 E0.00855
G1 X149.149 Y122.918 E0.00649
G1 X148.918 Y122.816 E0.00841
G1 X148.828 Y122.789 E0.00311
G1 X148.659 Y122.741 E0.00584
G1 X148.401 Y122.701 E0.00869
G1 X148.143 Y122.695 E0.00860
G1 X147.961 Y122.712 E0.00606
G1 X147.872 Y122.725 E0.00298
G1 X147.700 Y122.763 E0.00586
G1 X147.614 Y122.790 E0.00298
G1 X147.446 Y122.849 E0.00595
G1 X147.229 Y122.956 E0.00805
G1 X144.655 Y124.442 E0.09883
G1 X144.509 Y124.537 E0.00579
G1 X144.430 Y124.589 E0.00317
G1 X144.212 Y124.767 E0.00937
G1 X144.013 Y124.969 E0.00941
G1 X143.841 Y125.188 E0.00927
G1 X143.733 Y125.354 E0.00659
G1 X143.725 Y125.368 E0.00054
M204 S3000
G1 X144.028 Y125.535 F18000
; External perimeter
;ExternalPerimeter0
SET_VELOCITY_LIMIT ACCEL=1000 ACCEL_TO_DECEL=1000 SQUARE_CORNER_VELOCITY=8

; Perimeter

;TYPE:External perimeter
G1 F1500
M204 S2000
G1 X143.990 Y125.601 E0.00252
G1 X143.912 Y125.755 E0.00575
G1 X143.822 Y125.981 E0.00811
G1 X143.756 Y126.218 E0.00816
G1 X143.716 Y126.460 E0.00816
G1 X143.704 Y126.699 E0.00798
G1 X143.704 Y131.854 E0.17147
G1 X143.716 Y132.094 E0.00798
G1 X143.756 Y132.336 E0.00816
G1 X143.822 Y132.572 E0.00816
G1 X143.912 Y132.799 E0.00811
G1 X143.990 Y132.953 E0.00575
G1 X144.028 Y133.019 E0.00252
G1 X144.122 Y133.164 E0.00575
G1 X144.273 Y133.355 E0.00811
G1 X144.445 Y133.530 E0.00816
G1 X144.635 Y133.685 E0.00816
G1 X144.836 Y133.816 E0.00798
G1 X147.391 Y135.291 E0.09811
G1 X147.580 Y135.385 E0.00702
G1 X147.784 Y135.454 E0.00718
G1 X147.934 Y135.487 E0.00510
G1 X148.002 Y135.497 E0.00227
G1 X148.151 Y135.511 E0.00500
G1 X148.220 Y135.511 E0.00227
G1 X148.370 Y135.506 E0.00501
G1 X148.585 Y135.473 E0.00721
G1 X148.794 Y135.412 E0.00724
G1 X148.991 Y135.325 E0.00717
G1 X149.127 Y135.247 E0.00523
G1 X149.301 Y135.119 E0.00717
G1 X149.458 Y134.969 E0.00724
G1 X149.551 Y134.853 E0.00495
G1 X149.594 Y134.799 E0.00230
G1 X149.706 Y134.615 E0.00717
G1 X149.770 Y134.476 E0.00508
G1 X149.795 Y134.412 E0.00227
G1 X149.842 Y134.266 E0.00510
G1 X149.884 Y134.055 E0.00718
G1 X149.898 Y133.844 E0.00702
G1 X149.899 Y124.709 E0.30385
G1 X149.885 Y124.499 E0.00702
G1 X149.843 Y124.287 E0.00718
G1 X149.796 Y124.141 E0.00510
G1 X149.771 Y124.077 E0.00227
G1 X149.708 Y123.939 E0.00508
G1 X149.596 Y123.754 E0.00717
G1 X149.553 Y123.700 E0.00230
G1 X149.459 Y123.584 E0.00495
G1 X149.302 Y123.434 E0.00724
