; generated by SuperSlicer 2.3.56 on 2021-10-16 at 03:41:52 UTC


;
;

;
;
; 

; external perimeters extrusion width = 0.38mm
; perimeters extrusion width = 0.38mm
; infill extrusion width = 0.45mm
; solid infill extrusion width = 0.45mm
; top infill extrusion width = 0.44mm
; support material extrusion width = 0.40mm
; first layer extrusion width = 0.40mm


;TYPE:Custom
; M190 S0
; M109 S0 ; uncomment to remove set&wait temp gcode added automatically after this start gcode
print_start EXTRUDER=245 BED=110 CHAMBER=50
G21 ; set units to millimeters
G90 ; use absolute coordinates
M83 ; use relative distances for extrusion
M104 S245 ; set temperature
M109 S245 ; set temperature and wait for it to be reached
M190 S110 ; set bed temperature and wait for it to be reached
;LAYER_CHANGE
;Z:0.25
;HEIGHT:0.25

G1 Z0.250000 F18000
G1 E-0.50000 F2100
G1 Z1.150000 F18000
G1 X67.504 Y49.773
G1 Z0.250000
G1 E0.50000 F1800
; External perimeter
;Skirt
SET_VELOCITY_LIMIT ACCEL=7000 ACCEL_TO_DECEL=7000 SQUARE_CORNER_VELOCITY=8

; Support material

;TYPE:Skirt
;WIDTH:0.4
G1 F1500
M204 S2000
G1 X68.111 Y49.107 E0.02921
G1 X68.856 Y48.599 E0.02921
G1 X69.698 Y48.278 E0.02921
G1 X70.592 Y48.160 E0.02921
G1 X179.359 Y48.160 E3.52393
G1 X180.107 Y48.234 E0.02436
G1 X180.822 Y48.449 E0.02420
G1 X181.486 Y48.801 E0.02436
G1 X182.067 Y49.271 E0.02420
G1 X182.548 Y49.848 E0.02436
G1 X182.909 Y50.508 E0.02436
G1 X183.135 Y51.220 E0.02420
G1 X183.219 Y51.967 E0.02436
G1 X183.191 Y123.042 E2.30278
G1 X182.365 Y198.676 E2.45061
G1 X182.310 Y199.256 E0.01887
G1 X182.170 Y199.816 E0.01871
G1 X181.945 Y200.354 E0.01887
G1 X181.643 Y200.851 E0.01887
G1 X181.032 Y201.521 E0.02936
G1 X180.278 Y202.033 E0.02952
G1 X179.430 Y202.352 E0.02936
G1 X178.531 Y202.466 E0.02936
G1 X71.476 Y202.466 E3.46849
G1 X70.886 Y202.417 E0.01918
G1 X70.305 Y202.277 E0.01934
G1 X69.758 Y202.051 E0.01918
G1 X69.248 Y201.742 E0.01934
G1 X68.581 Y201.135 E0.02921
G1 X68.071 Y200.386 E0.02936
G1 X67.750 Y199.538 E0.02936
G1 X67.634 Y198.642 E0.02927
G1 X66.809 Y123.002 E2.45082
G1 X66.780 Y51.987 E2.30082
G1 X66.832 Y51.397 E0.01918
G1 X66.972 Y50.822 E0.01918
G1 X67.197 Y50.279 E0.01902
G1 X67.473 Y49.824 E0.01724
M204 S3000
G1 X67.768 Y50.004 F18000
G1 F1500
M204 S2000
G1 X67.787 Y49.972 E0.00120
G1 X68.339 Y49.367 E0.02652
G1 X69.019 Y48.904 E0.02667
G1 X69.784 Y48.613 E0.02652
G1 X70.601 Y48.506 E0.02667
G1 X179.359 Y48.506 E3.52365
G1 X180.040 Y48.573 E0.02219
G1 X180.696 Y48.772 E0.02219
G1 X181.297 Y49.091 E0.02204
G1 X181.828 Y49.522 E0.02219
G1 X182.263 Y50.045 E0.02204
G1 X182.592 Y50.646 E0.02219
G1 X182.798 Y51.299 E0.02219
G1 X182.873 Y51.980 E0.02219
G1 X182.844 Y123.034 E2.30208
G1 X182.019 Y198.666 E2.45055
G1 X181.969 Y199.196 E0.01725
G1 X181.839 Y199.713 E0.01725
G1 X181.358 Y200.654 E0.03426
G1 X180.802 Y201.262 E0.02667
G1 X180.117 Y201.726 E0.02682
G1 X179.342 Y202.017 E0.02682
G1 X178.526 Y202.119 E0.02667
G1 X71.477 Y202.119 E3.46827
G1 X70.937 Y202.074 E0.01755
G1 X70.410 Y201.947 E0.01755
G1 X69.910 Y201.740 E0.01755
G1 X69.447 Y201.459 E0.01755
G1 X68.839 Y200.903 E0.02667
G1 X68.377 Y200.222 E0.02667
G1 X68.085 Y199.453 E0.02667
G1 X67.981 Y198.638 E0.02660
G1 X67.156 Y123.006 E2.45055
G1 X67.127 Y51.993 E2.30075
G1 X67.173 Y51.458 E0.01740
G1 X67.301 Y50.931 E0.01755
G1 X67.508 Y50.431 E0.01755
G1 X67.737 Y50.055 E0.01426
M204 S3000
G1 X68.049 Y50.214 F18000
G1 F1500
M204 S2000
G1 X68.071 Y50.171 E0.00155
G1 X68.569 Y49.627 E0.02390
G1 X69.183 Y49.210 E0.02404
G1 X69.872 Y48.948 E0.02390
G1 X70.608 Y48.852 E0.02404
G1 X179.358 Y48.852 E3.52339
G1 X179.975 Y48.914 E0.02007
G1 X180.564 Y49.092 E0.01993
G1 X181.107 Y49.380 E0.01993
G1 X181.584 Y49.768 E0.01993
G1 X181.978 Y50.241 E0.01993
G1 X182.275 Y50.785 E0.02007
G1 X182.460 Y51.376 E0.02007
G1 X182.527 Y51.988 E0.01993
G1 X182.498 Y123.032 E2.30177
G1 X181.673 Y198.657 E2.45030
G1 X181.512 Y199.599 E0.03096
G1 X181.075 Y200.454 E0.03111
G1 X180.571 Y201.004 E0.02418
G1 X179.956 Y201.419 E0.02404
G1 X179.261 Y201.680 E0.02404
G1 X178.521 Y201.773 E0.02418
G1 X71.482 Y201.773 E3.46793
G1 X70.517 Y201.617 E0.03167
G1 X69.646 Y201.175 E0.03167
G1 X69.110 Y200.687 E0.02347
G1 X68.697 Y200.087 E0.02362
G1 X68.431 Y199.408 E0.02362
G1 X68.328 Y198.686 E0.02362
G1 X67.502 Y123.035 E2.45118
G1 X67.473 Y51.999 E2.30148
G1 X67.630 Y51.039 E0.03153
G1 X68.022 Y50.267 E0.02803
G1 E-0.50000 F2100
M204 S3000
G1 Z1.150000 F18000
G1 X74.375 Y55.785
G1 Z0.250000
G1 E0.50000 F1800
; External perimeter
;Perimeter
SET_VELOCITY_LIMIT ACCEL=2000 ACCEL_TO_DECEL=2000 SQUARE_CORNER_VELOCITY=8

; Overhang perimeter

;TYPE:Internal perimeter
G1 F1500
M204 S2000
G1 X74.375 Y115.864 E1.94650
G1 X120.797 Y115.864 E1.50403
G1 X120.863 Y116.108 E0.00818
G1 X120.189 Y116.497 E0.02522
G1 X120.189 Y122.053 E0.18000
G1 X120.863 Y122.442 E0.02522
G1 X120.797 Y122.686 E0.00818
G1 X72.113 Y122.686 E1.57732
G1 X71.914 Y122.487 E0.00912
G1 X71.914 Y53.264 E2.24273
G1 X178.086 Y53.264 E3.43986
G1 X178.086 Y122.487 E2.24273
G1 X177.887 Y122.686 E0.00912
G1 X129.203 Y122.686 E1.57732
G1 X129.137 Y122.442 E0.00818
G1 X129.811 Y122.053 E0.02522
G1 X129.811 Y116.497 E0.18000
G1 X129.137 Y116.108 E0.02522
G1 X129.203 Y115.864 E0.00818
G1 X175.625 Y115.864 E1.50403
G1 X175.625 Y55.785 E1.94650
G1 X74.435 Y55.785 E3.27843
M204 S3000
G1 X74.722 Y56.131 F18000
G1 F1500
M204 S2000
G1 X74.722 Y115.518 E1.92406
G1 X122.090 Y115.518 E1.53469
G1 X122.155 Y115.762 E0.00818
G1 X120.535 Y116.697 E0.06062
G1 X120.535 Y121.853 E0.16704
G1 X122.155 Y122.788 E0.06062
G1 X122.090 Y123.032 E0.00818
G1 X71.970 Y123.032 E1.62385
G1 X71.568 Y122.630 E0.01842
G1 X71.568 Y53.607 E2.23628
G1 X71.539 Y53.607 E0.00094
G1 X71.539 Y52.918 E0.02233
G1 X178.461 Y52.918 E3.46418
G1 X178.461 Y53.607 E0.02233
G1 X178.432 Y53.607 E0.00094
G1 X178.432 Y122.630 E2.23628
G1 X178.030 Y123.032 E0.01842
G1 X127.910 Y123.032 E1.62385
G1 X127.845 Y122.788 E0.00818
G1 X129.465 Y121.853 E0.06062
G1 X129.465 Y116.697 E0.16704
G1 X127.845 Y115.762 E0.06062
G1 X127.910 Y115.518 E0.00818
G1 X175.278 Y115.518 E1.53469
G1 X175.278 Y56.131 E1.92406
G1 X74.782 Y56.131 E3.25599
M204 S3000
G1 X75.068 Y56.478 F18000
G1 F1500
M204 S2000
G1 X75.068 Y115.171 E1.90162
G1 X123.383 Y115.171 E1.56534
G1 X123.448 Y115.415 E0.00818
G1 X120.881 Y116.897 E0.09602
G1 X120.881 Y121.653 E0.15409
G1 X123.448 Y123.135 E0.09602
G1 X123.383 Y123.379 E0.00818
G1 X71.826 Y123.379 E1.67037
G1 X71.221 Y122.774 E0.02771
G1 X71.221 Y53.954 E2.22970
G1 X71.192 Y53.954 E0.00094
G1 X71.192 Y52.572 E0.04477
G1 X178.808 Y52.572 E3.48662
G1 X178.808 Y53.954 E0.04477
G1 X178.779 Y53.954 E0.00094
G1 X178.779 Y122.774 E2.22970
G1 X178.174 Y123.379 E0.02771
G1 X126.617 Y123.379 E1.67037
G1 X126.552 Y123.135 E0.00818
G1 X129.119 Y121.653 E0.09602
G1 X129.119 Y116.897 E0.15409
G1 X126.552 Y115.415 E0.09602
G1 X126.617 Y115.171 E0.00818
G1 X174.932 Y115.171 E1.56534
G1 X174.932 Y56.478 E1.90162
G1 X75.128 Y56.478 E3.23355
G1 E-0.50000 F2100
M204 S3000
G1 Z0.650000 F18000
G1 X121.228 Y117.097
G1 Z0.250000
G1 E0.50000 F1800
; External perimeter
;ExternalPerimeter0
SET_VELOCITY_LIMIT ACCEL=1000 ACCEL_TO_DECEL=1000 SQUARE_CORNER_VELOCITY=8

; Perimeter

;TYPE:External perimeter
G1 F1500
M204 S2000
G1 X121.228 Y121.453 E0.14113
G1 X125.000 Y123.631 E0.14113
G1 X128.772 Y121.453 E0.14113
G1 X128.772 Y117.097 E0.14113
G1 X125.000 Y114.919 E0.14113
G1 X121.280 Y117.067 E0.13918
M204 S3000
G1 X120.834 Y117.166 F18000
G1 E-0.50000 F2100
G1 Z0.650000 F18000
G1 X75.414 Y114.825
G1 Z0.250000
G1 E0.50000 F1800
G1 F1500
M204 S2000
G1 X174.586 Y114.825 E3.21305
G1 X174.586 Y56.824 E1.87918
G1 X75.414 Y56.824 E3.21305
G1 X75.414 Y114.765 E1.87723
M204 S3000
G1 X75.414 Y115.225 F18000
G1 E-0.50000 F2100
G1 Z0.650000 F18000
G1 X70.846 Y52.225
G1 Z0.250000
G1 E0.50000 F1800
G1 F1500
M204 S2000
G1 X179.154 Y52.225 E3.50907
G1 X179.154 Y54.300 E0.06721
G1 X179.125 Y54.300 E0.00094
G1 X179.125 Y122.917 E2.22313
G1 X178.317 Y123.725 E0.03701
G1 X71.683 Y123.725 E3.45485
G1 X70.875 Y122.917 E0.03701
G1 X70.875 Y54.300 E2.22313
G1 X70.846 Y54.300 E0.00094
G1 X70.846 Y52.285 E0.06527
M204 S3000
G1 X71.192 Y52.425 F18000
G1 E-0.50000 F2100
G1 Z0.650000 F18000
G1 X120.982 Y115.945
G1 Z0.250000
G1 E0.50000 F1800
; External perimeter
;GapFill
SET_VELOCITY_LIMIT ACCEL=2000 ACCEL_TO_DECEL=2000 SQUARE_CORNER_VELOCITY=8

; Skirt

;TYPE:Gap fill
;WIDTH:0.613909
G1 F1500
M204 S2000
G1 X121.034 Y115.931 E0.00282
;WIDTH:0.570457
G1 X121.086 Y115.918 E0.00260
;WIDTH:0.527005
G1 X121.138 Y115.904 E0.00238
;WIDTH:0.483552
G1 X121.189 Y115.890 E0.00216
G1 X121.270 Y115.868 E0.00334
;WIDTH:0.434424
G1 X121.350 Y115.847 E0.00296
;WIDTH:0.385295
G1 X121.430 Y115.825 E0.00258
;WIDTH:0.336167
G1 X121.510 Y115.804 E0.00219
;WIDTH:0.287038
G1 X121.590 Y115.782 E0.00181
;WIDTH:0.237909
G1 X121.671 Y115.761 E0.00143
;WIDTH:0.188781
G1 X121.751 Y115.739 E0.00105
;WIDTH:0.139652
G1 X121.831 Y115.718 E0.00067
G1 X121.852 Y115.712 E0.00017
G1 X121.873 Y115.707 E0.00017
M204 S3000
G1 X122.274 Y115.599 F18000
;WIDTH:0.613909
G1 F1500
M204 S2000
G1 X122.326 Y115.585 E0.00282
;WIDTH:0.570457
G1 X122.378 Y115.571 E0.00260
;WIDTH:0.527005
G1 X122.430 Y115.557 E0.00238
;WIDTH:0.483552
G1 X122.482 Y115.543 E0.00216
G1 X122.562 Y115.522 E0.00334
;WIDTH:0.434424
G1 X122.642 Y115.500 E0.00296
;WIDTH:0.385295
G1 X122.723 Y115.479 E0.00258
;WIDTH:0.336167
G1 X122.803 Y115.457 E0.00219
;WIDTH:0.287038
G1 X122.883 Y115.436 E0.00181
;WIDTH:0.237909
G1 X122.963 Y115.414 E0.00143
;WIDTH:0.188781
G1 X123.044 Y115.393 E0.00105
;WIDTH:0.139652
G1 X123.124 Y115.371 E0.00067
G1 X123.144 Y115.366 E0.00017
G1 X123.165 Y115.360 E0.00017
M204 S3000
G1 X123.567 Y115.253 F18000
;WIDTH:0.613909
G1 F1500
M204 S2000
G1 X123.619 Y115.239 E0.00282
;WIDTH:0.570457
G1 X123.671 Y115.225 E0.00260
;WIDTH:0.527005
G1 X123.723 Y115.211 E0.00238
;WIDTH:0.483552
G1 X123.775 Y115.197 E0.00216
G1 X123.855 Y115.176 E0.00334
;WIDTH:0.434424
G1 X123.935 Y115.154 E0.00296
;WIDTH:0.385295
G1 X124.015 Y115.133 E0.00258
;WIDTH:0.336167
G1 X124.095 Y115.111 E0.00219
;WIDTH:0.287038
G1 X124.176 Y115.090 E0.00181
;WIDTH:0.237909
G1 X124.256 Y115.068 E0.00143
;WIDTH:0.188781
G1 X124.336 Y115.047 E0.00105
;WIDTH:0.139652
G1 X124.416 Y115.025 E0.00067
G1 X124.437 Y115.019 E0.00017
G1 X124.458 Y115.014 E0.00017
M204 S3000
G1 X125.542 Y115.014 F18000
;WIDTH:0.139651
G1 F1500
M204 S2000
G1 X125.563 Y115.019 E0.00017
G1 X125.584 Y115.025 E0.00017
G1 X125.664 Y115.047 E0.00067
;WIDTH:0.18878
G1 X125.744 Y115.068 E0.00105
;WIDTH:0.237909
G1 X125.824 Y115.090 E0.00143
;WIDTH:0.287038
G1 X125.905 Y115.111 E0.00181
;WIDTH:0.336167
G1 X125.985 Y115.133 E0.00219
;WIDTH:0.385296
G1 X126.065 Y115.154 E0.00258
;WIDTH:0.434425
G1 X126.145 Y115.176 E0.00296
;WIDTH:0.483554
G1 X126.225 Y115.197 E0.00334
G1 X126.277 Y115.211 E0.00216
;WIDTH:0.527006
G1 X126.329 Y115.225 E0.00238
;WIDTH:0.570459
G1 X126.381 Y115.239 E0.00260
;WIDTH:0.613911
G1 X126.433 Y115.253 E0.00282
M204 S3000
G1 X126.835 Y115.360 F18000
;WIDTH:0.139651
G1 F1500
M204 S2000
G1 X126.856 Y115.366 E0.00017
G1 X126.876 Y115.371 E0.00017
G1 X126.956 Y115.393 E0.00067
;WIDTH:0.18878
G1 X127.037 Y115.414 E0.00105
;WIDTH:0.237909
G1 X127.117 Y115.436 E0.00143
;WIDTH:0.287038
G1 X127.197 Y115.457 E0.00181
;WIDTH:0.336168
G1 X127.277 Y115.479 E0.00219
;WIDTH:0.385297
G1 X127.358 Y115.500 E0.00258
;WIDTH:0.434426
G1 X127.438 Y115.522 E0.00296
;WIDTH:0.483555
G1 X127.518 Y115.543 E0.00334
G1 X127.570 Y115.557 E0.00216
;WIDTH:0.527007
G1 X127.622 Y115.571 E0.00238
;WIDTH:0.570459
G1 X127.674 Y115.585 E0.00260
;WIDTH:0.613911
G1 X127.726 Y115.599 E0.00282
M204 S3000
G1 X128.127 Y115.707 F18000
;WIDTH:0.139651
G1 F1500
M204 S2000
G1 X128.148 Y115.712 E0.00017
G1 X128.169 Y115.718 E0.00017
G1 X128.249 Y115.739 E0.00067
;WIDTH:0.18878
G1 X128.329 Y115.761 E0.00105
;WIDTH:0.237909
G1 X128.410 Y115.782 E0.00143
;WIDTH:0.287038
G1 X128.490 Y115.804 E0.00181
;WIDTH:0.336167
G1 X128.570 Y115.825 E0.00219
;WIDTH:0.385296
G1 X128.650 Y115.847 E0.00258
;WIDTH:0.434425
G1 X128.730 Y115.868 E0.00296
;WIDTH:0.483554
G1 X128.811 Y115.890 E0.00334
G1 X128.863 Y115.904 E0.00216
;WIDTH:0.527006
G1 X128.914 Y115.918 E0.00238
;WIDTH:0.570459
G1 X128.966 Y115.931 E0.00260
;WIDTH:0.613911
G1 X129.018 Y115.945 E0.00282
G1 E-0.50000 F2100
M204 S3000
G1 Z0.650000 F18000
G1 X129.018 Y122.605
G1 Z0.250000
G1 E0.50000 F1800
;WIDTH:0.613915
G1 F1500
M204 S2000
G1 X128.966 Y122.619 E0.00282
;WIDTH:0.570461
G1 X128.914 Y122.632 E0.00260
;WIDTH:0.527008
G1 X128.863 Y122.646 E0.00238
;WIDTH:0.483554
G1 X128.811 Y122.660 E0.00216
G1 X128.730 Y122.682 E0.00334
;WIDTH:0.434426
G1 X128.650 Y122.703 E0.00296
;WIDTH:0.385297
G1 X128.570 Y122.725 E0.00258
;WIDTH:0.336168
G1 X128.490 Y122.746 E0.00219
;WIDTH:0.287039
G1 X128.410 Y122.768 E0.00181
;WIDTH:0.23791
G1 X128.329 Y122.789 E0.00143
;WIDTH:0.188781
G1 X128.249 Y122.811 E0.00105
;WIDTH:0.139652
G1 X128.169 Y122.832 E0.00067
G1 X128.148 Y122.838 E0.00017
G1 X128.127 Y122.843 E0.00017
M204 S3000
G1 X127.726 Y122.951 F18000
;WIDTH:0.613913
G1 F1500
M204 S2000
G1 X127.674 Y122.965 E0.00282
;WIDTH:0.57046
G1 X127.622 Y122.979 E0.00260
;WIDTH:0.527007
G1 X127.570 Y122.993 E0.00238
;WIDTH:0.483554
G1 X127.518 Y123.007 E0.00216
G1 X127.438 Y123.028 E0.00334
;WIDTH:0.434426
G1 X127.358 Y123.050 E0.00296
;WIDTH:0.385297
G1 X127.277 Y123.071 E0.00258
;WIDTH:0.336168
G1 X127.197 Y123.093 E0.00219
;WIDTH:0.287039
G1 X127.117 Y123.114 E0.00181
;WIDTH:0.23791
G1 X127.037 Y123.136 E0.00143
;WIDTH:0.188781
G1 X126.956 Y123.157 E0.00105
;WIDTH:0.139652
G1 X126.876 Y123.179 E0.00067
G1 X126.856 Y123.184 E0.00017
G1 X126.835 Y123.190 E0.00017
M204 S3000
G1 X126.433 Y123.297 F18000
;WIDTH:0.613913
G1 F1500
M204 S2000
G1 X126.381 Y123.311 E0.00282
;WIDTH:0.57046
G1 X126.329 Y123.325 E0.00260
;WIDTH:0.527007
G1 X126.277 Y123.339 E0.00238
;WIDTH:0.483554
G1 X126.225 Y123.353 E0.00216
G1 X126.145 Y123.374 E0.00334
;WIDTH:0.434426
G1 X126.065 Y123.396 E0.00296
;WIDTH:0.385297
G1 X125.985 Y123.417 E0.00258
;WIDTH:0.336168
G1 X125.905 Y123.439 E0.00219
;WIDTH:0.287039
G1 X125.824 Y123.460 E0.00181
;WIDTH:0.23791
G1 X125.744 Y123.482 E0.00143
;WIDTH:0.188781
G1 X125.664 Y123.503 E0.00105
;WIDTH:0.139652
G1 X125.584 Y123.525 E0.00067
G1 X125.563 Y123.531 E0.00017
G1 X125.542 Y123.536 E0.00017
M204 S3000
G1 X124.458 Y123.536 F18000
;WIDTH:0.139651
G1 F1500
M204 S2000
G1 X124.437 Y123.531 E0.00017
G1 X124.416 Y123.525 E0.00017
G1 X124.336 Y123.503 E0.00067
;WIDTH:0.18878
G1 X124.256 Y123.482 E0.00105
;WIDTH:0.237909
G1 X124.176 Y123.460 E0.00143
;WIDTH:0.287038
G1 X124.095 Y123.439 E0.00181
;WIDTH:0.336166
G1 X124.015 Y123.417 E0.00219
;WIDTH:0.385295
G1 X123.935 Y123.396 E0.00258
;WIDTH:0.434424
G1 X123.855 Y123.374 E0.00296
;WIDTH:0.483553
G1 X123.775 Y123.353 E0.00334
G1 X123.723 Y123.339 E0.00216
;WIDTH:0.527006
G1 X123.671 Y123.325 E0.00238
;WIDTH:0.570459
G1 X123.619 Y123.311 E0.00260
;WIDTH:0.613911
G1 X123.567 Y123.297 E0.00282
M204 S3000
G1 X123.165 Y123.190 F18000
;WIDTH:0.139651
G1 F1500
M204 S2000
G1 X123.145 Y123.184 E0.00017
G1 X123.124 Y123.179 E0.00017
G1 X123.044 Y123.157 E0.00067
;WIDTH:0.18878
G1 X122.963 Y123.136 E0.00105
;WIDTH:0.237909
G1 X122.883 Y123.114 E0.00143
;WIDTH:0.287038
G1 X122.803 Y123.093 E0.00181
;WIDTH:0.336166
G1 X122.723 Y123.071 E0.00219
;WIDTH:0.385295
G1 X122.642 Y123.050 E0.00258
;WIDTH:0.434424
G1 X122.562 Y123.028 E0.00296
;WIDTH:0.483553
G1 X122.482 Y123.007 E0.00334
G1 X122.430 Y122.993 E0.00216
;WIDTH:0.527006
G1 X122.378 Y122.979 E0.00238
;WIDTH:0.570459
G1 X122.326 Y122.965 E0.00260
;WIDTH:0.613911
G1 X122.274 Y122.951 E0.00282
M204 S3000
G1 X121.873 Y122.843 F18000
;WIDTH:0.139651
G1 F1500
M204 S2000
G1 X121.852 Y122.838 E0.00017
G1 X121.831 Y122.832 E0.00017
G1 X121.751 Y122.811 E0.00067
;WIDTH:0.18878
G1 X121.671 Y122.789 E0.00105
;WIDTH:0.237909
G1 X121.590 Y122.768 E0.00143
;WIDTH:0.287038
G1 X121.510 Y122.746 E0.00181
;WIDTH:0.336166
G1 X121.430 Y122.725 E0.00219
;WIDTH:0.385295
G1 X121.350 Y122.703 E0.00258
;WIDTH:0.434424
